; generated by PrusaSlicer 2.7.0+linux-x64-GTK3 on 2023-12-10 at 20:02:14 UTC


;
;

;
;
; 

; external perimeters extrusion width = 0.42mm
; perimeters extrusion width = 0.44mm
; infill extrusion width = 0.44mm
; solid infill extrusion width = 0.44mm
; top infill extrusion width = 0.40mm
; support material extrusion width = 0.36mm
; first layer extrusion width = 0.42mm
BED_MESH_PROFILE LOAD=default

M201 X500 Y500 Z100 E5000 ; sets maximum accelerations, mm/sec^2
M203 X500 Y500 Z10 E60 ; sets maximum feedrates, mm / sec
M204 P500 R1000 T500 ; sets acceleration (P, T) and retract acceleration (R), mm/sec^2
M205 X8.00 Y8.00 Z0.40 E5.00 ; sets the jerk limits, mm/sec
M205 S0 T0 ; sets the minimum extruding and travel feed rate, mm/sec

; printing object base.stl id:0 copy 0
; stop printing object base.stl id:0 copy 0

;TYPE:Custom
G90 ; use absolute coordinates
M83 ; extruder relative mode
M104 S150 ; set temporary nozzle temp to prevent oozing during homing
M140 S60 ; set final bed temp
G4 S30 ; allow partial nozzle warmup
G28 ; home all axis
G1 Z50 F240
G1 X2.0 Y10 F3000
M104 S210 ; set final nozzle temp
M190 S60 ; wait for bed temp to stabilize
M109 S210 ; wait for nozzle temp to stabilize
G1 Z0.28 F240
G92 E0
G1 X2.0 Y140 E10 F1500 ; prime the nozzle
G1 X2.3 Y140 F5000
G92 E0
G1 X2.3 Y10 E10 F1200 ; prime the nozzle
G92 E0
G21 ; set units to millimeters
G90 ; use absolute coordinates
M83 ; use relative distances for extrusion
; Filament gcode
M107
;LAYER_CHANGE
;Z:0.2
;HEIGHT:0.2
;BEFORE_LAYER_CHANGE
G92 E0
;0.2


G1 E-5 F3600
G1 Z.2 F9000
;AFTER_LAYER_CHANGE
;0.2
G1 X88.542 Y40.72
G1 Z.2
G1 E5 F2400
;TYPE:Skirt/Brim
;WIDTH:0.42
G1 F1200
G1 X88.983 Y39.957 E.02763
G1 X91.985 Y36.044 E.15464
G1 X93.262 Y35.028 E.05117
G1 X94.665 Y34.723 E.04502
G1 X125.335 Y34.723 E.96164
G1 X126.919 Y35.117 E.05118
G1 X128.015 Y36.044 E.04501
G1 X131.017 Y39.957 E.15464
G1 X131.458 Y40.72 E.02763
G1 X136.02 Y51.737 E.37387
G1 X136.277 Y53.029 E.0413
G1 X136.277 Y166.971 E3.57257
G1 X136.02 Y168.263 E.0413
G1 X131.458 Y179.28 E.37387
G1 X131.017 Y180.043 E.02763
G1 X128.015 Y183.956 E.15464
G1 X126.738 Y184.972 E.05117
G1 X125.335 Y185.277 E.04502
G1 X94.665 Y185.277 E.96164
G1 X93.081 Y184.883 E.05118
G1 X91.985 Y183.956 E.04501
G1 X88.983 Y180.043 E.15464
G1 X88.542 Y179.28 E.02763
G1 X83.98 Y168.263 E.37387
G1 X83.723 Y166.971 E.0413
G1 X83.723 Y53.029 E3.57257
G1 X83.98 Y51.737 E.0413
G1 X88.519 Y40.776 E.37198
G1 E-3.5 F3600
;WIPE_START
G1 F7200
G1 X88.542 Y40.72 E-.02876
G1 X88.983 Y39.957 E-.41861
G1 X90.332 Y38.199 E-1.05263
;WIPE_END
G1 X92.585 Y41.679 F9000
G1 E5 F2400
G1 F1200
G1 X93.125 Y40.572 E.03862
G1 X94.127 Y39.405 E.04823
G1 X94.692 Y39.007 E.02167
G1 X95.313 Y38.692 E.02183
G1 X96.619 Y38.386 E.04206
G1 X123.438 Y38.391 E.84089
G1 X124.735 Y38.713 E.0419
G1 X125.466 Y39.106 E.02602
G1 X126.11 Y39.63 E.02603
G1 X127.001 Y40.771 E.04539
G1 X127.392 Y41.604 E.02885
G1 X127.591 Y42.466 E.02774
G1 X127.598 Y43.533 E.03346
G1 X125.782 Y50.401 E.22274
G1 X128.67 Y50.423 E.09055
G1 X129.862 Y50.776 E.03898
G1 X130.757 Y51.321 E.03286
G1 X131.676 Y52.243 E.04082
G1 X132.248 Y53.196 E.03485
G1 X132.614 Y54.581 E.04492
G1 X132.5 Y166.109 E3.49688
G1 X132.189 Y166.937 E.02773
G1 X131.743 Y167.677 E.02709
G1 X130.932 Y168.533 E.03697
G1 X129.969 Y169.174 E.03627
G1 X128.691 Y169.574 E.04199
G1 X125.783 Y169.594 E.09118
G1 X127.593 Y176.432 E.22178
G1 X127.613 Y177.335 E.02832
G1 X127.415 Y178.321 E.03153
G1 X126.875 Y179.428 E.03862
G1 X125.873 Y180.595 E.04823
G1 X125.308 Y180.993 E.02167
G1 X124.687 Y181.308 E.02183
G1 X123.378 Y181.614 E.04215
G1 X96.049 Y181.538 E.85688
G1 X95.371 Y181.328 E.02225
G1 X94.739 Y181.025 E.02198
G1 X93.652 Y180.116 E.04443
G1 X92.784 Y178.845 E.04826
G1 X92.545 Y178.192 E.0218
G1 X92.401 Y177.478 E.02284
G1 X92.403 Y176.464 E.03179
G1 X94.217 Y169.599 E.22263
G1 X91.33 Y169.577 E.09052
G1 X90.138 Y169.224 E.03898
G1 X89.243 Y168.679 E.03286
G1 X88.324 Y167.757 E.04082
G1 X87.752 Y166.804 E.03485
G1 X87.386 Y165.419 E.04492
G1 X87.5 Y53.891 E3.49688
G1 X87.811 Y53.063 E.02773
G1 X88.257 Y52.323 E.02709
G1 X89.068 Y51.467 E.03697
G1 X90.031 Y50.826 E.03627
G1 X91.309 Y50.426 E.04199
G1 X94.217 Y50.406 E.09118
G1 X92.407 Y43.568 E.22178
G1 X92.387 Y42.665 E.02832
G1 X92.573 Y41.737 E.02968
G1 X92.935 Y41.819 F9000
G1 F1200
G1 X93.428 Y40.797 E.03558
G1 X94.364 Y39.699 E.04524
G1 X95.462 Y39.039 E.04017
G1 X96.641 Y38.764 E.03796
G1 X123.415 Y38.769 E.83948
G1 X124.578 Y39.057 E.03757
G1 X125.242 Y39.411 E.02359
G1 X125.856 Y39.909 E.02479
G1 X126.67 Y40.951 E.04146
G1 X127.03 Y41.709 E.02631
G1 X127.219 Y42.531 E.02645
G1 X127.227 Y43.461 E.02916
G1 X125.293 Y50.777 E.23727
G1 X128.589 Y50.793 E.10334
G1 X129.73 Y51.131 E.03731
G1 X130.54 Y51.63 E.02983
G1 X131.392 Y52.491 E.03798
G1 X131.91 Y53.365 E.03186
G1 X132.236 Y54.605 E.0402
G1 X132.135 Y166.009 E3.493
G1 X131.856 Y166.759 E.02509
G1 X131.454 Y167.434 E.02463
G1 X130.705 Y168.232 E.03432
G1 X129.782 Y168.845 E.03474
G1 X128.66 Y169.197 E.03687
G1 X125.294 Y169.22 E.10554
G1 X127.222 Y176.506 E.23631
G1 X127.239 Y177.283 E.02437
G1 X127.065 Y178.181 E.02868
G1 X126.572 Y179.203 E.03558
G1 X125.636 Y180.301 E.04524
G1 X124.538 Y180.961 E.04017
G1 X123.357 Y181.237 E.03803
G1 X96.133 Y181.17 E.85359
G1 X95.521 Y180.981 E.02008
G1 X94.923 Y180.695 E.02078
G1 X93.948 Y179.881 E.03982
G1 X93.13 Y178.693 E.04522
G1 X92.904 Y178.076 E.0206
G1 X92.774 Y177.423 E.02088
G1 X92.774 Y176.536 E.02781
G1 X94.707 Y169.223 E.23717
G1 X91.411 Y169.207 E.10334
G1 X90.27 Y168.869 E.03731
G1 X89.46 Y168.37 E.02983
G1 X88.608 Y167.509 E.03798
G1 X88.09 Y166.635 E.03186
G1 X87.764 Y165.395 E.0402
G1 X87.865 Y53.991 E3.493
G1 X88.144 Y53.241 E.02509
G1 X88.546 Y52.566 E.02463
G1 X89.295 Y51.768 E.03432
G1 X90.218 Y51.155 E.03474
G1 X91.34 Y50.803 E.03687
G1 X94.706 Y50.78 E.10554
G1 X92.778 Y43.494 E.23631
G1 X92.761 Y42.717 E.02437
G1 X92.924 Y41.878 E.0268
G1 X93.287 Y41.959 F9000
G1 F1200
G1 X93.732 Y41.021 E.03255
G1 X94.602 Y39.993 E.04223
G1 X95.612 Y39.386 E.03695
G1 X96.662 Y39.141 E.03381
G1 X123.392 Y39.146 E.8381
G1 X124.422 Y39.401 E.03327
G1 X125.048 Y39.735 E.02225
G1 X125.6 Y40.187 E.02237
G1 X126.339 Y41.133 E.03764
G1 X126.667 Y41.815 E.02373
G1 X126.847 Y42.596 E.02513
G1 X126.856 Y43.39 E.0249
G1 X124.804 Y51.151 E.2517
G1 X128.56 Y51.17 E.11777
G1 X129.555 Y51.466 E.03255
G1 X130.289 Y51.913 E.02695
G1 X131.081 Y52.706 E.03514
G1 X131.553 Y53.49 E.02869
G1 X131.859 Y54.63 E.03701
G1 X131.769 Y165.911 E3.48914
G1 X131.523 Y166.583 E.02244
G1 X131.164 Y167.192 E.02217
G1 X130.445 Y167.957 E.03292
G1 X129.597 Y168.515 E.03183
G1 X128.629 Y168.82 E.03182
G1 X124.805 Y168.846 E.1199
G1 X126.852 Y176.58 E.25084
G1 X126.862 Y177.269 E.02161
G1 X126.713 Y178.041 E.02465
G1 X126.268 Y178.979 E.03255
G1 X125.398 Y180.007 E.04223
G1 X124.388 Y180.614 E.03695
G1 X123.336 Y180.859 E.03387
G1 X96.217 Y180.801 E.8503
G1 X95.108 Y180.366 E.03735
G1 X94.243 Y179.644 E.03533
G1 X93.476 Y178.54 E.04215
G1 X93.148 Y177.368 E.03816
G1 X93.145 Y176.608 E.02383
G1 X95.196 Y168.849 E.25163
G1 X91.44 Y168.83 E.11777
G1 X90.445 Y168.534 E.03255
G1 X89.711 Y168.087 E.02695
G1 X88.919 Y167.294 E.03514
G1 X88.447 Y166.51 E.02869
G1 X88.141 Y165.37 E.03701
G1 X88.231 Y54.089 E3.48914
G1 X88.477 Y53.417 E.02244
G1 X88.836 Y52.808 E.02217
G1 X89.555 Y52.043 E.03292
G1 X90.403 Y51.485 E.03183
G1 X91.371 Y51.18 E.03182
G1 X95.195 Y51.154 E.1199
G1 X93.148 Y43.42 E.25084
G1 X93.138 Y42.731 E.02161
G1 X93.275 Y42.018 E.02276
G1 X93.638 Y42.096 F9000
G1 F1200
G1 X94.037 Y41.244 E.0295
G1 X94.841 Y40.286 E.03921
G1 X95.76 Y39.733 E.03363
G1 X96.684 Y39.518 E.02975
G1 X123.369 Y39.523 E.83669
G1 X124.265 Y39.745 E.02894
G1 X124.854 Y40.058 E.02091
G1 X125.344 Y40.464 E.01995
G1 X126.009 Y41.317 E.03391
G1 X126.305 Y41.921 E.02109
G1 X126.476 Y42.662 E.02384
G1 X126.484 Y43.319 E.0206
G1 X124.315 Y51.526 E.26616
G1 X128.531 Y51.547 E.13219
G1 X129.382 Y51.801 E.02785
G1 X130.041 Y52.197 E.02411
G1 X130.772 Y52.923 E.0323
G1 X131.197 Y53.616 E.02549
G1 X131.482 Y54.656 E.03381
G1 X131.404 Y165.812 E3.48522
G1 X131.174 Y166.437 E.02088
G1 X130.874 Y166.949 E.01861
G1 X130.185 Y167.683 E.03156
G1 X129.456 Y168.165 E.0274
G1 X128.597 Y168.443 E.02831
G1 X124.317 Y168.473 E.1342
G1 X126.481 Y176.653 E.2653
G1 X126.485 Y177.253 E.01881
G1 X126.362 Y177.904 E.02077
G1 X125.963 Y178.756 E.0295
G1 X125.159 Y179.714 E.03921
G1 X124.24 Y180.267 E.03363
G1 X123.315 Y180.482 E.02978
G1 X96.3 Y180.432 E.84704
G1 X95.796 Y180.279 E.01651
G1 X95.292 Y180.036 E.01754
G1 X94.537 Y179.407 E.03081
G1 X93.82 Y178.385 E.03914
G1 X93.521 Y177.313 E.03489
G1 X93.516 Y176.68 E.01985
G1 X95.685 Y168.474 E.26613
G1 X91.469 Y168.453 E.13219
G1 X90.618 Y168.199 E.02785
G1 X89.959 Y167.803 E.02411
G1 X89.228 Y167.077 E.0323
G1 X88.803 Y166.384 E.02549
G1 X88.518 Y165.344 E.03381
G1 X88.596 Y54.188 E3.48522
G1 X88.826 Y53.563 E.02088
G1 X89.126 Y53.051 E.01861
G1 X89.815 Y52.317 E.03156
G1 X90.544 Y51.835 E.0274
G1 X91.403 Y51.557 E.02831
G1 X95.683 Y51.527 E.1342
G1 X93.519 Y43.347 E.2653
G1 X93.515 Y42.747 E.01881
G1 X93.627 Y42.155 E.01889
G1 X93.991 Y42.232 F9000
G1 F1200
G1 X94.343 Y41.465 E.02646
G1 X95.08 Y40.578 E.03616
G1 X95.909 Y40.081 E.03031
G1 X96.705 Y39.895 E.02563
G1 X123.346 Y39.9 E.83531
G1 X124.11 Y40.089 E.02468
G1 X124.629 Y40.362 E.01839
G1 X125.087 Y40.741 E.01864
G1 X125.68 Y41.502 E.03025
G1 X125.943 Y42.03 E.0185
G1 X126.099 Y42.692 E.02133
G1 X126.113 Y43.249 E.01747
G1 X123.826 Y51.901 E.28059
G1 X128.502 Y51.924 E.14661
G1 X129.21 Y52.137 E.02318
G1 X129.794 Y52.483 E.02128
G1 X130.465 Y53.143 E.02951
G1 X130.842 Y53.746 E.0223
G1 X131.105 Y54.682 E.03048
G1 X131.038 Y165.715 E3.48136
G1 X130.584 Y166.707 E.03421
G1 X129.925 Y167.409 E.03019
G1 X129.312 Y167.816 E.02307
G1 X128.563 Y168.066 E.02476
G1 X123.828 Y168.099 E.14847
G1 X126.11 Y176.724 E.27974
G1 X126.009 Y177.768 E.03289
G1 X125.657 Y178.535 E.02646
G1 X124.92 Y179.422 E.03616
G1 X124.091 Y179.919 E.03031
G1 X123.294 Y180.105 E.02566
G1 X96.383 Y180.063 E.84378
G1 X95.478 Y179.707 E.03049
G1 X94.83 Y179.169 E.02641
G1 X94.164 Y178.229 E.03612
G1 X93.898 Y177.287 E.03069
G1 X93.887 Y176.75 E.01684
G1 X96.174 Y168.099 E.28056
G1 X91.498 Y168.076 E.14661
G1 X90.79 Y167.863 E.02318
G1 X90.206 Y167.517 E.02128
G1 X89.535 Y166.857 E.02951
G1 X89.158 Y166.254 E.0223
G1 X88.895 Y165.318 E.03048
G1 X88.962 Y54.285 E3.48136
G1 X89.416 Y53.293 E.03421
G1 X90.075 Y52.591 E.03019
G1 X90.688 Y52.184 E.02307
G1 X91.437 Y51.934 E.02476
G1 X96.172 Y51.901 E.14847
G1 X93.89 Y43.276 E.27974
G1 X93.985 Y42.292 E.031
G1 X94.35 Y42.361 F9000
G1 F1200
G1 X94.357 Y42.326 E.00112
G1 X94.651 Y41.685 E.02211
G1 X95.32 Y40.87 E.03306
G1 X96.056 Y40.428 E.02692
G1 X96.727 Y40.272 E.0216
G1 X123.323 Y40.277 E.8339
G1 X123.955 Y40.434 E.02042
G1 X124.435 Y40.686 E.017
G1 X124.829 Y41.017 E.01613
G1 X125.353 Y41.69 E.02674
G1 X125.582 Y42.141 E.01586
G1 X125.724 Y42.727 E.01891
G1 X125.741 Y43.181 E.01424
G1 X123.337 Y52.275 E.29493
G1 X128.471 Y52.3 E.16097
G1 X129.075 Y52.49 E.01985
G1 X129.547 Y52.769 E.01719
G1 X130.16 Y53.365 E.02681
G1 X130.488 Y53.878 E.01909
G1 X130.728 Y54.709 E.02712
G1 X130.672 Y165.618 E3.47747
G1 X130.293 Y166.467 E.02915
G1 X129.665 Y167.135 E.02875
G1 X129.164 Y167.468 E.01886
G1 X128.529 Y167.69 E.02109
G1 X123.338 Y167.725 E.16276
G1 X125.733 Y176.748 E.29271
G1 X125.731 Y177.215 E.01464
G1 X125.643 Y177.674 E.01465
G1 X125.349 Y178.315 E.02211
G1 X124.68 Y179.13 E.03306
G1 X123.944 Y179.572 E.02692
G1 X123.273 Y179.728 E.0216
G1 X96.466 Y179.695 E.84052
G1 X96.045 Y179.567 E.0138
G1 X95.665 Y179.379 E.01329
G1 X95.122 Y178.929 E.02211
G1 X94.507 Y178.071 E.0331
G1 X94.274 Y177.257 E.02655
G1 X94.259 Y176.818 E.01377
G1 X96.663 Y167.725 E.2949
G1 X91.529 Y167.7 E.16097
G1 X90.925 Y167.51 E.01985
G1 X90.453 Y167.231 E.01719
G1 X89.84 Y166.635 E.02681
G1 X89.512 Y166.122 E.01909
G1 X89.272 Y165.291 E.02712
G1 X89.328 Y54.382 E3.47747
G1 X89.707 Y53.533 E.02915
G1 X90.335 Y52.865 E.02875
G1 X90.836 Y52.532 E.01886
G1 X91.471 Y52.31 E.02109
G1 X96.662 Y52.275 E.16276
G1 X94.267 Y43.252 E.29271
G1 X94.269 Y42.785 E.01464
G1 X94.339 Y42.42 E.01165
G1 X94.719 Y42.457 F9000
G1 F1200
G1 X94.722 Y42.421 E.00113
G1 X94.959 Y41.903 E.01786
G1 X95.562 Y41.16 E.03
G1 X96.203 Y40.776 E.02343
G1 X96.748 Y40.649 E.01755
G1 X123.3 Y40.654 E.83252
G1 X123.802 Y40.779 E.01622
G1 X124.545 Y41.265 E.02784
G1 X125.043 Y41.906 E.02545
G1 X125.234 Y42.289 E.01342
G1 X125.363 Y43.164 E.02773
G1 X122.847 Y52.65 E.30771
G1 X128.438 Y52.677 E.1753
G1 X128.937 Y52.841 E.01647
G1 X129.302 Y53.056 E.01328
G1 X129.857 Y53.591 E.02417
G1 X130.135 Y54.014 E.01587
G1 X130.351 Y54.737 E.02366
G1 X130.307 Y165.522 E3.47359
G1 X129.977 Y166.259 E.02532
G1 X129.408 Y166.859 E.02593
G1 X128.979 Y167.139 E.01606
G1 X128.437 Y167.323 E.01795
G1 X122.848 Y167.35 E.17524
G1 X125.355 Y176.772 E.3057
G1 X125.278 Y177.579 E.02542
G1 X125.041 Y178.097 E.01786
G1 X124.438 Y178.84 E.03
G1 X123.797 Y179.224 E.02343
G1 X123.251 Y179.351 E.01758
G1 X96.547 Y179.325 E.83729
G1 X95.851 Y179.05 E.02346
G1 X95.413 Y178.688 E.01782
G1 X94.851 Y177.913 E.03002
G1 X94.647 Y177.2 E.02325
G1 X94.637 Y176.836 E.01142
G1 X97.153 Y167.35 E.30771
G1 X91.562 Y167.323 E.1753
G1 X91.063 Y167.159 E.01647
G1 X90.698 Y166.944 E.01328
G1 X90.143 Y166.409 E.02417
G1 X89.865 Y165.986 E.01587
G1 X89.649 Y165.263 E.02366
G1 X89.693 Y54.478 E3.47359
G1 X90.023 Y53.741 E.02532
G1 X90.592 Y53.141 E.02593
G1 X91.021 Y52.861 E.01606
G1 X91.563 Y52.677 E.01795
G1 X97.152 Y52.65 E.17524
G1 X94.645 Y43.228 E.3057
G1 X94.713 Y42.517 E.02239
G1 X95.084 Y42.553 F9000
G1 F1200
G1 X95.088 Y42.516 E.00117
G1 X95.268 Y42.12 E.01364
G1 X95.806 Y41.448 E.02699
G1 X96.35 Y41.124 E.01985
G1 X96.77 Y41.026 E.01352
G1 X123.276 Y41.031 E.83108
G1 X123.652 Y41.125 E.01215
G1 X124.261 Y41.515 E.02267
G1 X124.733 Y42.122 E.02411
G1 X124.885 Y42.433 E.01085
G1 X124.986 Y43.145 E.02255
G1 X122.357 Y53.026 E.32059
G1 X128.349 Y53.045 E.18788
G1 X129.087 Y53.367 E.02525
G1 X129.58 Y53.847 E.02157
G1 X129.783 Y54.153 E.01151
G1 X129.974 Y54.767 E.02016
G1 X129.941 Y165.425 E3.4696
G1 X129.663 Y166.049 E.02142
G1 X129.153 Y166.58 E.02308
G1 X128.797 Y166.808 E.01326
G1 X128.349 Y166.955 E.01478
G1 X122.357 Y166.974 E.18788
G1 X124.979 Y176.799 E.31884
G1 X124.912 Y177.484 E.02158
G1 X124.732 Y177.88 E.01364
G1 X124.194 Y178.552 E.02699
G1 X123.65 Y178.876 E.01985
G1 X123.23 Y178.974 E.01352
G1 X96.626 Y178.956 E.83415
G1 X96.349 Y178.875 E.00905
G1 X95.702 Y178.445 E.02436
G1 X95.192 Y177.751 E.027
G1 X95.02 Y177.144 E.01978
G1 X95.014 Y176.855 E.00906
G1 X97.643 Y166.974 E.32059
G1 X91.651 Y166.955 E.18788
G1 X90.913 Y166.633 E.02525
G1 X90.42 Y166.153 E.02157
G1 X90.217 Y165.847 E.01151
G1 X90.026 Y165.233 E.02016
G1 X90.059 Y54.575 E3.4696
G1 X90.337 Y53.951 E.02142
G1 X90.847 Y53.42 E.02308
G1 X91.203 Y53.192 E.01326
G1 X91.651 Y53.045 E.01478
G1 X97.643 Y53.026 E.18788
G1 X95.021 Y43.201 E.31884
G1 X95.078 Y42.612 E.01855
G1 X95.45 Y42.649 F9000
G1 F1200
G1 X95.453 Y42.611 E.0012
G1 X95.578 Y42.335 E.0095
G1 X96.053 Y41.734 E.02402
G1 X96.498 Y41.472 E.01619
G1 X96.792 Y41.403 E.00947
G1 X123.252 Y41.408 E.82963
G1 X123.503 Y41.472 E.00812
G1 X123.978 Y41.766 E.01752
G1 X124.534 Y42.572 E.0307
G1 X124.609 Y43.122 E.0174
G1 X121.866 Y53.403 E.33363
G1 X128.26 Y53.413 E.20048
G1 X128.869 Y53.675 E.02079
G1 X129.302 Y54.102 E.01907
G1 X129.597 Y54.798 E.0237
G1 X129.575 Y165.329 E3.46562
G1 X129.352 Y165.836 E.01737
G1 X128.898 Y166.302 E.0204
G1 X128.26 Y166.587 E.02191
G1 X121.866 Y166.597 E.20048
G1 X124.602 Y176.829 E.33209
G1 X124.547 Y177.389 E.01764
G1 X124.422 Y177.665 E.0095
G1 X123.947 Y178.266 E.02402
G1 X123.502 Y178.528 E.01619
G1 X123.208 Y178.597 E.00947
G1 X96.702 Y178.586 E.83108
G1 X96.224 Y178.393 E.01616
G1 X95.99 Y178.201 E.00949
G1 X95.532 Y177.587 E.02402
G1 X95.391 Y176.878 E.02267
G1 X98.134 Y166.597 E.33363
G1 X91.74 Y166.587 E.20048
G1 X91.131 Y166.325 E.02079
