; generated by PrusaSlicer 2.7.1+linux-x64-GTK3 on 2023-12-15 at 08:04:04 UTC


;
;

;
;
; 

; external perimeters extrusion width = 0.42mm
; perimeters extrusion width = 0.44mm
; infill extrusion width = 0.44mm
; solid infill extrusion width = 0.44mm
; top infill extrusion width = 0.40mm
; first layer extrusion width = 0.42mm

M201 X500 Y500 Z100 E5000 ; sets maximum accelerations, mm/sec^2
M203 X500 Y500 Z10 E60 ; sets maximum feedrates, mm / sec
M204 P500 R1000 T500 ; sets acceleration (P, T) and retract acceleration (R), mm/sec^2
M205 X8.00 Y8.00 Z0.40 E5.00 ; sets the jerk limits, mm/sec
M205 S0 T0 ; sets the minimum extruding and travel feed rate, mm/sec

; printing object Cluck_Duct_V3_Front_Fan_Cover.STL id:0 copy 0
; stop printing object Cluck_Duct_V3_Front_Fan_Cover.STL id:0 copy 0

;TYPE:Custom
BED_MESH_PROFILE LOAD=default
G90 ; use absolute coordinates
M83 ; extruder relative mode
M104 S150 ; set temporary nozzle temp to prevent oozing during homing
M140 S60 ; set final bed temp
G4 S30 ; allow partial nozzle warmup
G28 ; home all axis
G1 Z50 F240
G1 X2.0 Y10 F3000
M104 S210 ; set final nozzle temp
M190 S60 ; wait for bed temp to stabilize
M109 S210 ; wait for nozzle temp to stabilize
G1 Z0.28 F240
G92 E0
G1 X2.0 Y140 E10 F1500 ; prime the nozzle
G1 X2.3 Y140 F5000
G92 E0
G1 X2.3 Y10 E10 F1200 ; prime the nozzle
G92 E0
G21 ; set units to millimeters
G90 ; use absolute coordinates
M83 ; use relative distances for extrusion
; Filament gcode
M107
;LAYER_CHANGE
;Z:0.2
;HEIGHT:0.2
;BEFORE_LAYER_CHANGE
G92 E0
;0.2


G1 E-5 F3600
G1 Z.2 F9000
;AFTER_LAYER_CHANGE
;0.2
G1 X83.816 Y83.817
G1 Z.2
G1 E5 F2400
;TYPE:Skirt/Brim
;WIDTH:0.42
G1 F1200
G1 X84.174 Y83.459 E.01587
G1 X85.197 Y82.634 E.04121
G1 X86.134 Y82.039 E.0348
G1 X87.977 Y81.21 E.06336
G1 X89.044 Y80.903 E.03481
G1 X90.339 Y80.684 E.04118
G1 X91.428 Y80.623 E.0342
G1 X128.674 Y80.624 E1.16782
G1 X129.661 Y80.684 E.031
G1 X130.757 Y80.86 E.0348
G1 X132.498 Y81.384 E.05701
G1 X133.866 Y82.039 E.04756
G1 X134.803 Y82.634 E.0348
G1 X135.6 Y83.258 E.03174
G1 X136.872 Y84.557 E.057
G1 X137.537 Y85.446 E.03481
G1 X138.061 Y86.311 E.03171
G1 X138.79 Y87.977 E.05702
G1 X139.249 Y89.837 E.06007
G1 X139.377 Y91.428 E.05005
G1 X139.371 Y128.825 E1.17256
G1 X139.14 Y130.757 E.06101
G1 X138.724 Y132.216 E.04757
G1 X138.061 Y133.689 E.05065
G1 X137.245 Y134.967 E.04754
G1 X136.541 Y135.826 E.03482
G1 X135.6 Y136.742 E.04117
G1 X134.554 Y137.537 E.04119
G1 X133.421 Y138.201 E.04118
G1 X132.498 Y138.617 E.03174
G1 X131.25 Y139.025 E.04117
G1 X129.961 Y139.279 E.04119
G1 X128.826 Y139.371 E.0357
G1 X91.073 Y139.366 E1.18372
G1 X89.243 Y139.14 E.05781
G1 X87.784 Y138.724 E.04757
G1 X86.311 Y138.061 E.05065
G1 X85.033 Y137.245 E.04754
G1 X84.174 Y136.541 E.03482
G1 X83.258 Y135.6 E.04117
G1 X82.463 Y134.554 E.04119
G1 X81.799 Y133.421 E.04118
G1 X81.383 Y132.498 E.03174
G1 X80.975 Y131.25 E.04117
G1 X80.721 Y129.961 E.04119
G1 X80.629 Y128.825 E.03574
G1 X80.634 Y91.073 E1.18369
G1 X80.86 Y89.243 E.05781
G1 X81.276 Y87.784 E.04757
G1 X81.939 Y86.311 E.05065
G1 X82.755 Y85.033 E.04754
G1 X83.459 Y84.174 E.03482
G1 X83.773 Y83.859 E.01395
G1 E-3.5 F3600
;WIPE_START
G1 F7200
G1 X83.816 Y83.817 E-.02855
G1 X84.174 Y83.459 E-.24049
G1 X85.197 Y82.634 E-.62425
G1 X86.134 Y82.039 E-.52723
G1 X86.287 Y81.97 E-.07948
;WIPE_END
G1 X86.243 Y86.596 F9000
G1 E5 F2400
G1 F1200
G1 X87.329 Y85.615 E.04589
G1 X88.764 Y84.825 E.05136
G1 X89.946 Y84.455 E.03883
G1 X91.302 Y84.291 E.04283
G1 X128.684 Y84.29 E1.17209
G1 X129.4 Y84.345 E.02252
G1 X130.109 Y84.468 E.02256
G1 X131.16 Y84.795 E.03451
G1 X131.864 Y85.119 E.0243
G1 X132.534 Y85.52 E.02448
G1 X133.391 Y86.197 E.03424
G1 X134.392 Y87.338 E.04759
G1 X134.94 Y88.25 E.03336
G1 X135.484 Y89.694 E.04838
G1 X135.668 Y90.693 E.03185
G1 X135.711 Y128.654 E1.19024
G1 X135.546 Y130.049 E.04404
G1 X135.182 Y131.221 E.03848
G1 X134.538 Y132.448 E.04345
G1 X133.925 Y133.253 E.03173
G1 X132.671 Y134.385 E.05297
G1 X131.235 Y135.176 E.0514
G1 X130.046 Y135.547 E.03905
G1 X128.566 Y135.713 E.0467
G1 X91.346 Y135.711 E1.16701
G1 X89.952 Y135.546 E.04401
G1 X88.779 Y135.182 E.03851
G1 X87.552 Y134.538 E.04345
G1 X86.746 Y133.924 E.03177
G1 X85.633 Y132.696 E.05196
G1 X84.827 Y131.242 E.05213
G1 X84.453 Y130.046 E.03929
G1 X84.287 Y128.566 E.0467
G1 X84.289 Y91.346 E1.16701
G1 X84.454 Y89.951 E.04404
G1 X84.818 Y88.78 E.03845
G1 X85.462 Y87.553 E.04345
G1 X86.075 Y86.747 E.03175
G1 X86.198 Y86.636 E.00519
G1 X86.448 Y86.913 F9000
G1 F1200
G1 X87.556 Y85.917 E.04671
G1 X88.915 Y85.171 E.04861
G1 X90.022 Y84.825 E.03637
G1 X91.323 Y84.667 E.04109
G1 X128.663 Y84.667 E1.17077
G1 X130.032 Y84.838 E.04326
G1 X131.013 Y85.142 E.0322
G1 X132.329 Y85.837 E.04666
G1 X133.129 Y86.47 E.03199
G1 X134.088 Y87.562 E.04557
G1 X134.599 Y88.413 E.03112
G1 X135.12 Y89.796 E.04634
G1 X135.293 Y90.728 E.02972
G1 X135.334 Y128.635 E1.18855
G1 X135.176 Y129.974 E.04227
G1 X134.834 Y131.073 E.03609
G1 X134.218 Y132.247 E.04157
G1 X133.633 Y133.014 E.03025
G1 X132.444 Y134.083 E.05013
G1 X131.085 Y134.829 E.04861
G1 X129.971 Y135.177 E.03659
G1 X128.56 Y135.336 E.04452
G1 X91.365 Y135.334 E1.16622
G1 X90.027 Y135.176 E.04224
G1 X88.927 Y134.834 E.03612
G1 X87.752 Y134.218 E.0416
G1 X86.985 Y133.632 E.03026
G1 X85.934 Y132.469 E.04915
G1 X85.173 Y131.091 E.04936
G1 X84.823 Y129.972 E.03676
G1 X84.664 Y128.56 E.04455
G1 X84.666 Y91.365 E1.16622
G1 X84.824 Y90.026 E.04227
G1 X85.165 Y88.928 E.03605
G1 X85.781 Y87.753 E.0416
G1 X86.367 Y86.986 E.03026
G1 X86.403 Y86.953 E.00153
G1 X86.659 Y87.225 F9000
G1 F1200
G1 X87.781 Y86.219 E.04725
G1 X89.064 Y85.517 E.04586
G1 X90.098 Y85.194 E.03397
G1 X91.343 Y85.044 E.03932
G1 X128.656 Y85.044 E1.16992
G1 X129.955 Y85.207 E.04105
G1 X130.867 Y85.49 E.02994
G1 X132.125 Y86.154 E.0446
G1 X132.868 Y86.742 E.02971
G1 X133.785 Y87.786 E.04357
G1 X134.259 Y88.576 E.02889
G1 X134.757 Y89.899 E.04432
G1 X134.917 Y90.764 E.02758
G1 X134.957 Y128.616 E1.18682
G1 X134.807 Y129.898 E.04047
G1 X134.487 Y130.926 E.03376
G1 X133.899 Y132.047 E.03969
G1 X133.341 Y132.775 E.02876
G1 X132.219 Y133.781 E.04725
G1 X130.935 Y134.483 E.04588
G1 X129.897 Y134.807 E.03409
G1 X128.554 Y134.959 E.04238
G1 X91.384 Y134.957 E1.16544
G1 X90.102 Y134.807 E.04047
G1 X89.074 Y134.487 E.03376
G1 X87.953 Y133.899 E.03969
G1 X87.224 Y133.34 E.0288
G1 X86.235 Y132.242 E.04633
G1 X85.519 Y130.94 E.04659
G1 X85.193 Y129.897 E.03426
G1 X85.041 Y128.554 E.04238
G1 X85.043 Y91.384 E1.16544
G1 X85.193 Y90.102 E.04047
G1 X85.513 Y89.075 E.03373
G1 X86.1 Y87.954 E.03968
G1 X86.622 Y87.272 E.02693
G1 X86.921 Y87.502 F9000
G1 F1200
G1 X86.95 Y87.464 E.0015
G1 X88.007 Y86.521 E.04441
G1 X89.214 Y85.863 E.0431
G1 X90.174 Y85.564 E.03153
G1 X91.363 Y85.421 E.03755
G1 X128.634 Y85.421 E1.16861
G1 X129.878 Y85.576 E.03931
G1 X130.721 Y85.838 E.02768
G1 X131.92 Y86.471 E.04251
G1 X132.607 Y87.014 E.02746
G1 X133.481 Y88.01 E.04155
G1 X133.919 Y88.738 E.02664
G1 X134.394 Y90.001 E.04231
G1 X134.542 Y90.8 E.02548
G1 X134.581 Y128.597 E1.1851
G1 X134.437 Y129.823 E.0387
G1 X134.14 Y130.779 E.03139
G1 X133.58 Y131.845 E.03776
G1 X133.05 Y132.536 E.0273
G1 X131.993 Y133.479 E.04441
G1 X130.786 Y134.137 E.0431
G1 X129.822 Y134.437 E.03166
G1 X128.549 Y134.582 E.04017
G1 X91.403 Y134.581 E1.16469
G1 X90.177 Y134.437 E.0387
G1 X89.222 Y134.14 E.03136
G1 X88.155 Y133.58 E.03778
G1 X87.464 Y133.049 E.02732
G1 X86.537 Y132.015 E.04354
G1 X85.865 Y130.79 E.04381
G1 X85.563 Y129.822 E.03179
G1 X85.418 Y128.549 E.04017
G1 X85.419 Y91.403 E1.16469
G1 X85.563 Y90.177 E.0387
G1 X85.86 Y89.222 E.03136
G1 X86.419 Y88.156 E.03774
G1 X86.885 Y87.55 E.02397
G1 X87.183 Y87.78 F9000
G1 F1200
G1 X87.241 Y87.705 E.00297
G1 X88.231 Y86.824 E.04155
G1 X89.363 Y86.21 E.04038
G1 X90.25 Y85.933 E.02914
G1 X91.382 Y85.797 E.03575
G1 X129.213 Y85.842 E1.18617
G1 X130.575 Y86.186 E.04405
G1 X131.16 Y86.453 E.02016
G1 X132.346 Y87.286 E.04544
G1 X133.177 Y88.233 E.0395
G1 X133.579 Y88.902 E.02447
G1 X134.031 Y90.103 E.04024
G1 X134.166 Y90.835 E.02334
G1 X134.204 Y128.579 E1.18344
G1 X134.067 Y129.748 E.0369
G1 X133.792 Y130.632 E.02903
G1 X133.261 Y131.644 E.03583
G1 X132.759 Y132.295 E.02578
G1 X131.769 Y133.176 E.04155
G1 X130.637 Y133.79 E.04038
G1 X129.747 Y134.067 E.02923
G1 X128.543 Y134.205 E.038
G1 X91.421 Y134.204 E1.16393
G1 X90.252 Y134.067 E.0369
G1 X89.368 Y133.792 E.02903
G1 X88.356 Y133.261 E.03583
G1 X87.704 Y132.758 E.02582
G1 X86.839 Y131.789 E.04073
G1 X86.212 Y130.641 E.04101
G1 X85.933 Y129.747 E.02936
G1 X85.795 Y128.543 E.038
G1 X85.796 Y91.421 E1.16393
G1 X85.933 Y90.253 E.03687
G1 X86.207 Y89.369 E.02902
G1 X86.738 Y88.357 E.03583
G1 X87.147 Y87.827 E.02099
G1 X87.445 Y88.058 F9000
G1 F1200
G1 X87.532 Y87.945 E.00447
G1 X88.455 Y87.128 E.03865
G1 X89.511 Y86.557 E.03764
G1 X90.326 Y86.303 E.02677
G1 X91.401 Y86.174 E.03395
G1 X128.593 Y86.174 E1.16613
G1 X129.724 Y86.315 E.03574
G1 X130.429 Y86.534 E.02315
G1 X131.51 Y87.104 E.03832
G1 X132.085 Y87.559 E.02299
G1 X132.873 Y88.457 E.03746
G1 X133.239 Y89.065 E.02225
G1 X133.668 Y90.204 E.03816
G1 X133.791 Y90.871 E.02127
G1 X133.827 Y128.56 E1.18171
G1 X133.698 Y129.671 E.03507
G1 X133.445 Y130.484 E.0267
G1 X132.943 Y131.442 E.03391
G1 X132.468 Y132.055 E.02432
G1 X131.545 Y132.872 E.03865
G1 X130.489 Y133.443 E.03764
G1 X129.671 Y133.698 E.02687
G1 X128.537 Y133.828 E.03579
G1 X91.44 Y133.827 E1.16315
G1 X90.329 Y133.698 E.03507
G1 X89.516 Y133.445 E.0267
G1 X88.558 Y132.943 E.03391
G1 X87.944 Y132.467 E.02436
G1 X87.141 Y131.564 E.03789
G1 X86.558 Y130.492 E.03826
G1 X86.302 Y129.671 E.02696
G1 X86.172 Y128.537 E.03579
G1 X86.173 Y91.44 E1.16315
G1 X86.302 Y90.329 E.03507
G1 X86.555 Y89.516 E.0267
G1 X87.057 Y88.559 E.03388
G1 X87.408 Y88.105 E.01799
G1 X87.706 Y88.336 F9000
G1 F1200
G1 X87.822 Y88.187 E.00592
G1 X88.679 Y87.432 E.03581
G1 X89.659 Y86.904 E.0349
G1 X90.403 Y86.672 E.02444
G1 X91.42 Y86.551 E.03211
G1 X129.12 Y86.59 E1.18206
G1 X130.284 Y86.882 E.03763
G1 X130.807 Y87.12 E.01802
G1 X131.825 Y87.832 E.03895
G1 X132.569 Y88.68 E.03537
G1 X132.899 Y89.229 E.02008
G1 X133.304 Y90.305 E.03605
G1 X133.415 Y90.908 E.01922
G1 X133.451 Y128.543 E1.18002
G1 X133.328 Y129.596 E.03324
G1 X133.097 Y130.338 E.02437
G1 X132.624 Y131.239 E.03191
G1 X132.178 Y131.813 E.02279
G1 X131.321 Y132.568 E.03581
G1 X130.341 Y133.096 E.0349
G1 X129.596 Y133.328 E.02447
G1 X128.531 Y133.451 E.03361
G1 X91.457 Y133.451 E1.16243
G1 X90.404 Y133.328 E.03324
G1 X89.662 Y133.097 E.02437
G1 X88.76 Y132.624 E.03193
G1 X88.186 Y132.177 E.02281
G1 X87.444 Y131.339 E.03509
G1 X86.905 Y130.343 E.03551
G1 X86.672 Y129.596 E.02453
G1 X86.549 Y128.531 E.03361
G1 X86.549 Y91.457 E1.16243
G1 X86.672 Y90.404 E.03324
G1 X86.903 Y89.663 E.02434
G1 X87.376 Y88.761 E.03193
G1 X87.669 Y88.384 E.01497
G1 X87.966 Y88.615 F9000
G1 F1200
G1 X88.111 Y88.429 E.00739
G1 X88.902 Y87.736 E.03297
G1 X89.806 Y87.251 E.03217
G1 X90.48 Y87.041 E.02213
G1 X91.439 Y86.927 E.03028
G1 X128.552 Y86.927 E1.16365
G1 X129.568 Y87.053 E.0321
G1 X130.139 Y87.23 E.01874
G1 X131.1 Y87.737 E.03407
G1 X131.565 Y88.106 E.01861
G1 X132.265 Y88.904 E.03328
G1 X132.56 Y89.394 E.01793
G1 X132.941 Y90.407 E.03393
G1 X133.04 Y90.944 E.01712
G1 X133.074 Y128.526 E1.17836
G1 X132.959 Y129.52 E.03137
G1 X132.75 Y130.191 E.02204
G1 X132.306 Y131.037 E.02996
G1 X131.889 Y131.571 E.02124
G1 X131.098 Y132.264 E.03297
G1 X130.194 Y132.749 E.03217
G1 X129.52 Y132.959 E.02213
G1 X128.526 Y133.074 E.03137
G1 X91.474 Y133.074 E1.16174
G1 X90.48 Y132.959 E.03137
G1 X89.809 Y132.75 E.02204
G1 X88.963 Y132.306 E.02996
G1 X88.428 Y131.888 E.02129
G1 X87.748 Y131.115 E.03228
G1 X87.252 Y130.195 E.03277
G1 X87.041 Y129.52 E.02217
G1 X86.926 Y128.526 E.03137
G1 X86.926 Y91.474 E1.16174
G1 X87.041 Y90.48 E.03137
G1 X87.25 Y89.809 E.02204
G1 X87.694 Y88.964 E.02993
G1 X87.929 Y88.663 E.01197
G1 X88.225 Y88.895 F9000
G1 F1200
G1 X88.4 Y88.672 E.00889
G1 X89.124 Y88.041 E.03011
G1 X89.953 Y87.599 E.02946
G1 X90.556 Y87.411 E.0198
G1 X91.457 Y87.304 E.02845
G1 X128.546 Y87.304 E1.1629
G1 X129.49 Y87.422 E.02983
G1 X129.996 Y87.579 E.01661
G1 X130.894 Y88.054 E.03185
G1 X131.306 Y88.38 E.01647
G1 X131.961 Y89.127 E.03115
G1 X132.22 Y89.559 E.01579
G1 X132.419 Y89.999 E.01514
G1 X132.664 Y90.981 E.03173
G1 X132.697 Y128.52 E1.17701
G1 X132.589 Y129.443 E.02914
G1 X132.402 Y130.045 E.01976
G1 X131.988 Y130.833 E.02791
G1 X131.6 Y131.328 E.01972
G1 X130.876 Y131.959 E.03011
G1 X130.047 Y132.401 E.02946
G1 X129.443 Y132.589 E.01983
G1 X128.52 Y132.697 E.02914
G1 X91.48 Y132.697 E1.16136
G1 X90.557 Y132.589 E.02914
G1 X89.955 Y132.402 E.01976
G1 X89.167 Y131.988 E.02791
G1 X88.67 Y131.599 E.01979
G1 X88.052 Y130.891 E.02947
G1 X87.599 Y130.048 E.03001
G1 X87.411 Y129.443 E.01986
G1 X87.303 Y128.52 E.02914
G1 X87.303 Y91.48 E1.16136
G1 X87.411 Y90.557 E.02914
G1 X87.598 Y89.955 E.01976
G1 X88.012 Y89.167 E.02791
G1 X88.188 Y88.942 E.00896
G1 X88.484 Y89.173 F9000
G1 F1200
G1 X88.673 Y88.932 E.0096
G1 X89.33 Y88.357 E.02737
G1 X90.1 Y87.946 E.02737
G1 X90.634 Y87.78 E.01753
G1 X91.475 Y87.681 E.02655
G1 X128.526 Y87.681 E1.16171
G1 X129.411 Y87.791 E.02796
G1 X129.852 Y87.928 E.01448
G1 X130.689 Y88.37 E.02968
G1 X131.048 Y88.654 E.01435
G1 X131.657 Y89.35 E.029
G1 X131.891 Y89.743 E.01434
G1 X132.214 Y90.609 E.02898
G1 X132.318 Y91.437 E.02617
G1 X132.32 Y128.514 E1.16252
G1 X132.22 Y129.366 E.0269
G1 X132.054 Y129.899 E.0175
G1 X131.671 Y130.63 E.02588
G1 X131.327 Y131.068 E.01746
G1 X130.67 Y131.643 E.02737
G1 X129.9 Y132.054 E.02737
G1 X129.367 Y132.22 E.0175
G1 X128.514 Y132.32 E.02693
G1 X91.486 Y132.32 E1.16099
G1 X90.634 Y132.22 E.0269
G1 X90.101 Y132.054 E.0175
G1 X89.37 Y131.671 E.02588
G1 X88.931 Y131.326 E.01751
G1 X88.356 Y130.669 E.02737
G1 X87.947 Y129.901 E.02728
G1 X87.78 Y129.367 E.01754
G1 X87.68 Y128.514 E.02693
G1 X87.68 Y91.486 E1.16099
G1 X87.78 Y90.634 E.0269
G1 X87.946 Y90.101 E.0175
G1 X88.329 Y89.37 E.02588
G1 X88.447 Y89.221 E.00596
G1 X88.742 Y89.452 F9000
G1 F1200
G1 X88.946 Y89.192 E.01036
G1 X89.552 Y88.662 E.02524
G1 X90.246 Y88.294 E.02463
G1 X90.711 Y88.149 E.01527
G1 X91.492 Y88.057 E.02466
G1 X128.52 Y88.058 E1.16099
G1 X129.333 Y88.16 E.02569
G1 X130.068 Y88.436 E.02462
G1 X130.484 Y88.687 E.01523
G1 X131.053 Y89.19 E.02381
G1 X131.352 Y89.573 E.01523
G1 X131.706 Y90.246 E.02384
G1 X131.85 Y90.71 E.01523
G1 X131.942 Y91.456 E.02357
G1 X131.943 Y128.508 E1.16174
G1 X131.851 Y129.289 E.02466
G1 X131.706 Y129.753 E.01524
G1 X131.353 Y130.426 E.02383
G1 X131.054 Y130.808 E.01521
G1 X130.448 Y131.338 E.02524
G1 X129.754 Y131.706 E.02463
G1 X129.289 Y131.851 E.01527
G1 X128.508 Y131.943 E.02466
G1 X91.492 Y131.943 E1.16061
G1 X90.711 Y131.851 E.02466
G1 X90.247 Y131.706 E.01524
G1 X89.574 Y131.353 E.02383
G1 X89.191 Y131.053 E.01525
G1 X88.661 Y130.446 E.02527
G1 X88.295 Y129.755 E.02452
G1 X88.149 Y129.289 E.01531
G1 X88.057 Y128.508 E.02466
G1 X88.057 Y91.492 E1.16061
G1 X88.149 Y90.711 E.02466
G1 X88.294 Y90.247 E.01524
G1 X88.647 Y89.574 E.02383
G1 X88.705 Y89.499 E.00297
G1 X89.058 Y89.716 F9000
G1 F1200
G1 X89.221 Y89.451 E.00975
G1 X89.758 Y88.978 E.02244
G1 X90.391 Y88.642 E.02247
G1 X91.498 Y88.434 E.03532
G1 X128.514 Y88.435 E1.16061
G1 X129.254 Y88.529 E.02339
G1 X129.904 Y88.775 E.02179
G1 X130.779 Y89.45 E.03465
G1 X131.358 Y90.391 E.03464
G1 X131.565 Y91.474 E.03457
G1 X131.566 Y128.502 E1.16099
G1 X131.358 Y129.608 E.03529
G1 X131.036 Y130.222 E.02174
G1 X130.534 Y130.793 E.02384
G1 X129.609 Y131.358 E.03399
G1 X128.502 Y131.566 E.03532
G1 X91.498 Y131.566 E1.16023
G1 X90.392 Y131.358 E.03529
G1 X89.778 Y131.036 E.02174
G1 X89.205 Y130.532 E.02393
G1 X88.642 Y129.609 E.0339
G1 X88.434 Y128.502 E.03532
G1 X88.434 Y91.498 E1.16023
G1 X88.642 Y90.392 E.03529
G1 X89.026 Y89.767 E.023
G1 X89.342 Y89.96 F9000
G1 F1200
G1 X89.496 Y89.709 E.00923
G1 X89.964 Y89.294 E.01961
G1 X90.537 Y88.991 E.02032
G1 X91.503 Y88.811 E.03081
G1 X128.508 Y88.812 E1.16027
G1 X129.154 Y88.893 E.02041
G1 X129.739 Y89.115 E.01962
G1 X130.505 Y89.709 E.03039
G1 X131.009 Y90.537 E.03039
