; generated by PrusaSlicer 2.7.0+linux-x64-GTK3 on 2023-12-14 at 16:37:32 UTC


;
;

;
;
; 

; external perimeters extrusion width = 0.42mm
; perimeters extrusion width = 0.44mm
; infill extrusion width = 0.44mm
; solid infill extrusion width = 0.44mm
; top infill extrusion width = 0.40mm
; support material extrusion width = 0.36mm
; first layer extrusion width = 0.42mm

M201 X500 Y500 Z100 E5000 ; sets maximum accelerations, mm/sec^2
M203 X500 Y500 Z10 E60 ; sets maximum feedrates, mm / sec
M204 P500 R1000 T500 ; sets acceleration (P, T) and retract acceleration (R), mm/sec^2
M205 X8.00 Y8.00 Z0.40 E5.00 ; sets the jerk limits, mm/sec
M205 S0 T0 ; sets the minimum extruding and travel feed rate, mm/sec

; printing object dropspindle-wings100.stl_1 id:1 copy 0
; stop printing object dropspindle-wings100.stl_1 id:1 copy 0

;TYPE:Custom
BED_MESH_PROFILE LOAD=default
G90 ; use absolute coordinates
M83 ; extruder relative mode
M104 S150 ; set temporary nozzle temp to prevent oozing during homing
M140 S60 ; set final bed temp
G4 S30 ; allow partial nozzle warmup
G28 ; home all axis
G1 Z50 F240
G1 X2.0 Y10 F3000
M104 S210 ; set final nozzle temp
M190 S60 ; wait for bed temp to stabilize
M109 S210 ; wait for nozzle temp to stabilize
G1 Z0.28 F240
G92 E0
G1 X2.0 Y140 E10 F1500 ; prime the nozzle
G1 X2.3 Y140 F5000
G92 E0
G1 X2.3 Y10 E10 F1200 ; prime the nozzle
G92 E0
G21 ; set units to millimeters
G90 ; use absolute coordinates
M83 ; use relative distances for extrusion
; Filament gcode
M107
;LAYER_CHANGE
;Z:0.2
;HEIGHT:0.2
;BEFORE_LAYER_CHANGE
G92 E0
;0.2


G1 E-5 F3600
G1 Z.2 F9000
;AFTER_LAYER_CHANGE
;0.2
G1 X92.408 Y68.666
G1 Z.2
G1 E5 F2400
;TYPE:Skirt/Brim
;WIDTH:0.42
G1 F1200
G1 X93.412 Y67.465 E.04908
G1 X94.682 Y66.357 E.05284
G1 X96.007 Y65.526 E.04904
G1 X97.706 Y64.816 E.05774
G1 X99.352 Y64.44 E.05294
G1 X100.91 Y64.334 E.04896
G1 X102.693 Y64.503 E.05616
G1 X104.47 Y64.995 E.05781
G1 X105.979 Y65.705 E.05229
G1 X107.57 Y66.829 E.06108
G1 X108.856 Y68.147 E.05774
G1 X109.939 Y69.767 E.0611
G1 X110.699 Y71.561 E.06109
G1 X111.09 Y73.311 E.05622
G1 X111.182 Y74.607 E.04074
G1 X111.182 Y145.393 E2.21945
G1 X110.984 Y147.33 E.06105
G1 X110.73 Y148.338 E.03259
G1 X110.385 Y149.296 E.03193
G1 X109.939 Y150.233 E.03254
G1 X109.313 Y151.247 E.03736
G1 X108.049 Y152.733 E.06117
G1 X107.285 Y153.407 E.03194
G1 X106.443 Y154.012 E.03251
G1 X104.715 Y154.91 E.06106
G1 X103.754 Y155.243 E.03189
G1 X102.693 Y155.497 E.03421
G1 X100.75 Y155.666 E.06115
G1 X99.069 Y155.515 E.05292
G1 X97.556 Y155.135 E.04891
G1 X96.007 Y154.474 E.0528
G1 X94.682 Y153.643 E.04904
G1 X93.412 Y152.535 E.05284
G1 X92.408 Y151.334 E.04908
G1 X91.543 Y149.887 E.05286
G1 X90.929 Y148.338 E.05224
G1 X90.642 Y147.152 E.03826
G1 X89.445 Y139.714 E.23621
G1 X88.538 Y132.452 E.22946
G1 X88.162 Y128.618 E.12079
G1 X87.861 Y124.854 E.11839
G1 X87.473 Y117.581 E.22836
G1 X87.335 Y109.978 E.23843
G1 X87.369 Y106.251 E.11686
G1 X87.632 Y98.836 E.23264
G1 X88.162 Y91.382 E.2343
G1 X88.538 Y87.548 E.12079
G1 X89.445 Y80.286 E.22946
G1 X90.642 Y72.848 E.23621
G1 X90.929 Y71.662 E.03826
G1 X91.543 Y70.113 E.05224
G1 X92.377 Y68.717 E.05099
G1 E-3.5 F3600
;WIPE_START
G1 F7200
G1 X92.408 Y68.666 E-.02835
G1 X93.412 Y67.465 E-.74356
G1 X94.567 Y66.457 E-.72809
;WIPE_END
G1 X95.357 Y70.882 F9000
G1 E5 F2400
G1 F1200
G1 X95.776 Y70.306 E.02233
G1 X96.601 Y69.505 E.03605
G1 X97.45 Y68.914 E.03243
G1 X98.224 Y68.527 E.02713
G1 X99.029 Y68.244 E.02675
G1 X100.212 Y68.028 E.03771
G1 X101.416 Y68.025 E.03775
G1 X102.588 Y68.233 E.03732
G1 X103.715 Y68.652 E.0377
G1 X104.744 Y69.263 E.03752
G1 X105.653 Y70.052 E.03774
G1 X106.407 Y70.995 E.03786
G1 X106.978 Y72.054 E.03772
G1 X107.35 Y73.198 E.03772
G1 X107.509 Y74.369 E.03705
G1 X107.458 Y75.596 E.0385
G1 X106.835 Y79.263 E.11662
G1 X105.866 Y86.046 E.21484
G1 X105.139 Y92.837 E.21414
G1 X104.649 Y99.731 E.2167
G1 X104.407 Y106.532 E.21338
G1 X104.376 Y110 E.10874
G1 X104.407 Y113.468 E.10874
G1 X104.649 Y120.269 E.21338
G1 X105.139 Y127.163 E.2167
G1 X105.866 Y133.954 E.21414
G1 X106.835 Y140.737 E.21484
G1 X107.454 Y144.384 E.11598
G1 X107.519 Y145.252 E.02729
G1 X107.394 Y146.594 E.04226
G1 X107.008 Y147.875 E.04195
G1 X106.374 Y149.054 E.04197
G1 X105.505 Y150.097 E.04257
G1 X104.571 Y150.86 E.03781
G1 X103.424 Y151.481 E.0409
G1 X102.088 Y151.882 E.04374
G1 X100.69 Y152.001 E.04399
G1 X99.669 Y151.9 E.03217
G1 X98.663 Y151.641 E.03257
G1 X97.633 Y151.188 E.03528
G1 X96.7 Y150.575 E.035
G1 X95.986 Y149.926 E.03025
G1 X95.038 Y148.661 E.04956
G1 X94.574 Y147.678 E.03408
G1 X94.271 Y146.624 E.03439
G1 X93.077 Y139.233 E.23474
G1 X92.174 Y132.005 E.22839
G1 X91.809 Y128.277 E.11745
G1 X91.518 Y124.641 E.11437
G1 X91.133 Y117.411 E.22701
G1 X91.032 Y113.654 E.11784
G1 X91.031 Y106.366 E.22851
G1 X91.133 Y102.589 E.11847
G1 X91.517 Y95.376 E.22648
G1 X92.174 Y87.998 E.23225
G1 X93.076 Y80.777 E.22817
G1 X93.64 Y77.067 E.11766
G1 X94.284 Y73.316 E.11933
G1 X94.599 Y72.257 E.03464
G1 X95.107 Y71.226 E.03604
G1 X95.322 Y70.931 E.01145
G1 X95.627 Y71.151 F9000
G1 F1200
G1 X96.051 Y70.564 E.0227
G1 X96.83 Y69.805 E.0341
G1 X97.632 Y69.245 E.03067
G1 X98.361 Y68.879 E.02558
G1 X99.14 Y68.605 E.02589
G1 X100.262 Y68.402 E.03575
G1 X101.399 Y68.402 E.03565
G1 X102.504 Y68.601 E.0352
G1 X103.567 Y68.999 E.03559
G1 X104.535 Y69.578 E.03537
G1 X105.391 Y70.325 E.03562
G1 X106.102 Y71.217 E.03577
G1 X106.638 Y72.216 E.03555
G1 X106.986 Y73.298 E.03564
G1 X107.133 Y74.402 E.03492
G1 X107.084 Y75.544 E.03584
G1 X106.463 Y79.203 E.11637
G1 X105.492 Y85.999 E.21525
G1 X104.763 Y92.804 E.21459
G1 X104.272 Y99.711 E.21711
G1 X104.03 Y106.525 E.21378
G1 X103.999 Y110 E.10896
G1 X104.03 Y113.475 E.10896
G1 X104.272 Y120.289 E.21378
G1 X104.763 Y127.196 E.21711
G1 X105.492 Y134.001 E.21459
G1 X106.463 Y140.797 E.21525
G1 X107.081 Y144.438 E.11579
G1 X107.141 Y145.263 E.02594
G1 X107.021 Y146.539 E.04018
G1 X106.653 Y147.747 E.03959
G1 X106.052 Y148.858 E.0396
G1 X105.228 Y149.841 E.04022
G1 X104.365 Y150.544 E.0349
G1 X103.274 Y151.135 E.0389
G1 X102 Y151.515 E.04168
G1 X100.677 Y151.624 E.04162
G1 X99.722 Y151.526 E.0301
G1 X98.8 Y151.289 E.02985
G1 X97.826 Y150.864 E.03332
G1 X96.942 Y150.285 E.03313
G1 X96.266 Y149.673 E.02859
G1 X95.361 Y148.465 E.04733
G1 X94.922 Y147.531 E.03236
G1 X94.636 Y146.531 E.03261
G1 X93.451 Y139.182 E.2334
G1 X92.549 Y131.963 E.22811
G1 X92.185 Y128.242 E.11723
G1 X91.894 Y124.616 E.11406
G1 X91.51 Y117.396 E.2267
G1 X91.376 Y109.98 E.23256
G1 X91.51 Y102.604 E.23131
G1 X91.893 Y95.401 E.22616
G1 X92.185 Y91.754 E.11472
G1 X92.549 Y88.04 E.11701
G1 X93.449 Y80.829 E.22785
G1 X94.649 Y73.412 E.23558
G1 X94.945 Y72.408 E.03282
G1 X95.422 Y71.434 E.034
G1 X95.592 Y71.2 E.00907
G1 X95.897 Y71.419 F9000
G1 F1200
G1 X96.327 Y70.822 E.02307
G1 X97.059 Y70.104 E.03215
G1 X97.813 Y69.576 E.02886
G1 X98.519 Y69.221 E.02478
G1 X99.25 Y68.966 E.02427
G1 X100.28 Y68.779 E.03282
G1 X101.35 Y68.776 E.03355
G1 X102.389 Y68.961 E.03309
G1 X103.389 Y69.332 E.03344
G1 X104.301 Y69.874 E.03326
G1 X105.108 Y70.574 E.0335
G1 X105.778 Y71.411 E.03362
G1 X106.284 Y72.35 E.03344
G1 X106.615 Y73.365 E.03347
G1 X106.757 Y74.435 E.03384
G1 X106.71 Y75.492 E.03317
G1 X106.09 Y79.143 E.11611
G1 X105.118 Y85.952 E.21566
G1 X104.388 Y92.77 E.215
G1 X103.896 Y99.691 E.21755
G1 X103.653 Y106.519 E.21422
G1 X103.622 Y110 E.10915
G1 X103.653 Y113.481 E.10915
G1 X103.896 Y120.309 E.21422
G1 X104.388 Y127.23 E.21755
G1 X105.118 Y134.048 E.215
G1 X106.09 Y140.857 E.21566
G1 X106.708 Y144.493 E.11564
G1 X106.765 Y145.245 E.02365
G1 X106.654 Y146.449 E.03791
G1 X106.312 Y147.585 E.0372
G1 X105.75 Y148.631 E.03723
G1 X104.975 Y149.56 E.03793
G1 X104.158 Y150.228 E.03309
G1 X103.123 Y150.789 E.03691
G1 X101.948 Y151.141 E.03846
G1 X100.697 Y151.247 E.03936
G1 X99.801 Y151.157 E.02823
G1 X98.936 Y150.937 E.02798
G1 X98.018 Y150.539 E.03137
G1 X97.183 Y149.995 E.03125
G1 X96.545 Y149.419 E.02695
G1 X95.683 Y148.269 E.04506
G1 X95.27 Y147.386 E.03056
G1 X95.002 Y146.438 E.03089
G1 X93.824 Y139.13 E.23209
G1 X93.343 Y135.54 E.11357
G1 X92.56 Y128.207 E.23123
G1 X92.271 Y124.591 E.11374
G1 X91.886 Y117.381 E.22639
G1 X91.786 Y113.637 E.11743
G1 X91.785 Y106.38 E.22754
G1 X91.886 Y102.619 E.11797
G1 X92.27 Y95.426 E.22585
G1 X92.923 Y88.082 E.23117
G1 X93.823 Y80.88 E.22757
G1 X95.014 Y73.507 E.23417
G1 X95.291 Y72.558 E.031
G1 X95.738 Y71.641 E.03199
G1 X95.862 Y71.468 E.00667
G1 X96.169 Y71.687 F9000
G1 F1200
G1 X96.603 Y71.079 E.02342
G1 X97.289 Y70.403 E.0302
G1 X97.996 Y69.906 E.0271
G1 X99.36 Y69.327 E.04646
G1 X100.33 Y69.153 E.0309
G1 X101.3 Y69.15 E.03041
G1 X102.305 Y69.329 E.03201
G1 X103.24 Y69.679 E.0313
G1 X104.093 Y70.188 E.03114
G1 X104.847 Y70.846 E.03138
G1 X105.472 Y71.632 E.03149
G1 X105.944 Y72.512 E.03131
G1 X106.25 Y73.463 E.03132
G1 X106.381 Y74.467 E.03175
G1 X106.337 Y75.441 E.03057
G1 X105.718 Y79.083 E.11583
G1 X104.743 Y85.906 E.2161
G1 X104.012 Y92.737 E.2154
G1 X103.519 Y99.671 E.21796
G1 X103.276 Y106.512 E.21463
G1 X103.245 Y110 E.10937
G1 X103.276 Y113.488 E.10937
G1 X103.519 Y120.329 E.21463
G1 X104.012 Y127.263 E.21796
G1 X104.743 Y134.094 E.2154
G1 X105.718 Y140.917 E.2161
G1 X106.335 Y144.547 E.11545
G1 X106.387 Y145.257 E.02232
G1 X106.28 Y146.394 E.03581
G1 X105.957 Y147.457 E.03483
G1 X105.427 Y148.434 E.03485
G1 X104.698 Y149.304 E.03559
G1 X103.952 Y149.913 E.03019
G1 X102.973 Y150.443 E.03491
G1 X101.86 Y150.774 E.03641
G1 X100.716 Y150.87 E.036
G1 X99.879 Y150.788 E.02637
G1 X99.071 Y150.585 E.02612
G1 X98.209 Y150.213 E.02944
G1 X97.424 Y149.705 E.02932
G1 X96.824 Y149.165 E.02531
G1 X96.006 Y148.073 E.04278
G1 X95.618 Y147.241 E.02878
G1 X95.372 Y146.365 E.02853
G1 X94.197 Y139.075 E.23152
G1 X93.717 Y135.491 E.11338
G1 X92.936 Y128.172 E.23078
G1 X92.647 Y124.565 E.11346
G1 X92.263 Y117.366 E.22604
G1 X92.13 Y109.983 E.23153
G1 X92.263 Y102.634 E.23046
G1 X92.646 Y95.451 E.22554
G1 X92.936 Y91.825 E.11405
G1 X93.298 Y88.124 E.1166
G1 X94.196 Y80.932 E.22725
G1 X95.379 Y73.601 E.23283
G1 X95.637 Y72.708 E.02914
G1 X96.054 Y71.846 E.03002
G1 X96.134 Y71.736 E.00426
G1 X96.441 Y71.954 F9000
G1 F1200
G1 X96.881 Y71.335 E.02381
G1 X97.52 Y70.702 E.0282
G1 X98.179 Y70.236 E.02531
G1 X99.469 Y69.688 E.04395
G1 X100.379 Y69.527 E.02898
G1 X101.283 Y69.527 E.02834
G1 X102.221 Y69.697 E.02989
G1 X103.091 Y70.026 E.02916
G1 X103.884 Y70.503 E.02902
G1 X104.585 Y71.118 E.02924
G1 X105.166 Y71.852 E.02935
G1 X105.603 Y72.674 E.02919
G1 X105.886 Y73.561 E.02919
G1 X106.005 Y74.498 E.02961
G1 X105.963 Y75.389 E.02797
G1 X105.346 Y79.023 E.11557
G1 X104.369 Y85.859 E.21652
G1 X103.637 Y92.704 E.21584
G1 X103.143 Y99.651 E.21837
G1 X102.899 Y106.505 E.21504
G1 X102.868 Y110 E.10959
G1 X102.899 Y113.495 E.10959
G1 X103.143 Y120.349 E.21504
G1 X103.637 Y127.296 E.21837
G1 X104.369 Y134.141 E.21584
G1 X106.01 Y145.269 E.35268
G1 X105.914 Y146.304 E.03259
G1 X105.615 Y147.296 E.03249
G1 X105.125 Y148.208 E.03246
G1 X104.445 Y149.024 E.0333
G1 X103.744 Y149.597 E.02839
G1 X102.824 Y150.097 E.03283
G1 X101.772 Y150.407 E.03439
G1 X100.703 Y150.493 E.03363
G1 X99.957 Y150.419 E.02351
G1 X99.205 Y150.232 E.0243
G1 X98.4 Y149.888 E.02745
G1 X97.664 Y149.414 E.02745
G1 X97.103 Y148.91 E.02365
G1 X96.329 Y147.878 E.04045
G1 X95.977 Y147.124 E.02609
G1 X95.742 Y146.292 E.02711
G1 X94.57 Y139.02 E.23095
G1 X94.091 Y135.443 E.11316
G1 X93.311 Y128.137 E.23038
G1 X92.8 Y120.956 E.22572
G1 X92.64 Y117.351 E.11314
G1 X92.507 Y109.985 E.23099
G1 X92.64 Y102.649 E.23005
G1 X93.022 Y95.476 E.22522
G1 X93.312 Y91.86 E.11374
G1 X94.09 Y84.561 E.23015
G1 X94.57 Y80.984 E.11316
G1 X95.744 Y73.695 E.23149
G1 X95.984 Y72.856 E.02736
G1 X96.371 Y72.051 E.02801
G1 X96.406 Y72.003 E.00186
G1 X96.711 Y72.221 F9000
G1 F1200
G1 X97.178 Y71.567 E.0252
G1 X97.751 Y71 E.02528
G1 X98.362 Y70.566 E.0235
G1 X99.579 Y70.049 E.04146
G1 X100.397 Y69.904 E.02605
G1 X101.234 Y69.902 E.02624
G1 X102.105 Y70.056 E.02773
G1 X102.912 Y70.359 E.02703
G1 X103.649 Y70.798 E.0269
G1 X104.3 Y71.366 E.02709
G1 X104.859 Y72.072 E.02823
G1 X105.261 Y72.834 E.02701
G1 X105.521 Y73.658 E.02709
G1 X105.629 Y74.528 E.02749
G1 X105.589 Y75.336 E.02537
G1 X104.973 Y78.963 E.11535
G1 X103.995 Y85.812 E.21692
G1 X103.261 Y92.67 E.21626
G1 X102.766 Y99.631 E.21881
G1 X102.522 Y106.499 E.21548
G1 X102.491 Y110 E.10978
G1 X102.522 Y113.501 E.10978
G1 X102.766 Y120.369 E.21548
G1 X103.261 Y127.33 E.21881
G1 X103.995 Y134.188 E.21626
G1 X105.633 Y145.251 E.35065
G1 X105.547 Y146.215 E.03035
G1 X105.273 Y147.136 E.03013
G1 X104.822 Y147.983 E.03009
G1 X104.191 Y148.744 E.031
G1 X103.537 Y149.282 E.02655
G1 X102.674 Y149.75 E.03078
G1 X101.721 Y150.033 E.03117
G1 X100.722 Y150.116 E.03143
G1 X100.033 Y150.049 E.02171
G1 X99.337 Y149.879 E.02246
G1 X98.589 Y149.561 E.02548
G1 X97.904 Y149.122 E.02551
G1 X97.381 Y148.655 E.02198
G1 X96.652 Y147.683 E.0381
G1 X96.326 Y146.979 E.02433
G1 X96.112 Y146.219 E.02476
G1 X94.943 Y138.965 E.23038
G1 X94.465 Y135.394 E.11296
G1 X93.687 Y128.102 E.22993
G1 X93.177 Y120.934 E.22532
G1 X93.017 Y117.335 E.11296
G1 X92.884 Y109.987 E.23043
G1 X93.017 Y102.664 E.22965
G1 X93.398 Y95.501 E.22491
G1 X93.687 Y91.895 E.11343
G1 X94.464 Y84.609 E.22974
G1 X94.943 Y81.039 E.11294
G1 X96.114 Y73.768 E.23091
G1 X96.342 Y72.977 E.02581
G1 X96.683 Y72.274 E.0245
G1 X97.02 Y72.436 F9000
G1 F1200
G1 X97.455 Y71.823 E.02357
G1 X97.984 Y71.298 E.02337
G1 X98.546 Y70.895 E.02168
G1 X99.687 Y70.411 E.03886
G1 X100.445 Y70.278 E.02413
G1 X101.216 Y70.279 E.02417
G1 X102.021 Y70.424 E.02565
G1 X102.762 Y70.705 E.02485
G1 X103.44 Y71.112 E.02479
G1 X104.038 Y71.637 E.02495
G1 X104.551 Y72.291 E.02606
G1 X104.919 Y72.994 E.02488
G1 X105.156 Y73.753 E.02493
G1 X105.253 Y74.556 E.02536
G1 X105.216 Y75.284 E.02286
G1 X104.601 Y78.903 E.1151
G1 X103.621 Y85.765 E.21734
G1 X102.885 Y92.637 E.2167
G1 X102.39 Y99.611 E.21921
G1 X102.145 Y106.492 E.21589
G1 X102.114 Y110 E.11
G1 X102.145 Y113.508 E.11
G1 X102.39 Y120.389 E.21589
G1 X102.885 Y127.363 E.21921
G1 X103.621 Y134.235 E.2167
G1 X105.256 Y145.263 E.34955
G1 X105.173 Y146.161 E.02828
G1 X104.918 Y147.008 E.02773
G1 X104.499 Y147.787 E.02773
G1 X103.937 Y148.465 E.02761
G1 X103.329 Y148.967 E.02472
G1 X102.525 Y149.404 E.02869
G1 X101.634 Y149.666 E.02912
G1 X100.741 Y149.739 E.02809
G1 X99.47 Y149.525 E.04041
G1 X98.751 Y149.22 E.02449
G1 X98.143 Y148.83 E.02265
G1 X97.658 Y148.4 E.02032
G1 X96.975 Y147.489 E.0357
G1 X96.675 Y146.836 E.02253
G1 X96.482 Y146.146 E.02246
G1 X95.316 Y138.909 E.22984
G1 X94.839 Y135.346 E.11271
G1 X94.062 Y128.067 E.22952
G1 X93.553 Y120.912 E.22491
G1 X93.393 Y117.32 E.11274
G1 X93.261 Y109.988 E.22993
G1 X93.393 Y102.68 E.22917
G1 X93.775 Y95.527 E.2246
G1 X94.062 Y91.93 E.11314
G1 X94.838 Y84.657 E.22933
G1 X95.316 Y81.094 E.11272
G1 X96.484 Y73.842 E.23031
G1 X96.7 Y73.097 E.02432
G1 X96.994 Y72.49 E.02115
G1 X97.332 Y72.652 F9000
G1 F1200
G1 X97.338 Y72.64 E.00042
G1 X97.734 Y72.078 E.02156
G1 X98.217 Y71.595 E.02142
G1 X98.731 Y71.224 E.01988
G1 X99.795 Y70.772 E.03625
G1 X100.463 Y70.655 E.02126
G1 X101.168 Y70.653 E.0221
G1 X101.905 Y70.783 E.02346
G1 X102.585 Y71.038 E.02277
G1 X103.204 Y71.407 E.0226
G1 X103.775 Y71.909 E.02384
G1 X104.243 Y72.509 E.02386
G1 X104.576 Y73.152 E.0227
G1 X104.79 Y73.847 E.0228
G1 X104.876 Y74.584 E.02326
G1 X104.842 Y75.232 E.02035
G1 X104.229 Y78.843 E.11484
G1 X103.247 Y85.719 E.21778
G1 X102.51 Y92.603 E.21708
G1 X102.013 Y99.59 E.21963
G1 X101.768 Y106.485 E.21632
G1 X101.737 Y110 E.11021
G1 X101.768 Y113.515 E.11021
G1 X102.013 Y120.41 E.21632
G1 X102.51 Y127.397 E.21963
G1 X103.247 Y134.281 E.21708
G1 X103.713 Y137.765 E.11021
G1 X104.879 Y145.246 E.23739
G1 X104.806 Y146.073 E.02603
G1 X104.576 Y146.849 E.02538
G1 X104.196 Y147.563 E.02536
G1 X103.683 Y148.186 E.0253
G1 X103.121 Y148.652 E.02289
G1 X102.376 Y149.057 E.02659
G1 X101.582 Y149.292 E.02596
G1 X100.758 Y149.362 E.02593
G1 X99.602 Y149.172 E.03673
G1 X98.913 Y148.88 E.02346
G1 X98.382 Y148.538 E.0198
G1 X97.935 Y148.144 E.01868
G1 X97.299 Y147.295 E.03326
