; generated by PrusaSlicer 2.7.0+linux-x64-GTK3 on 2023-12-14 at 19:34:39 UTC


;
;

;
;
; 

; external perimeters extrusion width = 0.42mm
; perimeters extrusion width = 0.44mm
; infill extrusion width = 0.44mm
; solid infill extrusion width = 0.44mm
; top infill extrusion width = 0.40mm
; support material extrusion width = 0.36mm
; first layer extrusion width = 0.42mm

M201 X500 Y500 Z100 E5000 ; sets maximum accelerations, mm/sec^2
M203 X500 Y500 Z10 E60 ; sets maximum feedrates, mm / sec
M204 P500 R1000 T500 ; sets acceleration (P, T) and retract acceleration (R), mm/sec^2
M205 X8.00 Y8.00 Z0.40 E5.00 ; sets the jerk limits, mm/sec
M205 S0 T0 ; sets the minimum extruding and travel feed rate, mm/sec

; printing object dropspindle-40-wings100.stl_2 id:2 copy 0
; stop printing object dropspindle-40-wings100.stl_2 id:2 copy 0

;TYPE:Custom
BED_MESH_PROFILE LOAD=default
G90 ; use absolute coordinates
M83 ; extruder relative mode
M104 S150 ; set temporary nozzle temp to prevent oozing during homing
M140 S60 ; set final bed temp
G4 S30 ; allow partial nozzle warmup
G28 ; home all axis
G1 Z50 F240
G1 X2.0 Y10 F3000
M104 S210 ; set final nozzle temp
M190 S60 ; wait for bed temp to stabilize
M109 S210 ; wait for nozzle temp to stabilize
G1 Z0.28 F240
G92 E0
G1 X2.0 Y140 E10 F1500 ; prime the nozzle
G1 X2.3 Y140 F5000
G92 E0
G1 X2.3 Y10 E10 F1200 ; prime the nozzle
G92 E0
G21 ; set units to millimeters
G90 ; use absolute coordinates
M83 ; use relative distances for extrusion
; Filament gcode
M107
;LAYER_CHANGE
;Z:0.2
;HEIGHT:0.2
;BEFORE_LAYER_CHANGE
G92 E0
;0.2


G1 E-5 F3600
G1 Z.2 F9000
;AFTER_LAYER_CHANGE
;0.2
G1 X105.814 Y68.125
G1 Z.2
G1 E5 F2400
;TYPE:Skirt/Brim
;WIDTH:0.42
G1 F1200
G1 X106.646 Y67.005 E.04375
G1 X107.491 Y66.098 E.03887
G1 X108.33 Y65.358 E.03508
G1 X109.337 Y64.633 E.03891
G1 X110.21 Y64.122 E.03172
G1 X111.334 Y63.599 E.03887
G1 X112.291 Y63.26 E.03183
G1 X113.645 Y62.928 E.04371
G1 X114.872 Y62.768 E.0388
G1 X115.887 Y62.731 E.03185
G1 X117.865 Y62.909 E.06227
G1 X119.576 Y63.34 E.05532
G1 X121.065 Y63.949 E.05044
G1 X122.77 Y64.967 E.06226
G1 X124.124 Y66.097 E.0553
G1 X125.433 Y67.594 E.06235
G1 X126.372 Y69.088 E.05533
G1 X127.119 Y70.815 E.059
G1 X128.293 Y75.238 E.14348
G1 X129.221 Y79.265 E.12957
G1 X130.609 Y86.514 E.23142
G1 X131.225 Y90.565 E.12848
G1 X131.704 Y94.426 E.12199
G1 X132.084 Y98.366 E.12411
G1 X132.341 Y102.077 E.11663
G1 X132.512 Y106.21 E.1297
G1 X132.565 Y110.035 E.11994
G1 X132.512 Y113.79 E.11775
G1 X132.341 Y117.923 E.1297
G1 X132.084 Y121.634 E.11663
G1 X131.704 Y125.574 E.12411
G1 X131.225 Y129.435 E.12199
G1 X130.609 Y133.486 E.12848
G1 X129.221 Y140.735 E.23142
G1 X128.293 Y144.762 E.12957
G1 X127.119 Y149.185 E.14348
G1 X126.372 Y150.912 E.059
G1 X125.433 Y152.406 E.05533
G1 X124.124 Y153.903 E.06235
G1 X122.77 Y155.033 E.0553
G1 X121.065 Y156.051 E.06226
G1 X119.427 Y156.709 E.05535
G1 X117.487 Y157.15 E.06238
G1 X115.729 Y157.269 E.05525
G1 X113.645 Y157.072 E.06563
G1 X111.58 Y156.497 E.06721
G1 X110.55 Y156.051 E.03519
G1 X109.56 Y155.506 E.03543
G1 X108.046 Y154.406 E.05868
G1 X106.546 Y152.874 E.06723
G1 X105.814 Y151.875 E.03883
G1 X105.293 Y151.005 E.0318
G1 X104.462 Y149.083 E.06565
G1 X103.971 Y146.995 E.06725
G1 X103.852 Y145.392 E.0504
G1 X103.852 Y74.608 E2.21938
G1 X103.925 Y73.371 E.03885
G1 X104.079 Y72.369 E.03179
G1 X104.382 Y71.168 E.03884
G1 X104.762 Y70.114 E.03513
G1 X105.244 Y69.089 E.03551
G1 X105.784 Y68.176 E.03326
G1 E-3.5 F3600
;WIPE_START
G1 F7200
G1 X105.814 Y68.125 E-.02811
G1 X106.646 Y67.005 E-.66273
G1 X107.491 Y66.098 E-.58882
G1 X107.839 Y65.791 E-.22034
;WIPE_END
G1 X108.989 Y69.971 F9000
G1 E5 F2400
G1 F1200
G1 X108.998 Y69.954 E.0006
G1 X110.06 Y68.709 E.05131
G1 X111.35 Y67.694 E.05147
G1 X112.868 Y66.933 E.05324
G1 X114.428 Y66.51 E.05068
G1 X115.252 Y66.413 E.02601
G1 X116.735 Y66.447 E.04651
G1 X118.481 Y66.837 E.05609
G1 X119.349 Y67.189 E.02937
G1 X120.171 Y67.635 E.02932
G1 X121.014 Y68.233 E.03241
G1 X121.762 Y68.915 E.03174
G1 X122.42 Y69.682 E.03169
G1 X123.009 Y70.576 E.03357
G1 X123.489 Y71.565 E.03447
G1 X123.814 Y72.528 E.03187
G1 X124.747 Y76.158 E.11752
G1 X126.358 Y83.546 E.23709
G1 X127.601 Y91.099 E.24
G1 X128.055 Y94.762 E.11573
G1 X128.431 Y98.657 E.12269
G1 X128.686 Y102.327 E.11535
G1 X128.849 Y106.29 E.12436
G1 X128.901 Y110.034 E.1174
G1 X128.849 Y113.71 E.11527
G1 X128.686 Y117.673 E.12436
G1 X128.431 Y121.343 E.11535
G1 X128.055 Y125.238 E.12269
G1 X127.601 Y128.896 E.11557
G1 X126.36 Y136.445 E.23987
G1 X124.747 Y143.842 E.23738
G1 X123.806 Y147.498 E.11837
G1 X123.509 Y148.388 E.02942
G1 X123.112 Y149.239 E.02944
G1 X122.529 Y150.17 E.03444
G1 X121.811 Y151.033 E.0352
G1 X120.998 Y151.78 E.03462
G1 X119.475 Y152.751 E.05663
G1 X118.484 Y153.162 E.03364
G1 X117.257 Y153.477 E.03972
G1 X115.778 Y153.606 E.04655
G1 X114.202 Y153.449 E.04966
G1 X112.727 Y153.012 E.04823
G1 X111.299 Y152.274 E.0504
G1 X110.133 Y151.36 E.04645
G1 X109.13 Y150.229 E.0474
G1 X108.346 Y148.931 E.04755
G1 X107.802 Y147.474 E.04876
G1 X107.539 Y145.935 E.04895
G1 X107.582 Y144.269 E.05225
G1 X108.654 Y137.189 E.22452
G1 X109.09 Y133.73 E.10931
G1 X109.76 Y127.069 E.2099
G1 X110.223 Y120.131 E.21802
G1 X110.445 Y113.473 E.20887
G1 X110.474 Y110 E.1089
G1 X110.445 Y106.527 E.1089
G1 X110.223 Y99.869 E.20887
G1 X109.76 Y92.931 E.21802
G1 X109.09 Y86.27 E.2099
G1 X108.164 Y79.384 E.21785
G1 X107.586 Y75.769 E.11479
G1 X107.516 Y74.575 E.0375
G1 X107.708 Y72.92 E.05224
G1 X108.22 Y71.344 E.05196
G1 X108.96 Y70.024 E.04745
G1 X109.287 Y70.208 F9000
G1 F1200
G1 X109.313 Y70.163 E.00163
G1 X110.326 Y68.976 E.04893
G1 X111.544 Y68.018 E.04859
G1 X112.995 Y67.288 E.05093
G1 X114.483 Y66.883 E.04835
G1 X116.057 Y66.777 E.04946
G1 X117.317 Y66.917 E.03975
G1 X118.351 Y67.191 E.03354
G1 X119.178 Y67.525 E.02796
G1 X119.981 Y67.961 E.02865
G1 X120.786 Y68.533 E.03096
G1 X121.498 Y69.185 E.03027
G1 X122.125 Y69.918 E.03024
G1 X122.687 Y70.773 E.03208
G1 X123.145 Y71.718 E.03293
G1 X123.454 Y72.641 E.03052
G1 X124.38 Y76.245 E.11667
G1 X125.988 Y83.619 E.23664
G1 X127.227 Y91.148 E.23924
G1 X127.68 Y94.801 E.11541
G1 X128.056 Y98.691 E.12254
G1 X128.31 Y102.35 E.115
G1 X128.472 Y106.303 E.12405
G1 X128.524 Y110.032 E.11693
G1 X128.472 Y113.697 E.11493
G1 X128.31 Y117.65 E.12405
G1 X128.056 Y121.309 E.115
G1 X127.68 Y125.199 E.12254
G1 X127.228 Y128.847 E.11526
G1 X125.99 Y136.371 E.23908
G1 X124.38 Y143.755 E.23696
G1 X123.446 Y147.385 E.11752
G1 X123.154 Y148.258 E.02886
G1 X122.775 Y149.069 E.02807
G1 X122.216 Y149.958 E.03293
G1 X121.546 Y150.765 E.03289
G1 X120.769 Y151.481 E.03313
G1 X119.3 Y152.417 E.05461
G1 X118.352 Y152.809 E.03216
G1 X117.197 Y153.105 E.03738
G1 X115.771 Y153.228 E.04488
G1 X114.265 Y153.077 E.04746
G1 X112.859 Y152.659 E.04599
G1 X111.495 Y151.951 E.04819
G1 X110.384 Y151.078 E.0443
G1 X109.429 Y149.999 E.04518
G1 X108.682 Y148.761 E.04534
G1 X108.164 Y147.369 E.04657
G1 X107.915 Y145.9 E.04672
G1 X107.958 Y144.305 E.05003
G1 X109.028 Y137.239 E.22408
G1 X109.464 Y133.774 E.1095
G1 X110.136 Y127.101 E.21029
G1 X110.599 Y120.15 E.21843
G1 X110.822 Y113.48 E.20925
G1 X110.851 Y110 E.10912
G1 X110.822 Y106.52 E.10912
G1 X110.599 Y99.85 E.20925
G1 X110.136 Y92.899 E.21843
G1 X109.464 Y86.226 E.21029
G1 X108.537 Y79.327 E.21826
G1 X107.96 Y75.719 E.11456
G1 X107.894 Y74.587 E.03555
G1 X108.078 Y72.992 E.05034
G1 X108.569 Y71.487 E.04964
G1 X109.258 Y70.26 E.04412
G1 X109.586 Y70.444 F9000
G1 F1200
G1 X109.627 Y70.372 E.0026
G1 X110.592 Y69.244 E.04654
G1 X111.754 Y68.331 E.04633
G1 X113.123 Y67.643 E.04804
G1 X114.538 Y67.256 E.046
G1 X115.285 Y67.167 E.02359
G1 X116.652 Y67.196 E.04287
G1 X118.221 Y67.545 E.0504
G1 X119.027 Y67.871 E.02726
G1 X119.791 Y68.287 E.02728
G1 X120.557 Y68.833 E.02949
G1 X121.235 Y69.455 E.02885
G1 X121.831 Y70.154 E.0288
G1 X122.365 Y70.969 E.03055
G1 X122.8 Y71.871 E.0314
G1 X123.09 Y72.741 E.02875
G1 X124.013 Y76.332 E.11625
G1 X125.618 Y83.692 E.23619
G1 X126.853 Y91.197 E.23848
G1 X127.305 Y94.839 E.11507
G1 X127.68 Y98.725 E.12241
G1 X127.934 Y102.373 E.11466
G1 X128.095 Y106.316 E.12373
G1 X128.147 Y110.029 E.11643
G1 X128.095 Y113.684 E.11461
G1 X127.934 Y117.627 E.12373
G1 X127.68 Y121.275 E.11466
G1 X127.305 Y125.161 E.12241
G1 X126.854 Y128.798 E.11491
G1 X125.62 Y136.298 E.23832
G1 X124.013 Y143.668 E.23651
G1 X123.086 Y147.272 E.11668
G1 X122.808 Y148.108 E.02762
G1 X122.439 Y148.898 E.02734
G1 X121.904 Y149.747 E.03146
G1 X121.265 Y150.514 E.0313
G1 X120.54 Y151.181 E.03089
G1 X119.125 Y152.082 E.0526
G1 X118.221 Y152.455 E.03066
G1 X117.136 Y152.732 E.03511
G1 X115.78 Y152.851 E.04268
G1 X114.328 Y152.705 E.04576
G1 X112.992 Y152.306 E.04372
G1 X111.705 Y151.638 E.04546
G1 X110.635 Y150.796 E.04269
G1 X109.728 Y149.769 E.04296
G1 X109.019 Y148.591 E.04311
G1 X108.527 Y147.265 E.04435
G1 X108.29 Y145.864 E.04455
G1 X108.331 Y144.357 E.04727
G1 X109.402 Y137.29 E.22411
G1 X109.839 Y133.818 E.10972
G1 X110.511 Y127.132 E.21069
G1 X110.976 Y120.168 E.21884
G1 X111.199 Y113.486 E.20963
G1 X111.228 Y110 E.1093
G1 X111.199 Y106.514 E.1093
G1 X110.976 Y99.832 E.20963
G1 X110.511 Y92.868 E.21884
G1 X109.839 Y86.182 E.21069
G1 X108.91 Y79.271 E.21864
G1 X108.333 Y75.669 E.11438
G1 X108.271 Y74.599 E.03361
G1 X108.449 Y73.064 E.04845
G1 X108.918 Y71.631 E.04728
G1 X109.556 Y70.497 E.0408
G1 X109.884 Y70.682 F9000
G1 F1200
G1 X109.94 Y70.581 E.00362
G1 X110.857 Y69.512 E.04416
G1 X111.947 Y68.655 E.04347
G1 X113.252 Y67.997 E.04582
G1 X114.594 Y67.629 E.04363
G1 X116.021 Y67.53 E.04485
G1 X117.183 Y67.659 E.03666
G1 X118.091 Y67.899 E.02945
G1 X119.599 Y68.612 E.0523
G1 X120.328 Y69.133 E.02809
G1 X120.971 Y69.725 E.0274
G1 X121.535 Y70.389 E.02732
G1 X122.042 Y71.165 E.02906
G1 X122.454 Y72.023 E.02984
G1 X122.727 Y72.841 E.02704
G1 X123.646 Y76.419 E.11583
G1 X125.248 Y83.766 E.23577
G1 X126.479 Y91.246 E.23768
G1 X126.93 Y94.878 E.11475
G1 X127.305 Y98.758 E.12222
G1 X127.557 Y102.397 E.11437
G1 X127.719 Y106.329 E.12339
G1 X127.77 Y110.026 E.11593
G1 X127.719 Y113.671 E.1143
G1 X127.557 Y117.603 E.12339
G1 X127.305 Y121.242 E.11437
G1 X126.93 Y125.122 E.12222
G1 X126.48 Y128.749 E.11459
G1 X125.25 Y136.225 E.23756
G1 X123.646 Y143.581 E.23606
G1 X122.723 Y147.172 E.11625
G1 X122.102 Y148.727 E.0525
G1 X121.592 Y149.534 E.02993
G1 X121 Y150.245 E.02901
G1 X120.31 Y150.882 E.02944
G1 X118.951 Y151.747 E.05051
G1 X118.09 Y152.101 E.02919
G1 X117.076 Y152.36 E.03281
G1 X115.773 Y152.474 E.04101
G1 X114.391 Y152.333 E.04356
G1 X113.124 Y151.953 E.04147
G1 X111.915 Y151.325 E.04272
G1 X110.886 Y150.515 E.04106
G1 X110.027 Y149.539 E.04077
G1 X109.356 Y148.422 E.04086
G1 X108.889 Y147.162 E.04213
G1 X108.666 Y145.829 E.04238
G1 X108.707 Y144.394 E.04501
G1 X109.775 Y137.34 E.22369
G1 X110.213 Y133.862 E.10991
G1 X110.887 Y127.164 E.21107
G1 X111.353 Y120.187 E.21925
G1 X111.576 Y113.492 E.21003
G1 X111.605 Y110 E.10949
G1 X111.576 Y106.508 E.10949
G1 X111.353 Y99.813 E.21003
G1 X110.887 Y92.836 E.21925
G1 X110.213 Y86.138 E.21107
G1 X109.283 Y79.214 E.21905
G1 X108.707 Y75.618 E.11419
G1 X108.648 Y74.611 E.03163
G1 X108.819 Y73.136 E.04656
G1 X109.266 Y71.775 E.04492
G1 X109.854 Y70.734 E.03749
G1 X110.181 Y70.919 F9000
G1 F1200
G1 X110.254 Y70.791 E.00462
G1 X111.122 Y69.78 E.04178
G1 X112.141 Y68.979 E.04064
G1 X112.787 Y68.614 E.02326
G1 X113.864 Y68.189 E.0363
G1 X115.337 Y67.919 E.04695
G1 X116.568 Y67.946 E.03861
G1 X117.961 Y68.254 E.04473
G1 X118.704 Y68.552 E.0251
G1 X119.408 Y68.937 E.02516
G1 X120.099 Y69.433 E.02667
G1 X120.706 Y69.994 E.02592
G1 X121.24 Y70.623 E.02587
G1 X121.72 Y71.36 E.02758
G1 X122.109 Y72.175 E.02832
G1 X122.363 Y72.941 E.0253
G1 X123.279 Y76.506 E.11541
G1 X124.878 Y83.839 E.23532
G1 X126.105 Y91.295 E.23692
G1 X126.555 Y94.917 E.11444
G1 X126.929 Y98.792 E.12206
G1 X127.181 Y102.42 E.11403
G1 X127.342 Y106.342 E.12308
G1 X127.393 Y110.024 E.11546
G1 X127.342 Y113.658 E.11395
G1 X127.181 Y117.58 E.12308
G1 X126.929 Y121.208 E.11403
G1 X126.555 Y125.083 E.12206
G1 X126.106 Y128.7 E.11428
G1 X124.88 Y136.151 E.23676
G1 X123.279 Y143.494 E.23564
G1 X122.359 Y147.072 E.11583
G1 X121.766 Y148.556 E.05011
G1 X121.28 Y149.322 E.02844
G1 X120.718 Y149.994 E.02747
G1 X120.08 Y150.583 E.02723
G1 X118.777 Y151.413 E.04844
G1 X117.96 Y151.747 E.02767
G1 X117.015 Y151.988 E.03058
G1 X115.782 Y152.097 E.03881
G1 X114.474 Y151.965 E.04122
G1 X113.272 Y151.606 E.03933
G1 X112.125 Y151.011 E.04051
G1 X111.136 Y150.233 E.03945
G1 X110.326 Y149.309 E.03853
G1 X109.694 Y148.253 E.03859
G1 X109.252 Y147.059 E.03992
G1 X109.041 Y145.795 E.04018
G1 X109.082 Y144.431 E.04279
G1 X109.656 Y140.842 E.11396
G1 X110.588 Y133.906 E.21943
G1 X111.263 Y127.195 E.21148
G1 X111.729 Y120.206 E.21962
G1 X111.953 Y113.498 E.21044
G1 X111.982 Y110 E.10968
G1 X111.953 Y106.502 E.10968
G1 X111.729 Y99.794 E.21044
G1 X111.263 Y92.805 E.21962
G1 X110.588 Y86.094 E.21148
G1 X109.656 Y79.158 E.21943
G1 X109.081 Y75.568 E.114
G1 X109.025 Y74.623 E.02968
G1 X109.189 Y73.209 E.04463
G1 X109.615 Y71.92 E.04257
G1 X110.152 Y70.971 E.03419
G1 X110.479 Y71.157 F9000
G1 F1200
G1 X110.567 Y71.002 E.00559
G1 X111.387 Y70.049 E.03942
G1 X112.335 Y69.302 E.03784
G1 X113.51 Y68.706 E.04131
G1 X114.706 Y68.375 E.03891
G1 X115.986 Y68.284 E.04023
G1 X117.049 Y68.401 E.03353
G1 X117.831 Y68.608 E.02536
G1 X119.217 Y69.262 E.04805
G1 X119.869 Y69.732 E.0252
G1 X120.944 Y70.857 E.04879
G1 X121.396 Y71.554 E.02605
G1 X121.763 Y72.326 E.0268
G1 X121.999 Y73.041 E.02361
G1 X122.912 Y76.593 E.11499
G1 X124.508 Y83.912 E.23487
G1 X125.731 Y91.344 E.23616
G1 X126.18 Y94.956 E.11412
G1 X126.554 Y98.826 E.12191
G1 X126.805 Y102.444 E.11371
G1 X126.965 Y106.355 E.12273
G1 X127.016 Y110.021 E.11496
G1 X126.965 Y113.645 E.11364
G1 X126.805 Y117.556 E.12273
G1 X126.554 Y121.174 E.11371
G1 X126.18 Y125.044 E.12191
G1 X125.732 Y128.651 E.11396
G1 X124.51 Y136.078 E.236
G1 X122.912 Y143.407 E.23519
G1 X121.996 Y146.972 E.11541
G1 X121.43 Y148.384 E.0477
G1 X120.969 Y149.109 E.02694
G1 X120.453 Y149.725 E.0252
G1 X119.85 Y150.284 E.02578
G1 X118.604 Y151.078 E.04633
G1 X117.83 Y151.393 E.0262
G1 X116.955 Y151.615 E.0283
G1 X115.791 Y151.72 E.03664
G1 X114.556 Y151.597 E.03891
G1 X113.405 Y151.253 E.03767
G1 X112.335 Y150.698 E.03779
G1 X111.387 Y149.952 E.03782
G1 X110.625 Y149.079 E.03633
G1 X110.031 Y148.085 E.03631
G1 X109.615 Y146.956 E.03773
G1 X109.417 Y145.761 E.03798
G1 X109.457 Y144.468 E.04056
G1 X110.029 Y140.899 E.11333
G1 X110.962 Y133.95 E.21984
G1 X111.639 Y127.226 E.21189
G1 X112.106 Y120.225 E.22
G1 X112.33 Y113.505 E.21082
G1 X112.359 Y110 E.1099
G1 X112.33 Y106.495 E.1099
G1 X112.106 Y99.775 E.21082
G1 X111.639 Y92.774 E.22
G1 X110.962 Y86.05 E.21189
G1 X110.029 Y79.101 E.21984
G1 X109.455 Y75.518 E.11377
G1 X109.402 Y74.613 E.02842
G1 X109.559 Y73.282 E.04202
G1 X109.963 Y72.066 E.04018
G1 X110.449 Y71.209 E.03089
G1 X110.776 Y71.395 F9000
G1 F1200
G1 X110.88 Y71.212 E.0066
G1 X111.651 Y70.318 E.03702
G1 X112.544 Y69.616 E.03562
G1 X113.141 Y69.28 E.02148
G1 X114.057 Y68.918 E.03088
G1 X115.372 Y68.673 E.04194
G1 X116.485 Y68.696 E.0349
G1 X117.702 Y68.962 E.03906
G1 X119.025 Y69.587 E.04588
G1 X119.638 Y70.03 E.02371
G1 X120.648 Y71.091 E.04593
G1 X121.073 Y71.748 E.02453
G1 X121.417 Y72.476 E.02525
G1 X122.545 Y76.68 E.13648
G1 X123.414 Y80.448 E.12124
G1 X124.775 Y87.558 E.22698
G1 X125.357 Y91.393 E.12162
G1 X125.805 Y94.995 E.11381
G1 X126.178 Y98.86 E.12175
G1 X126.428 Y102.467 E.11337
G1 X126.588 Y106.368 E.12242
G1 X126.638 Y110.018 E.11445
G1 X126.588 Y113.632 E.11333
G1 X126.428 Y117.533 E.12242
G1 X126.178 Y121.141 E.1134
G1 X125.805 Y125.005 E.12172
G1 X125.358 Y128.602 E.11365
G1 X124.14 Y136.005 E.23524
G1 X122.545 Y143.32 E.23475
G1 X121.632 Y146.872 E.11499
G1 X121.094 Y148.212 E.04527
G1 X120.658 Y148.895 E.02541
G1 X119.62 Y149.985 E.04719
G1 X118.431 Y150.743 E.04421
G1 X117.7 Y151.038 E.02472
G1 X116.894 Y151.243 E.02608
G1 X115.784 Y151.343 E.03494
G1 X114.619 Y151.225 E.03671
G1 X113.553 Y150.905 E.0349
G1 X112.544 Y150.384 E.03561
G1 X111.651 Y149.682 E.03562
