; generated by PrusaSlicer 2.7.1+linux-x64-GTK3 on 2023-12-14 at 21:12:01 UTC


;
;

;
;
; 

; external perimeters extrusion width = 0.42mm
; perimeters extrusion width = 0.44mm
; infill extrusion width = 0.44mm
; solid infill extrusion width = 0.44mm
; top infill extrusion width = 0.40mm
; support material extrusion width = 0.36mm
; first layer extrusion width = 0.42mm

M201 X500 Y500 Z100 E5000 ; sets maximum accelerations, mm/sec^2
M203 X500 Y500 Z10 E60 ; sets maximum feedrates, mm / sec
M204 P500 R1000 T500 ; sets acceleration (P, T) and retract acceleration (R), mm/sec^2
M205 X8.00 Y8.00 Z0.40 E5.00 ; sets the jerk limits, mm/sec
M205 S0 T0 ; sets the minimum extruding and travel feed rate, mm/sec

; printing object dropspindle-shaft100.stl id:0 copy 0
; stop printing object dropspindle-shaft100.stl id:0 copy 0

;TYPE:Custom
BED_MESH_PROFILE LOAD=default
G90 ; use absolute coordinates
M83 ; extruder relative mode
M104 S150 ; set temporary nozzle temp to prevent oozing during homing
M140 S60 ; set final bed temp
G4 S30 ; allow partial nozzle warmup
G28 ; home all axis
G1 Z50 F240
G1 X2.0 Y10 F3000
M104 S210 ; set final nozzle temp
M190 S60 ; wait for bed temp to stabilize
M109 S210 ; wait for nozzle temp to stabilize
G1 Z0.28 F240
G92 E0
G1 X2.0 Y140 E10 F1500 ; prime the nozzle
G1 X2.3 Y140 F5000
G92 E0
G1 X2.3 Y10 E10 F1200 ; prime the nozzle
G92 E0
G21 ; set units to millimeters
G90 ; use absolute coordinates
M83 ; use relative distances for extrusion
; Filament gcode
M107
;LAYER_CHANGE
;Z:0.2
;HEIGHT:0.2
;BEFORE_LAYER_CHANGE
G92 E0
;0.2


G1 E-5 F3600
G1 Z.2 F9000
;AFTER_LAYER_CHANGE
;0.2
G1 X100.858 Y100.592
G1 Z.2
G1 E5 F2400
;TYPE:Skirt/Brim
;WIDTH:0.42
G1 F1200
G1 X101.79 Y99.768 E.03901
G1 X102.904 Y98.966 E.04304
G1 X103.853 Y98.411 E.03447
G1 X105.098 Y97.832 E.04305
G1 X106.134 Y97.465 E.03446
G1 X107.619 Y97.099 E.04795
G1 X108.98 Y96.922 E.04303
G1 X110.196 Y96.883 E.03815
G1 X111.422 Y96.959 E.03851
G1 X112.535 Y97.129 E.0353
G1 X113.866 Y97.465 E.04304
G1 X115.011 Y97.877 E.03815
G1 X116.147 Y98.411 E.03936
G1 X117.194 Y99.03 E.03814
G1 X118.302 Y99.842 E.04307
G1 X119.408 Y100.858 E.04709
G1 X120.232 Y101.79 E.03901
G1 X121.034 Y102.904 E.04304
G1 X121.589 Y103.853 E.03447
G1 X122.168 Y105.098 E.04305
G1 X122.535 Y106.134 E.03446
G1 X122.871 Y107.465 E.04304
G1 X123.078 Y108.98 E.04794
G1 X123.119 Y110.079 E.03448
G1 X123.038 Y111.449 E.04303
G1 X122.871 Y112.535 E.03445
G1 X122.535 Y113.866 E.04304
G1 X122.123 Y115.011 E.03815
G1 X121.534 Y116.251 E.04304
G1 X120.743 Y117.528 E.0471
G1 X120.058 Y118.423 E.03534
G1 X119.122 Y119.427 E.04304
G1 X118.21 Y120.232 E.03814
G1 X117.096 Y121.034 E.04304
G1 X116.147 Y121.589 E.03447
G1 X114.902 Y122.168 E.04305
G1 X113.866 Y122.535 E.03446
G1 X112.535 Y122.871 E.04304
G1 X111.02 Y123.078 E.04794
G1 X109.921 Y123.119 E.03448
G1 X108.551 Y123.038 E.04303
G1 X107.465 Y122.871 E.03445
G1 X106.134 Y122.535 E.04304
G1 X104.989 Y122.123 E.03815
G1 X103.749 Y121.534 E.04304
G1 X102.472 Y120.743 E.0471
G1 X101.577 Y120.058 E.03534
G1 X100.573 Y119.122 E.04304
G1 X99.768 Y118.21 E.03814
G1 X98.966 Y117.096 E.04304
G1 X98.411 Y116.147 E.03447
G1 X97.832 Y114.902 E.04305
G1 X97.465 Y113.866 E.03446
G1 X97.129 Y112.535 E.04304
G1 X96.922 Y111.02 E.04794
G1 X96.881 Y109.921 E.03448
G1 X96.962 Y108.551 E.04303
G1 X97.129 Y107.465 E.03445
G1 X97.465 Y106.134 E.04304
G1 X97.877 Y104.989 E.03815
G1 X98.466 Y103.749 E.04304
G1 X99.257 Y102.472 E.0471
G1 X99.942 Y101.577 E.03534
G1 X100.817 Y100.636 E.04029
G1 X101.093 Y100.893 F9000
G1 F1200
G1 X101.126 Y100.858 E.00151
G1 X102.022 Y100.066 E.0375
G1 X103.107 Y99.284 E.04193
G1 X104.024 Y98.747 E.03332
G1 X105.236 Y98.182 E.04193
G1 X106.239 Y97.827 E.03336
G1 X107.69 Y97.47 E.04685
G1 X109.016 Y97.297 E.04193
G1 X110.185 Y97.26 E.03667
G1 X111.387 Y97.335 E.03776
G1 X112.465 Y97.499 E.03419
G1 X113.761 Y97.827 E.04192
G1 X114.861 Y98.223 E.03666
G1 X115.976 Y98.747 E.03863
G1 X116.982 Y99.342 E.03665
G1 X118.061 Y100.132 E.04193
G1 X119.142 Y101.126 E.04604
G1 X119.934 Y102.022 E.0375
G1 X120.716 Y103.106 E.04191
G1 X121.253 Y104.024 E.03335
G1 X121.818 Y105.236 E.04193
G1 X122.173 Y106.239 E.03336
G1 X122.501 Y107.535 E.04192
G1 X122.703 Y109.016 E.04687
G1 X122.741 Y110.079 E.03335
G1 X122.662 Y111.414 E.04193
G1 X122.501 Y112.465 E.03334
G1 X122.173 Y113.761 E.04192
G1 X121.777 Y114.862 E.03669
G1 X121.203 Y116.069 E.04191
G1 X120.43 Y117.317 E.04603
G1 X119.699 Y118.263 E.03748
G1 X118.856 Y119.161 E.03862
G1 X117.978 Y119.934 E.03668
G1 X116.894 Y120.716 E.04191
G1 X115.976 Y121.253 E.03335
G1 X114.764 Y121.818 E.04193
G1 X113.761 Y122.173 E.03336
G1 X112.465 Y122.501 E.04192
G1 X110.984 Y122.703 E.04687
G1 X109.921 Y122.741 E.03335
G1 X108.586 Y122.662 E.04193
G1 X107.535 Y122.501 E.03334
G1 X106.239 Y122.173 E.04192
G1 X105.138 Y121.777 E.03669
G1 X103.931 Y121.203 E.04191
G1 X102.683 Y120.43 E.04603
G1 X101.737 Y119.699 E.03748
G1 X100.839 Y118.856 E.03862
G1 X100.066 Y117.978 E.03668
G1 X99.284 Y116.894 E.04191
G1 X98.747 Y115.976 E.03335
G1 X98.182 Y114.764 E.04193
G1 X97.827 Y113.761 E.03336
G1 X97.499 Y112.465 E.04192
G1 X97.297 Y110.984 E.04687
G1 X97.259 Y109.921 E.03335
G1 X97.338 Y108.586 E.04193
G1 X97.499 Y107.535 E.03334
G1 X97.827 Y106.239 E.04192
G1 X98.223 Y105.138 E.03669
G1 X98.797 Y103.931 E.04191
G1 X99.57 Y102.683 E.04603
G1 X100.233 Y101.818 E.03417
G1 X101.052 Y100.937 E.03772
G1 E-3.5 F3600
;WIPE_START
G1 F7200
G1 X101.093 Y100.893 E-.02857
G1 X101.126 Y100.858 E-.02285
G1 X102.022 Y100.066 E-.56803
G1 X103.107 Y99.284 E-.63528
G1 X103.553 Y99.023 E-.24527
;WIPE_END
G1 X103.525 Y103.675 F9000
G1 E5 F2400
G1 F1200
G1 X104.604 Y102.701 E.04558
G1 X106.164 Y101.773 E.05691
G1 X107.046 Y101.415 E.02985
G1 X108.478 Y101.05 E.04633
G1 X109.48 Y100.937 E.03162
G1 X111.356 Y101.025 E.05889
G1 X113.025 Y101.443 E.05395
G1 X114.703 Y102.237 E.05821
G1 X116.115 Y103.292 E.05527
G1 X117.299 Y104.603 E.05539
G1 X118.227 Y106.163 E.05691
G1 X118.838 Y107.93 E.05862
G1 X119.07 Y109.68 E.05535
G1 X118.973 Y111.364 E.05289
G1 X118.555 Y113.032 E.05392
G1 X118.143 Y114.013 E.03336
G1 X117.734 Y114.75 E.02643
G1 X116.704 Y116.12 E.05374
G1 X115.397 Y117.299 E.05519
G1 X113.835 Y118.228 E.05698
G1 X112.07 Y118.838 E.05855
G1 X110.32 Y119.07 E.05535
G1 X108.636 Y118.973 E.05289
G1 X106.968 Y118.555 E.05392
G1 X105.987 Y118.143 E.03336
G1 X105.25 Y117.734 E.02643
G1 X103.86 Y116.686 E.05458
G1 X102.646 Y115.323 E.05723
G1 X101.747 Y113.779 E.05602
G1 X101.162 Y112.069 E.05667
G1 X100.93 Y110.32 E.05532
G1 X101.027 Y108.636 E.05289
G1 X101.445 Y106.968 E.05392
G1 X101.857 Y105.987 E.03336
G1 X102.265 Y105.25 E.02641
G1 X103.293 Y103.884 E.0536
G1 X103.48 Y103.715 E.0079
G1 X103.732 Y103.994 F9000
G1 F1200
G1 X104.821 Y103.009 E.04604
G1 X106.315 Y102.118 E.05454
G1 X107.176 Y101.77 E.02912
G1 X108.533 Y101.423 E.04392
G1 X109.512 Y101.313 E.03089
G1 X111.289 Y101.396 E.05578
G1 X112.889 Y101.794 E.0517
G1 X114.501 Y102.555 E.05589
G1 X115.854 Y103.565 E.05294
G1 X116.99 Y104.821 E.0531
G1 X117.881 Y106.314 E.05451
G1 X118.468 Y108.007 E.05618
G1 X118.693 Y109.683 E.05302
G1 X118.602 Y111.296 E.05065
G1 X118.203 Y112.895 E.05167
G1 X117.417 Y114.546 E.05733
G1 X116.431 Y115.859 E.05148
G1 X115.179 Y116.99 E.0529
G1 X113.684 Y117.882 E.05458
G1 X111.993 Y118.469 E.05612
G1 X110.317 Y118.693 E.05302
G1 X108.704 Y118.602 E.05065
G1 X107.105 Y118.203 E.05167
G1 X105.454 Y117.417 E.05733
G1 X104.122 Y116.414 E.05228
G1 X102.957 Y115.109 E.05485
G1 X102.086 Y113.614 E.05425
G1 X101.527 Y111.974 E.05433
G1 X101.307 Y110.317 E.05241
G1 X101.398 Y108.704 E.05065
G1 X101.797 Y107.105 E.05167
G1 X102.583 Y105.454 E.05733
G1 X103.566 Y104.145 E.05133
G1 X103.688 Y104.034 E.00517
G1 X103.984 Y104.304 F9000
G1 F1200
G1 X104.419 Y103.825 E.02029
G1 X105.692 Y102.879 E.04973
G1 X107.305 Y102.124 E.05584
G1 X108.588 Y101.796 E.04152
G1 X109.523 Y101.69 E.0295
G1 X110.476 Y101.691 E.02988
G1 X112.138 Y101.955 E.05276
G1 X113.64 Y102.514 E.05025
G1 X114.947 Y103.306 E.04792
G1 X116.175 Y104.419 E.05196
G1 X117.119 Y105.689 E.04962
G1 X117.872 Y107.298 E.0557
G1 X118.258 Y108.956 E.05338
G1 X118.303 Y110.594 E.05138
G1 X118.045 Y112.139 E.04911
G1 X117.473 Y113.667 E.05116
G1 X116.683 Y114.962 E.04756
G1 X115.579 Y116.176 E.05145
G1 X114.31 Y117.12 E.04959
G1 X112.7 Y117.873 E.05573
G1 X111.044 Y118.258 E.05331
G1 X109.406 Y118.303 E.05138
G1 X107.861 Y118.045 E.04911
G1 X106.333 Y117.473 E.05116
G1 X105.038 Y116.683 E.04756
G1 X103.799 Y115.55 E.05264
G1 X102.792 Y114.161 E.05379
G1 X102.13 Y112.707 E.05009
G1 X101.744 Y111.063 E.05295
G1 X101.697 Y109.406 E.05197
G1 X101.955 Y107.861 E.04911
G1 X102.527 Y106.333 E.05116
G1 X103.316 Y105.04 E.04749
G1 X103.944 Y104.348 E.0293
G1 X104.222 Y104.6 F9000
G1 F1200
G1 X104.666 Y104.111 E.02071
G1 X105.879 Y103.207 E.04743
G1 X107.434 Y102.478 E.05385
G1 X108.644 Y102.17 E.03915
G1 X109.534 Y102.067 E.02809
G1 X110.448 Y102.067 E.02866
G1 X112.036 Y102.318 E.05041
G1 X113.468 Y102.85 E.0479
G1 X114.715 Y103.603 E.04567
G1 X115.889 Y104.666 E.04966
G1 X116.791 Y105.876 E.04732
G1 X117.513 Y107.413 E.05324
G1 X117.883 Y108.996 E.05097
G1 X117.927 Y110.561 E.04909
G1 X117.682 Y112.037 E.04691
G1 X117.138 Y113.494 E.04876
G1 X116.386 Y114.729 E.04534
G1 X115.332 Y115.891 E.04919
G1 X114.123 Y116.792 E.04728
G1 X112.586 Y117.513 E.05323
G1 X111.004 Y117.883 E.05094
G1 X109.439 Y117.927 E.04909
G1 X107.963 Y117.682 E.04691
G1 X106.506 Y117.138 E.04876
G1 X105.27 Y116.386 E.04536
G1 X104.085 Y115.305 E.05029
G1 X103.113 Y113.964 E.05193
G1 X102.489 Y112.593 E.04723
G1 X102.117 Y111.004 E.05117
G1 X102.073 Y109.439 E.04909
G1 X102.318 Y107.963 E.04691
G1 X102.862 Y106.506 E.04876
G1 X103.613 Y105.272 E.04529
G1 X104.182 Y104.645 E.02655
G1 X104.46 Y104.896 F9000
G1 F1200
G1 X104.913 Y104.396 E.02115
G1 X106.066 Y103.534 E.04514
G1 X107.563 Y102.833 E.05183
G1 X108.7 Y102.543 E.03679
G1 X109.566 Y102.443 E.02733
G1 X110.438 Y102.444 E.02734
G1 X111.934 Y102.681 E.04749
G1 X113.296 Y103.186 E.04555
G1 X114.483 Y103.901 E.04345
G1 X115.604 Y104.913 E.04735
G1 X116.464 Y106.063 E.04502
G1 X117.153 Y107.527 E.05073
G1 X117.51 Y109.054 E.04917
G1 X117.552 Y110.529 E.04627
G1 X117.319 Y111.934 E.04465
G1 X116.802 Y113.322 E.04644
G1 X116.088 Y114.498 E.04314
G1 X115.086 Y115.606 E.04684
G1 X113.936 Y116.464 E.04499
G1 X112.472 Y117.154 E.05075
G1 X110.946 Y117.51 E.04913
G1 X109.471 Y117.552 E.04627
G1 X108.066 Y117.319 E.04465
G1 X106.678 Y116.802 E.04644
G1 X105.503 Y116.088 E.04311
G1 X104.372 Y115.061 E.0479
G1 X103.436 Y113.767 E.05007
G1 X102.843 Y112.462 E.04494
G1 X102.49 Y110.946 E.0488
G1 X102.448 Y109.471 E.04627
G1 X102.681 Y108.066 E.04465
G1 X103.198 Y106.678 E.04644
G1 X103.911 Y105.504 E.04307
G1 X104.42 Y104.941 E.0238
G1 X104.699 Y105.192 F9000
G1 F1200
G1 X105.16 Y104.681 E.02158
G1 X106.253 Y103.862 E.04282
G1 X107.693 Y103.188 E.04985
G1 X108.756 Y102.916 E.0344
G1 X110.41 Y102.82 E.05195
G1 X111.832 Y103.044 E.04514
G1 X113.125 Y103.522 E.04322
G1 X114.252 Y104.199 E.04122
G1 X115.319 Y105.16 E.04502
G1 X116.137 Y106.25 E.04273
G1 X116.8 Y107.66 E.04885
G1 X117.138 Y109.112 E.04674
G1 X117.176 Y110.497 E.04344
G1 X116.955 Y111.833 E.04246
G1 X116.466 Y113.15 E.04405
G1 X115.791 Y114.266 E.04089
G1 X114.838 Y115.321 E.04458
G1 X113.749 Y116.137 E.04267
G1 X112.339 Y116.8 E.04885
G1 X110.888 Y117.138 E.04671
G1 X109.503 Y117.176 E.04344
G1 X108.167 Y116.955 E.04246
G1 X106.85 Y116.466 E.04405
G1 X105.734 Y115.791 E.04089
G1 X104.659 Y114.815 E.04553
G1 X103.758 Y113.571 E.04816
G1 X103.197 Y112.332 E.04264
G1 X102.862 Y110.888 E.04648
G1 X102.824 Y109.503 E.04344
G1 X103.045 Y108.167 E.04246
G1 X103.534 Y106.85 E.04405
G1 X104.208 Y105.736 E.04082
G1 X104.658 Y105.237 E.02107
G1 X104.937 Y105.488 F9000
G1 F1200
G1 X105.408 Y104.965 E.02207
G1 X106.44 Y104.189 E.04048
G1 X107.821 Y103.542 E.04782
G1 X108.813 Y103.289 E.0321
G1 X110.4 Y103.197 E.04984
G1 X111.731 Y103.408 E.04225
G1 X112.953 Y103.858 E.04083
G1 X114.02 Y104.497 E.039
G1 X115.035 Y105.408 E.04276
G1 X115.81 Y106.438 E.04042
G1 X116.447 Y107.792 E.04692
G1 X116.765 Y109.17 E.04434
G1 X116.8 Y110.466 E.04065
G1 X116.592 Y111.732 E.04023
G1 X116.131 Y112.978 E.04166
G1 X115.493 Y114.034 E.03868
G1 X114.591 Y115.036 E.04227
G1 X113.561 Y115.81 E.0404
G1 X112.207 Y116.447 E.04692
G1 X110.83 Y116.765 E.04431
G1 X109.534 Y116.8 E.04065
G1 X108.268 Y116.592 E.04023
G1 X107.022 Y116.131 E.04166
G1 X105.966 Y115.493 E.03868
G1 X104.946 Y114.57 E.04313
G1 X104.08 Y113.375 E.04627
G1 X103.551 Y112.201 E.04037
G1 X103.235 Y110.83 E.04411
G1 X103.2 Y109.534 E.04065
G1 X103.408 Y108.268 E.04023
G1 X103.869 Y107.022 E.04166
G1 X104.506 Y105.967 E.03864
G1 X104.897 Y105.532 E.01834
G1 X105.177 Y105.783 F9000
G1 F1200
G1 X105.655 Y105.25 E.02245
G1 X106.628 Y104.516 E.03821
G1 X107.95 Y103.897 E.04577
G1 X108.869 Y103.662 E.02974
G1 X110.372 Y103.573 E.04721
G1 X111.631 Y103.771 E.03996
G1 X112.782 Y104.194 E.03845
G1 X113.789 Y104.795 E.03677
G1 X114.75 Y105.655 E.04044
G1 X115.483 Y106.626 E.03815
G1 X116.094 Y107.924 E.04498
G1 X116.392 Y109.229 E.04197
G1 X116.424 Y110.435 E.03783
G1 X116.229 Y111.631 E.03799
G1 X115.795 Y112.806 E.03927
G1 X115.196 Y113.802 E.03644
G1 X114.344 Y114.751 E.03999
G1 X113.373 Y115.483 E.03813
G1 X112.075 Y116.094 E.04498
G1 X110.771 Y116.392 E.04194
G1 X109.565 Y116.424 E.03783
G1 X108.369 Y116.229 E.03799
G1 X107.194 Y115.795 E.03927
G1 X106.198 Y115.196 E.03644
G1 X105.232 Y114.325 E.04078
G1 X104.402 Y113.179 E.04437
G1 X103.905 Y112.071 E.03808
G1 X103.608 Y110.771 E.04181
G1 X103.576 Y109.565 E.03783
G1 X103.771 Y108.369 E.03799
G1 X104.205 Y107.194 E.03927
G1 X104.804 Y106.199 E.03641
G1 X105.137 Y105.828 E.01563
G1 X105.425 Y106.045 F9000
G1 F1200
G1 X105.518 Y105.921 E.00486
G1 X106.38 Y105.139 E.03649
G1 X107.424 Y104.514 E.03815
G1 X108.079 Y104.251 E.02213
G1 X108.927 Y104.035 E.02744
G1 X109.633 Y103.95 E.0223
G1 X110.833 Y103.997 E.03765
G1 X111.944 Y104.26 E.0358
G1 X113.184 Y104.843 E.04296
G1 X114.079 Y105.518 E.03515
G1 X114.861 Y106.38 E.03649
G1 X115.479 Y107.408 E.03761
G1 X115.888 Y108.565 E.03848
G1 X116.053 Y109.715 E.03643
G1 X116.003 Y110.834 E.03512
G1 X115.739 Y111.946 E.03584
G1 X115.165 Y113.169 E.04236
G1 X114.469 Y114.094 E.0363
G1 X113.62 Y114.861 E.03587
G1 X112.59 Y115.48 E.03768
G1 X111.435 Y115.888 E.03841
G1 X110.285 Y116.053 E.03643
G1 X109.166 Y116.003 E.03512
G1 X108.054 Y115.739 E.03584
G1 X106.831 Y115.165 E.04236
G1 X105.905 Y114.468 E.03634
G1 X105.089 Y113.552 E.03846
G1 X104.486 Y112.516 E.03758
G1 X104.112 Y111.435 E.03587
G1 X103.947 Y110.285 E.03643
G1 X103.997 Y109.166 E.03512
G1 X104.261 Y108.054 E.03584
G1 X104.835 Y106.831 E.04236
G1 X105.389 Y106.093 E.02893
G1 X105.69 Y106.319 F9000
G1 F1200
G1 X105.805 Y106.167 E.00598
G1 X106.614 Y105.435 E.03421
G1 X107.594 Y104.85 E.03579
G1 X108.984 Y104.408 E.04573
G1 X109.666 Y104.326 E.02154
G1 X110.769 Y104.369 E.03461
G1 X111.811 Y104.613 E.03355
G1 X112.996 Y105.17 E.04105
G1 X113.834 Y105.805 E.03297
G1 X114.565 Y106.614 E.03419
G1 X115.142 Y107.579 E.03525
G1 X115.519 Y108.643 E.03539
G1 X115.676 Y109.721 E.03416
G1 X115.631 Y110.77 E.03292
G1 X115.386 Y111.813 E.03359
G1 X114.839 Y112.981 E.04044
G1 X114.183 Y113.848 E.03409
G1 X113.386 Y114.565 E.03361
G1 X112.42 Y115.143 E.0353
G1 X111.357 Y115.519 E.03535
G1 X110.279 Y115.676 E.03416
G1 X109.23 Y115.631 E.03292
G1 X108.187 Y115.386 E.03359
G1 X107.019 Y114.839 E.04044
G1 X106.151 Y114.182 E.03413
G1 X105.4 Y113.339 E.0354
G1 X104.834 Y112.369 E.03521
G1 X104.481 Y111.357 E.03361
G1 X104.324 Y110.279 E.03416
G1 X104.369 Y109.23 E.03292
G1 X104.614 Y108.187 E.03359
G1 X105.161 Y107.019 E.04044
G1 X105.653 Y106.367 E.02561
G1 X105.953 Y106.594 F9000
G1 F1200
G1 X106.091 Y106.412 E.00716
G1 X106.847 Y105.731 E.0319
G1 X107.744 Y105.197 E.03273
G1 X108.335 Y104.961 E.01995
G1 X109.678 Y104.703 E.04288
G1 X110.706 Y104.741 E.03225
G1 X111.679 Y104.966 E.03131
G1 X112.807 Y105.497 E.03909
G1 X113.588 Y106.091 E.03077
