; generated by PrusaSlicer 2.7.0+linux-x64-GTK3 on 2023-12-14 at 19:34:29 UTC


;
;

;
;
; 

; external perimeters extrusion width = 0.42mm
; perimeters extrusion width = 0.44mm
; infill extrusion width = 0.44mm
; solid infill extrusion width = 0.44mm
; top infill extrusion width = 0.40mm
; support material extrusion width = 0.36mm
; first layer extrusion width = 0.42mm

M201 X500 Y500 Z100 E5000 ; sets maximum accelerations, mm/sec^2
M203 X500 Y500 Z10 E60 ; sets maximum feedrates, mm / sec
M204 P500 R1000 T500 ; sets acceleration (P, T) and retract acceleration (R), mm/sec^2
M205 X8.00 Y8.00 Z0.40 E5.00 ; sets the jerk limits, mm/sec
M205 S0 T0 ; sets the minimum extruding and travel feed rate, mm/sec

; printing object dropspindle-40-shaft100.stl id:0 copy 0
; stop printing object dropspindle-40-shaft100.stl id:0 copy 0

;TYPE:Custom
BED_MESH_PROFILE LOAD=default
G90 ; use absolute coordinates
M83 ; extruder relative mode
M104 S150 ; set temporary nozzle temp to prevent oozing during homing
M140 S60 ; set final bed temp
G4 S30 ; allow partial nozzle warmup
G28 ; home all axis
G1 Z50 F240
G1 X2.0 Y10 F3000
M104 S210 ; set final nozzle temp
M190 S60 ; wait for bed temp to stabilize
M109 S210 ; wait for nozzle temp to stabilize
G1 Z0.28 F240
G92 E0
G1 X2.0 Y140 E10 F1500 ; prime the nozzle
G1 X2.3 Y140 F5000
G92 E0
G1 X2.3 Y10 E10 F1200 ; prime the nozzle
G92 E0
G21 ; set units to millimeters
G90 ; use absolute coordinates
M83 ; use relative distances for extrusion
; Filament gcode
M107
;LAYER_CHANGE
;Z:0.2
;HEIGHT:0.2
;BEFORE_LAYER_CHANGE
G92 E0
;0.2


G1 E-5 F3600
G1 Z.2 F9000
;AFTER_LAYER_CHANGE
;0.2
G1 X62.436 Y90.477
G1 Z.2
G1 E5 F2400
;TYPE:Skirt/Brim
;WIDTH:0.42
G1 F1200
G1 X63.48 Y89.819 E.03869
G1 X64.983 Y89.168 E.05136
G1 X66.615 Y88.799 E.05246
G1 X68.29 Y88.74 E.05255
G1 X69.803 Y88.956 E.04792
G1 X84.16 Y91.982 E.46004
G1 X159.234 Y111.738 E2.43403
G1 X160.873 Y112.726 E.06
G1 X161.714 Y114.124 E.05115
G1 X161.859 Y114.962 E.02667
G1 X162.171 Y122.389 E.23307
G1 X161.949 Y124.241 E.05848
G1 X161.416 Y126.009 E.0579
G1 X160.594 Y127.648 E.05749
G1 X159.455 Y129.14 E.05885
G1 X158.093 Y130.334 E.05679
G1 X156.543 Y131.24 E.05629
G1 X155.569 Y131.601 E.03257
G1 X154.043 Y131.912 E.04883
G1 X153.004 Y131.96 E.03261
G1 X150.786 Y131.699 E.07002
G1 X142.183 Y129.796 E.27626
G1 X81.598 Y112.674 E1.974
G1 X64.401 Y107.384 E.56413
G1 X63.006 Y106.544 E.05106
G1 X62.501 Y105.959 E.02423
G1 X60.352 Y102.834 E.11891
G1 X59.615 Y101.544 E.04658
G1 X59.071 Y100.048 E.04991
G1 X58.802 Y98.527 E.04843
G1 X58.771 Y97.387 E.03576
G1 X58.967 Y95.838 E.04896
G1 X59.487 Y94.2 E.05388
G1 X60.244 Y92.789 E.05021
G1 X61.179 Y91.597 E.0475
G1 X62.392 Y90.517 E.05092
G1 E-3.5 F3600
;WIPE_START
G1 F7200
G1 X62.436 Y90.477 E-.02825
G1 X63.48 Y89.819 E-.58618
G1 X64.983 Y89.168 E-.77802
G1 X65.204 Y89.118 E-.10755
;WIPE_END
G1 X148.534 Y120.767 F9000
G1 E5 F2400
G1 F1200
G1 X148.92 Y119.872 E.03056
G1 X150.353 Y118.075 E.07207
G1 X151.782 Y117.233 E.052
G1 X152.972 Y116.938 E.03844
G1 X154.19 Y116.944 E.03819
G1 X155.36 Y117.257 E.03797
G1 X156.424 Y117.834 E.03795
G1 X157.708 Y119.21 E.05901
G1 X158.177 Y120.178 E.03373
G1 X158.44 Y121.211 E.03342
G1 X158.504 Y122.36 E.03608
G1 X158.356 Y123.518 E.0366
G1 X158.034 Y124.595 E.03525
G1 X157.539 Y125.622 E.03575
G1 X156.953 Y126.437 E.03147
G1 X156.132 Y127.221 E.03559
G1 X154.87 Y127.92 E.04523
G1 X154.278 Y128.129 E.01968
G1 X153.19 Y128.266 E.03438
G1 X152.097 Y128.168 E.03441
G1 X150.989 Y127.796 E.03665
G1 X150.002 Y127.174 E.03658
G1 X149.201 Y126.336 E.03635
G1 X148.627 Y125.402 E.03437
G1 X148.141 Y123.481 E.06213
G1 X148.151 Y122.585 E.0281
G1 X148.277 Y121.684 E.02853
G1 X148.518 Y120.825 E.02797
G1 X148.881 Y120.928 F9000
G1 F1200
G1 X148.893 Y120.882 E.00149
G1 X149.257 Y120.044 E.02865
G1 X150.576 Y118.381 E.06655
G1 X151.902 Y117.591 E.0484
G1 X152.995 Y117.315 E.03535
G1 X154.162 Y117.321 E.03659
G1 X155.238 Y117.615 E.03497
G1 X156.216 Y118.15 E.03495
G1 X157.382 Y119.401 E.05362
G1 X157.817 Y120.291 E.03106
G1 X158.065 Y121.252 E.03112
G1 X158.128 Y122.329 E.03383
G1 X157.984 Y123.455 E.03559
G1 X157.677 Y124.472 E.03331
G1 X157.222 Y125.416 E.03286
G1 X156.678 Y126.178 E.02936
G1 X155.927 Y126.904 E.03275
G1 X154.701 Y127.583 E.04394
G1 X154.21 Y127.758 E.01634
G1 X153.163 Y127.889 E.03308
G1 X152.154 Y127.794 E.03178
G1 X151.171 Y127.465 E.0325
G1 X150.224 Y126.868 E.0351
G1 X149.489 Y126.092 E.03351
G1 X148.964 Y125.23 E.03165
G1 X148.518 Y123.461 E.0572
G1 X148.528 Y122.602 E.02694
G1 X148.648 Y121.75 E.02698
G1 X148.864 Y120.985 E.02492
G1 X149.227 Y121.088 F9000
G1 F1200
G1 X149.253 Y120.998 E.00294
G1 X149.593 Y120.217 E.02671
G1 X150.8 Y118.686 E.06113
G1 X152.024 Y117.949 E.0448
G1 X153.019 Y117.692 E.03222
G1 X154.09 Y117.692 E.03358
G1 X155.077 Y117.956 E.03203
G1 X156.009 Y118.466 E.03331
G1 X157.056 Y119.592 E.04821
G1 X157.457 Y120.406 E.02845
G1 X157.69 Y121.294 E.02879
G1 X157.752 Y122.299 E.03157
G1 X157.612 Y123.391 E.03452
G1 X157.331 Y124.323 E.03052
G1 X156.905 Y125.212 E.03091
G1 X156.402 Y125.921 E.02726
G1 X155.722 Y126.586 E.02982
G1 X154.532 Y127.245 E.04265
G1 X154.105 Y127.395 E.01419
G1 X153.139 Y127.512 E.03051
G1 X152.213 Y127.421 E.02917
G1 X151.314 Y127.116 E.02977
G1 X150.447 Y126.563 E.03224
G1 X149.778 Y125.849 E.03068
G1 X149.302 Y125.06 E.02889
G1 X148.895 Y123.441 E.05234
G1 X148.905 Y122.619 E.02578
G1 X149.02 Y121.816 E.02543
G1 X149.21 Y121.146 E.02184
G1 X149.573 Y121.25 F9000
G1 F1200
G1 X149.611 Y121.114 E.00443
G1 X149.928 Y120.39 E.02478
G1 X151.025 Y118.99 E.05577
G1 X152.147 Y118.306 E.0412
G1 X153.047 Y118.068 E.02919
G1 X154.017 Y118.063 E.03041
G1 X154.957 Y118.315 E.03051
G1 X155.799 Y118.781 E.03017
G1 X156.73 Y119.784 E.04291
G1 X157.11 Y120.556 E.02698
G1 X157.315 Y121.337 E.02532
G1 X157.375 Y122.27 E.02931
G1 X157.24 Y123.327 E.03341
G1 X156.975 Y124.199 E.02858
G1 X156.588 Y125.008 E.02812
G1 X156.126 Y125.664 E.02516
G1 X155.477 Y126.298 E.02845
G1 X154.037 Y127.023 E.05055
G1 X153.155 Y127.135 E.02788
G1 X152.272 Y127.048 E.02782
G1 X151.46 Y126.767 E.02694
G1 X150.672 Y126.259 E.0294
G1 X150.068 Y125.608 E.02784
G1 X149.64 Y124.891 E.02618
G1 X149.272 Y123.421 E.04751
G1 X149.28 Y122.659 E.02389
G1 X149.391 Y121.883 E.02458
G1 X149.556 Y121.308 E.01876
G1 X149.944 Y121.448 F9000
G1 F1200
G1 X150.265 Y120.562 E.02955
G1 X151.253 Y119.292 E.05045
G1 X152.271 Y118.664 E.0375
G1 X153.119 Y118.439 E.02751
G1 X153.99 Y118.44 E.02731
G1 X154.834 Y118.672 E.02744
G1 X155.589 Y119.095 E.02713
G1 X156.405 Y119.976 E.03765
G1 X156.751 Y120.672 E.02437
G1 X156.94 Y121.381 E.02301
G1 X156.999 Y122.24 E.027
G1 X156.868 Y123.264 E.03237
G1 X156.628 Y124.05 E.02577
G1 X156.269 Y124.805 E.02621
G1 X155.847 Y125.409 E.0231
G1 X155.272 Y125.981 E.02543
G1 X153.934 Y126.66 E.04704
G1 X153.131 Y126.758 E.02536
G1 X152.334 Y126.676 E.02512
G1 X151.607 Y126.42 E.02417
G1 X150.899 Y125.957 E.02652
G1 X150.36 Y125.369 E.02501
G1 X149.979 Y124.723 E.02352
G1 X149.65 Y123.401 E.04271
G1 X149.762 Y121.95 E.04563
G1 X149.924 Y121.504 E.01488
G1 X150.274 Y121.632 F9000
G1 F1200
G1 X150.601 Y120.735 E.02994
G1 X151.482 Y119.593 E.04522
G1 X152.398 Y119.02 E.03388
G1 X153.145 Y118.817 E.02427
G1 X153.963 Y118.817 E.02565
G1 X154.708 Y119.028 E.02428
G1 X155.376 Y119.408 E.0241
G1 X156.08 Y120.17 E.03253
G1 X156.393 Y120.79 E.02178
G1 X156.565 Y121.428 E.02072
G1 X156.623 Y122.211 E.02462
G1 X156.496 Y123.199 E.03123
G1 X156.272 Y123.926 E.02385
G1 X155.95 Y124.603 E.02351
G1 X155.567 Y125.157 E.02112
G1 X155.066 Y125.664 E.02235
G1 X154.03 Y126.231 E.03703
G1 X153.148 Y126.381 E.02805
G1 X152.397 Y126.303 E.02367
G1 X151.757 Y126.073 E.02132
G1 X151.128 Y125.657 E.02364
G1 X150.654 Y125.131 E.0222
G1 X150.318 Y124.557 E.02085
G1 X150.027 Y123.381 E.03798
G1 X150.133 Y122.018 E.04286
G1 X150.253 Y121.688 E.01101
G1 X150.618 Y121.768 F9000
G1 F1200
G1 X150.679 Y121.489 E.00895
G1 X150.936 Y120.908 E.01992
G1 X151.713 Y119.893 E.04008
G1 X152.528 Y119.375 E.03028
G1 X153.174 Y119.193 E.02104
G1 X153.89 Y119.187 E.02245
G1 X154.542 Y119.367 E.02121
G1 X155.164 Y119.721 E.02244
G1 X155.756 Y120.364 E.0274
G1 X156.035 Y120.909 E.0192
G1 X156.191 Y121.476 E.01844
G1 X156.246 Y122.183 E.02223
G1 X156.124 Y123.135 E.03009
G1 X155.925 Y123.778 E.0211
G1 X155.631 Y124.403 E.02166
G1 X155.284 Y124.907 E.01919
G1 X154.859 Y125.347 E.01918
G1 X153.764 Y125.925 E.03882
G1 X153.125 Y126.004 E.02019
G1 X152.462 Y125.931 E.02091
G1 X151.91 Y125.728 E.01844
G1 X151.359 Y125.358 E.02081
G1 X150.949 Y124.896 E.01937
G1 X150.658 Y124.392 E.01825
G1 X150.404 Y123.36 E.03332
G1 X150.409 Y122.735 E.0196
G1 X150.606 Y121.826 E.02916
G1 X150.95 Y121.953 F9000
G1 F1200
G1 X151.272 Y121.081 E.02915
G1 X151.947 Y120.191 E.03502
G1 X152.658 Y119.73 E.02657
G1 X153.25 Y119.563 E.01929
G1 X153.863 Y119.564 E.01922
G1 X154.376 Y119.706 E.01669
G1 X154.952 Y120.034 E.02078
G1 X155.433 Y120.56 E.02235
G1 X155.677 Y121.031 E.01663
G1 X155.817 Y121.526 E.01613
G1 X155.869 Y122.155 E.01979
G1 X155.752 Y123.071 E.02895
G1 X155.578 Y123.63 E.01836
G1 X155.311 Y124.202 E.01979
G1 X154.982 Y124.68 E.01819
G1 X154.61 Y125.063 E.01674
G1 X153.704 Y125.55 E.03225
G1 X153.104 Y125.627 E.01897
G1 X152.529 Y125.559 E.01815
G1 X152.102 Y125.402 E.01426
G1 X151.591 Y125.059 E.0193
G1 X151.247 Y124.664 E.01642
G1 X150.999 Y124.229 E.0157
G1 X150.781 Y123.339 E.02873
G1 X150.786 Y122.751 E.01844
G1 X150.875 Y122.156 E.01886
G1 X150.929 Y122.01 E.00488
G1 X151.313 Y122.095 F9000
G1 F1200
G1 X151.394 Y121.729 E.01175
G1 X151.607 Y121.254 E.01632
G1 X152.183 Y120.486 E.0301
G1 X152.793 Y120.083 E.02292
G1 X153.282 Y119.94 E.01597
G1 X153.793 Y119.935 E.01602
G1 X154.211 Y120.047 E.01357
G1 X154.739 Y120.347 E.01904
G1 X155.111 Y120.757 E.01736
G1 X155.321 Y121.156 E.01414
G1 X155.493 Y122.129 E.03098
G1 X155.387 Y122.976 E.02676
G1 X155.23 Y123.484 E.01667
G1 X154.991 Y124.002 E.01789
G1 X154.362 Y124.777 E.0313
G1 X153.575 Y125.191 E.02788
G1 X153.083 Y125.249 E.01553
G1 X152.598 Y125.188 E.01533
G1 X151.823 Y124.761 E.02774
G1 X151.341 Y124.068 E.02647
G1 X151.159 Y123.319 E.02417
G1 X151.163 Y122.768 E.01728
G1 X151.3 Y122.154 E.01972
G1 X151.628 Y122.276 F9000
G1 F1200
G1 X151.943 Y121.427 E.02839
G1 X152.422 Y120.779 E.02527
G1 X152.928 Y120.436 E.01917
G1 X153.36 Y120.31 E.01411
G1 X154.046 Y120.386 E.02164
G1 X154.525 Y120.659 E.01729
G1 X154.978 Y121.314 E.02497
G1 X155.116 Y122.105 E.02518
G1 X155.021 Y122.882 E.02454
G1 X154.881 Y123.34 E.01502
G1 X154.381 Y124.224 E.03184
G1 X154.115 Y124.491 E.01182
G1 X153.492 Y124.822 E.02212
G1 X153.105 Y124.872 E.01223
G1 X152.48 Y124.748 E.01998
G1 X152.092 Y124.496 E.01451
G1 X151.848 Y124.207 E.01186
G1 X151.683 Y123.909 E.01068
G1 X151.536 Y123.297 E.01973
G1 X151.538 Y122.81 E.01527
G1 X151.61 Y122.333 E.01513
G1 X151.977 Y122.414 F9000
G1 F1200
G1 X152.279 Y121.599 E.02725
G1 X152.664 Y121.069 E.02054
G1 X153.071 Y120.786 E.01554
G1 X153.389 Y120.687 E.01044
G1 X153.739 Y120.689 E.01097
G1 X154.271 Y120.939 E.01843
G1 X154.635 Y121.472 E.02024
G1 X154.738 Y122.121 E.0206
G1 X154.655 Y122.788 E.02107
G1 X154.35 Y123.603 E.02728
G1 X153.87 Y124.203 E.02409
G1 X153.404 Y124.455 E.01661
G1 X152.767 Y124.453 E.01997
G1 X152.36 Y124.228 E.01458
G1 X152.027 Y123.753 E.01819
G1 X151.913 Y123.276 E.01538
G1 X151.972 Y122.474 E.02521
G1 X152.343 Y122.507 F9000
G1 F1200
G1 X152.615 Y121.771 E.0246
G1 X152.912 Y121.355 E.01603
G1 X153.214 Y121.137 E.01168
G1 X153.469 Y121.057 E.00838
G1 X153.73 Y121.072 E.0082
G1 X154.024 Y121.225 E.01039
G1 X154.292 Y121.63 E.01523
G1 X154.361 Y122.136 E.01601
G1 X154.29 Y122.695 E.01767
G1 X154.029 Y123.405 E.02372
G1 X153.781 Y123.765 E.01371
G1 X153.309 Y124.089 E.01795
G1 X152.857 Y124.087 E.01417
G1 X152.626 Y123.959 E.00828
G1 X152.373 Y123.602 E.01372
G1 X152.29 Y123.253 E.01125
G1 X152.338 Y122.566 E.02159
G1 X152.751 Y122.624 F9000
G1 F1200
G1 X152.8 Y122.276 E.01102
G1 X153.167 Y121.634 E.02319
G1 X153.36 Y121.486 E.00763
G1 X153.615 Y121.435 E.00815
G1 X153.83 Y121.561 E.00781
G1 X153.949 Y121.797 E.00829
G1 X153.924 Y122.602 E.02525
G1 X153.707 Y123.207 E.02015
G1 X153.483 Y123.533 E.0124
G1 X153.201 Y123.727 E.01073
G1 X152.951 Y123.718 E.00784
G1 X152.753 Y123.525 E.00867
G1 X152.667 Y123.227 E.00972
G1 X152.743 Y122.684 E.01719
G1 E-3.5 F3600
;WIPE_START
G1 F7200
G1 X152.751 Y122.624 E-.02875
G1 X152.8 Y122.276 E-.16693
G1 X153.167 Y121.634 E-.35126
G1 X153.36 Y121.486 E-.11553
G1 X153.615 Y121.435 E-.12352
G1 X153.83 Y121.561 E-.11837
G1 X153.949 Y121.797 E-.12554
G1 X153.924 Y122.602 E-.38256
G1 X153.862 Y122.776 E-.08754
;WIPE_END
G1 X74.133 Y98.95 F9000
G1 E5 F2400
G1 F1200
G1 X73.603 Y100.516 E.05184
G1 X72.977 Y101.41 E.03422
G1 X72.066 Y102.207 E.03795
G1 X70.752 Y102.839 E.04572
G1 X69.473 Y103.095 E.0409
G1 X68.327 Y103.122 E.03594
G1 X67.058 Y103.018 E.03992
G1 X66.305 Y102.862 E.02411
G1 X65.402 Y102.514 E.03034
G1 X64.573 Y102.005 E.0305
G1 X63.69 Y101.171 E.03808
G1 X63.018 Y100.16 E.03806
G1 X62.589 Y99.015 E.03834
G1 X62.432 Y97.791 E.03869
G1 X62.677 Y96.132 E.05258
G1 X63.204 Y94.969 E.04003
G1 X63.988 Y93.965 E.03994
G1 X64.93 Y93.211 E.03783
G1 X66.017 Y92.688 E.03782
G1 X67.183 Y92.423 E.03749
G1 X68.366 Y92.426 E.03709
G1 X70.086 Y92.915 E.05607
G1 X71.145 Y93.485 E.03771
G1 X72.06 Y94.094 E.03446
G1 X73.013 Y94.997 E.04116
G1 X73.604 Y95.867 E.03298
G1 X73.997 Y96.788 E.0314
G1 X74.18 Y97.737 E.0303
G1 X74.136 Y98.89 E.03618
G1 X73.767 Y98.855 F9000
G1 F1200
G1 X73.255 Y100.369 E.05011
G1 X72.682 Y101.174 E.03098
G1 X71.879 Y101.879 E.0335
G1 X70.611 Y102.489 E.04412
G1 X69.448 Y102.718 E.03717
G1 X68.348 Y102.745 E.0345
G1 X67.1 Y102.643 E.03926
G1 X66.397 Y102.496 E.02252
G1 X65.585 Y102.183 E.02729
G1 X64.787 Y101.694 E.02934
G1 X63.966 Y100.913 E.03553
G1 X63.345 Y99.971 E.03538
G1 X62.951 Y98.905 E.03563
G1 X62.809 Y97.77 E.03586
G1 X63.031 Y96.262 E.04779
G1 X63.516 Y95.182 E.03712
G1 X64.242 Y94.244 E.03719
G1 X65.114 Y93.54 E.03514
G1 X66.123 Y93.051 E.03516
G1 X67.204 Y92.801 E.03479
G1 X68.339 Y92.803 E.03559
G1 X69.925 Y93.256 E.05172
G1 X70.959 Y93.813 E.03683
G1 X71.812 Y94.38 E.03211
G1 X72.739 Y95.256 E.03999
G1 X73.281 Y96.062 E.03045
G1 X73.642 Y96.916 E.02907
G1 X73.806 Y97.786 E.02776
G1 X73.769 Y98.795 E.03166
G1 X73.401 Y98.76 F9000
G1 F1200
G1 X72.907 Y100.22 E.04833
G1 X72.39 Y100.935 E.02766
G1 X71.692 Y101.55 E.02917
G1 X70.469 Y102.139 E.04256
G1 X69.423 Y102.342 E.03341
G1 X68.368 Y102.368 E.03309
G1 X67.143 Y102.269 E.03853
G1 X66.489 Y102.131 E.02096
G1 X65.767 Y101.853 E.02426
G1 X65.001 Y101.383 E.02818
G1 X64.268 Y100.686 E.03171
G1 X63.69 Y99.818 E.0327
G1 X63.322 Y98.836 E.03288
G1 X63.186 Y97.749 E.03435
G1 X63.386 Y96.393 E.04298
G1 X63.851 Y95.356 E.03563
G1 X64.496 Y94.523 E.03303
G1 X65.334 Y93.848 E.03374
G1 X66.266 Y93.4 E.03242
G1 X67.266 Y93.173 E.03215
G1 X68.31 Y93.18 E.03273
G1 X69.764 Y93.598 E.04744
G1 X71.565 Y94.665 E.06564
G1 X72.464 Y95.515 E.03879
G1 X72.956 Y96.255 E.02786
G1 X73.286 Y97.042 E.02676
G1 X73.431 Y97.834 E.02525
G1 X73.403 Y98.701 E.0272
G1 X73.035 Y98.667 F9000
G1 F1200
G1 X72.559 Y100.071 E.04648
G1 X72.098 Y100.695 E.02433
G1 X71.505 Y101.222 E.02487
G1 X70.328 Y101.788 E.04095
G1 X69.369 Y101.968 E.03059
G1 X68.389 Y101.992 E.03074
G1 X67.186 Y101.894 E.03784
G1 X66.583 Y101.765 E.01933
G1 X65.949 Y101.522 E.02129
G1 X65.216 Y101.072 E.02697
G1 X64.544 Y100.429 E.02916
G1 X64.035 Y99.664 E.02881
G1 X63.694 Y98.766 E.03012
G1 X63.564 Y97.727 E.03283
G1 X63.741 Y96.523 E.03816
G1 X64.186 Y95.531 E.03409
G1 X64.751 Y94.802 E.02892
G1 X65.519 Y94.177 E.03105
G1 X66.373 Y93.762 E.02977
G1 X67.286 Y93.55 E.02939
G1 X68.282 Y93.557 E.03123
G1 X69.603 Y93.939 E.04312
G1 X70.587 Y94.469 E.03504
G1 X71.318 Y94.95 E.02744
G1 X72.188 Y95.774 E.03757
G1 X72.631 Y96.447 E.02526
G1 X72.93 Y97.167 E.02444
G1 X73.057 Y97.881 E.02274
G1 X73.036 Y98.607 E.02277
G1 X72.668 Y98.574 F9000
G1 F1200
G1 X72.212 Y99.92 E.04456
G1 X71.809 Y100.453 E.02095
G1 X71.317 Y100.894 E.02072
