; generated by PrusaSlicer 2.7.0+linux-x64-GTK3 on 2023-12-10 at 20:01:59 UTC


;
;

;
;
; 

; external perimeters extrusion width = 0.42mm
; perimeters extrusion width = 0.44mm
; infill extrusion width = 0.44mm
; solid infill extrusion width = 0.44mm
; top infill extrusion width = 0.40mm
; support material extrusion width = 0.36mm
; first layer extrusion width = 0.42mm

M201 X500 Y500 Z100 E5000 ; sets maximum accelerations, mm/sec^2
M203 X500 Y500 Z10 E60 ; sets maximum feedrates, mm / sec
M204 P500 R1000 T500 ; sets acceleration (P, T) and retract acceleration (R), mm/sec^2
M205 X8.00 Y8.00 Z0.40 E5.00 ; sets the jerk limits, mm/sec
M205 S0 T0 ; sets the minimum extruding and travel feed rate, mm/sec

; printing object frame.stl id:0 copy 0
; stop printing object frame.stl id:0 copy 0

;TYPE:Custom
G90 ; use absolute coordinates
M83 ; extruder relative mode
M104 S150 ; set temporary nozzle temp to prevent oozing during homing
M140 S60 ; set final bed temp
G4 S30 ; allow partial nozzle warmup
G28 ; home all axis
G1 Z50 F240
G1 X2.0 Y10 F3000
M104 S210 ; set final nozzle temp
M190 S60 ; wait for bed temp to stabilize
M109 S210 ; wait for nozzle temp to stabilize
G1 Z0.28 F240
G92 E0
G1 X2.0 Y140 E10 F1500 ; prime the nozzle
G1 X2.3 Y140 F5000
G92 E0
G1 X2.3 Y10 E10 F1200 ; prime the nozzle
G92 E0
G21 ; set units to millimeters
G90 ; use absolute coordinates
M83 ; use relative distances for extrusion
; Filament gcode
M107
;LAYER_CHANGE
;Z:0.2
;HEIGHT:0.2
;BEFORE_LAYER_CHANGE
G92 E0
;0.2


G1 E-5 F3600
G1 Z.2 F9000
;AFTER_LAYER_CHANGE
;0.2
G1 X25.039 Y80.871
G1 Z.2
G1 E5 F2400
;TYPE:Skirt/Brim
;WIDTH:0.42
G1 F1200
G1 X26.029 Y80.723 E.03139
G1 X193.971 Y80.723 E5.2657
G1 X195.554 Y81.117 E.05115
G1 X196.359 Y81.712 E.03139
G1 X199.288 Y84.641 E.12988
G1 X200.129 Y86.039 E.05115
G1 X200.277 Y87.029 E.03139
G1 X200.274 Y112.232 E.79022
G1 X200.213 Y113.866 E.05127
G1 X200.033 Y115.641 E.05594
G1 X199.737 Y117.402 E.05599
G1 X199.296 Y119.245 E.05942
G1 X198.803 Y120.845 E.05249
G1 X198.169 Y122.514 E.05598
G1 X197.428 Y124.138 E.05597
G1 X196.525 Y125.804 E.05942
G1 X195.572 Y127.313 E.05596
G1 X193.633 Y129.839 E.09984
G1 X192.346 Y131.23 E.05942
G1 X191.128 Y132.38 E.05252
G1 X189.67 Y133.591 E.05943
G1 X188.248 Y134.617 E.05498
G1 X186.709 Y135.582 E.05696
G1 X185.138 Y136.428 E.05595
G1 X183.514 Y137.169 E.05597
G1 X181.845 Y137.803 E.05598
G1 X180.139 Y138.326 E.05595
G1 X178.402 Y138.737 E.05597
G1 X176.369 Y139.067 E.06458
G1 X174.702 Y139.224 E.0525
G1 X173.039 Y139.277 E.05217
G1 X46.961 Y139.277 E3.95309
G1 X45.134 Y139.213 E.05732
G1 X43.359 Y139.033 E.05594
G1 X41.598 Y138.737 E.05599
G1 X39.755 Y138.296 E.05942
G1 X36.74 Y137.273 E.09983
G1 X35.009 Y136.5 E.05944
G1 X33.291 Y135.582 E.06107
G1 X31.687 Y134.572 E.05943
G1 X29.161 Y132.633 E.09984
G1 X27.849 Y131.422 E.05598
G1 X26.546 Y130.047 E.05939
G1 X25.409 Y128.67 E.05599
G1 X24.275 Y127.086 E.06108
G1 X23.283 Y125.471 E.05943
G1 X22.078 Y123.065 E.08437
G1 X21.234 Y120.949 E.07143
G1 X20.674 Y119.139 E.05941
G1 X20.263 Y117.402 E.05597
G1 X19.933 Y115.369 E.06458
G1 X19.725 Y112.176 E.10033
G1 X19.723 Y87.029 E.78847
G1 X20.117 Y85.446 E.05115
G1 X20.712 Y84.641 E.03139
G1 X23.641 Y81.712 E.12988
G1 X24.988 Y80.902 E.04928
G1 E-3.5 F3600
;WIPE_START
G1 F7200
G1 X25.039 Y80.871 E-.02835
G1 X26.029 Y80.723 E-.47548
G1 X28.126 Y80.723 E-.99617
;WIPE_END
G1 X26.367 Y84.685 F9000
G1 E5 F2400
G1 F1200
G1 X27.591 Y84.386 E.03951
G1 X64.398 Y84.39 E1.15406
G1 X65.524 Y84.639 E.03616
G1 X66.543 Y85.161 E.0359
G1 X67.661 Y86.221 E.04831
G1 X68.233 Y87.16 E.03447
G1 X68.556 Y88.198 E.03409
G1 X68.589 Y89.387 E.03729
G1 X151.411 Y89.387 E2.59683
G1 X151.444 Y88.199 E.03726
G1 X151.786 Y87.119 E.03552
G1 X152.335 Y86.225 E.03289
G1 X153.403 Y85.201 E.04639
G1 X154.341 Y84.692 E.03346
G1 X155.59 Y84.387 E.04031
G1 X192.298 Y84.387 E1.15095
G1 X193.019 Y84.479 E.02279
G1 X194.37 Y85.05 E.04599
G1 X195.502 Y86.032 E.04699
G1 X196.257 Y87.216 E.04403
G1 X196.613 Y88.59 E.0445
G1 X196.613 Y112.074 E.73632
G1 X196.412 Y115.074 E.09427
G1 X196.158 Y116.615 E.04897
G1 X195.806 Y118.121 E.04849
G1 X194.819 Y121.028 E.09626
G1 X194.164 Y122.473 E.04974
G1 X193.413 Y123.871 E.04976
G1 X192.587 Y125.189 E.04877
G1 X190.809 Y127.505 E.09155
G1 X189.713 Y128.681 E.0504
G1 X188.545 Y129.774 E.05016
G1 X187.327 Y130.771 E.04935
G1 X186.046 Y131.682 E.04929
G1 X184.733 Y132.492 E.04837
G1 X182.091 Y133.793 E.09234
G1 X180.584 Y134.362 E.05051
G1 X179.03 Y134.83 E.05089
G1 X176.167 Y135.4 E.09153
G1 X174.632 Y135.557 E.04838
G1 X173.037 Y135.613 E.05004
G1 X46.881 Y135.612 E3.95553
G1 X44.002 Y135.422 E.09047
G1 X42.48 Y135.177 E.04834
G1 X40.96 Y134.828 E.0489
G1 X39.466 Y134.379 E.04891
G1 X38.006 Y133.833 E.04887
G1 X36.584 Y133.192 E.04891
G1 X35.22 Y132.465 E.04846
G1 X33.897 Y131.644 E.04882
G1 X31.484 Y129.8 E.09522
G1 X30.289 Y128.683 E.05129
G1 X28.318 Y126.442 E.09358
G1 X27.37 Y125.125 E.05088
G1 X25.87 Y122.54 E.09371
G1 X25.178 Y121.021 E.05234
G1 X24.213 Y118.193 E.09369
G1 X23.85 Y116.653 E.04961
G1 X23.443 Y113.631 E.09561
G1 X23.387 Y112.037 E.05001
G1 X23.387 Y88.59 E.73516
G1 X23.685 Y87.367 E.03947
G1 X24.104 Y86.532 E.02929
G1 X25.532 Y85.104 E.06332
G1 X26.314 Y84.712 E.02743
G1 X26.48 Y85.045 F9000
G1 F1200
G1 X27.614 Y84.764 E.03663
G1 X64.378 Y84.767 E1.15271
G1 X65.374 Y84.986 E.03197
G1 X66.346 Y85.484 E.03424
G1 X67.382 Y86.476 E.04497
G1 X67.88 Y87.293 E.03
G1 X68.187 Y88.284 E.03253
G1 X68.219 Y89.764 E.04642
G1 X151.781 Y89.764 E2.62003
G1 X151.813 Y88.284 E.04642
G1 X152.12 Y87.294 E.0325
G1 X152.616 Y86.478 E.02994
G1 X153.607 Y85.518 E.04326
G1 X154.457 Y85.052 E.03039
G1 X155.614 Y84.764 E.03738
G1 X192.286 Y84.764 E1.14982
G1 X192.944 Y84.85 E.02081
G1 X194.193 Y85.385 E.0426
G1 X195.233 Y86.296 E.04335
G1 X195.922 Y87.391 E.04056
G1 X196.236 Y88.614 E.03959
G1 X196.236 Y112.064 E.73526
G1 X196.039 Y115.019 E.09286
G1 X195.787 Y116.548 E.04859
G1 X195.003 Y119.469 E.09483
G1 X194.473 Y120.878 E.0472
G1 X193.829 Y122.3 E.04895
G1 X193.09 Y123.676 E.04897
G1 X192.277 Y124.974 E.04802
G1 X190.521 Y127.262 E.09043
G1 X189.451 Y128.41 E.04921
G1 X188.302 Y129.487 E.04938
G1 X187.103 Y130.467 E.04855
G1 X185.842 Y131.365 E.04854
G1 X183.277 Y132.84 E.09277
G1 X180.469 Y134.003 E.0953
G1 X178.939 Y134.464 E.0501
G1 X176.111 Y135.027 E.09041
G1 X174.6 Y135.181 E.04762
G1 X173.033 Y135.236 E.04916
G1 X46.891 Y135.235 E3.95509
G1 X44.044 Y135.048 E.08946
G1 X42.546 Y134.805 E.04758
G1 X41.051 Y134.462 E.04809
G1 X39.581 Y134.02 E.04813
G1 X38.144 Y133.482 E.04811
G1 X36.745 Y132.851 E.04812
G1 X35.403 Y132.135 E.04769
G1 X34.101 Y131.327 E.04805
G1 X31.728 Y129.512 E.09367
G1 X30.551 Y128.412 E.05051
G1 X29.546 Y127.339 E.0461
G1 X28.613 Y126.207 E.04599
G1 X27.68 Y124.91 E.0501
G1 X26.205 Y122.367 E.09218
G1 X25.523 Y120.87 E.05158
G1 X24.576 Y118.089 E.09211
G1 X24.218 Y116.572 E.04887
G1 X23.971 Y115.097 E.04689
G1 X23.819 Y113.599 E.04721
G1 X23.764 Y112.033 E.04913
G1 X23.764 Y88.614 E.73429
G1 X24.045 Y87.48 E.03663
G1 X24.427 Y86.729 E.02642
G1 X25.729 Y85.427 E.05773
G1 X26.426 Y85.073 E.02451
G1 X26.594 Y85.405 F9000
G1 F1200
G1 X27.638 Y85.141 E.03376
G1 X64.357 Y85.144 E1.1513
G1 X65.267 Y85.348 E.02924
G1 X66.147 Y85.805 E.03109
G1 X67.102 Y86.729 E.04166
G1 X67.526 Y87.427 E.02561
G1 X67.819 Y88.37 E.03096
G1 X67.846 Y90.141 E.05553
G1 X152.154 Y90.141 E2.64342
G1 X152.181 Y88.37 E.05553
G1 X152.473 Y87.428 E.03092
G1 X152.896 Y86.731 E.02556
G1 X153.814 Y85.835 E.04022
G1 X154.574 Y85.411 E.02729
G1 X155.638 Y85.141 E.03442
G1 X192.273 Y85.141 E1.14866
G1 X192.868 Y85.22 E.01882
G1 X194.014 Y85.718 E.03918
G1 X194.962 Y86.56 E.03976
G1 X195.565 Y87.516 E.03544
G1 X195.859 Y88.638 E.03637
G1 X195.859 Y112.054 E.73419
G1 X195.666 Y114.964 E.09144
G1 X195.416 Y116.48 E.04818
G1 X195.075 Y117.938 E.04695
G1 X194.127 Y120.728 E.09239
G1 X193.494 Y122.127 E.04815
G1 X192.767 Y123.481 E.04819
G1 X191.967 Y124.759 E.04727
G1 X190.233 Y127.019 E.08931
G1 X189.188 Y128.14 E.04805
G1 X188.058 Y129.199 E.04856
G1 X186.879 Y130.164 E.04777
G1 X185.639 Y131.047 E.04773
G1 X184.368 Y131.832 E.04684
G1 X181.802 Y133.097 E.0897
G1 X180.342 Y133.648 E.04893
G1 X178.848 Y134.098 E.04892
G1 X176.054 Y134.654 E.08932
G1 X174.568 Y134.805 E.04683
G1 X173.03 Y134.859 E.04825
G1 X46.9 Y134.858 E3.95472
G1 X44.087 Y134.673 E.08839
G1 X42.612 Y134.434 E.04685
G1 X39.696 Y133.661 E.09459
G1 X36.906 Y132.51 E.09463
G1 X34.305 Y131.01 E.09414
G1 X31.971 Y129.224 E.09215
G1 X30.813 Y128.141 E.04971
G1 X28.908 Y125.972 E.09051
G1 X27.99 Y124.695 E.04931
G1 X26.54 Y122.194 E.09064
G1 X25.869 Y120.72 E.05078
G1 X24.938 Y117.985 E.09059
G1 X24.587 Y116.492 E.04809
G1 X24.195 Y113.567 E.09253
G1 X24.141 Y112.03 E.04822
G1 X24.141 Y88.638 E.73344
G1 X24.405 Y87.594 E.03376
G1 X24.748 Y86.928 E.02349
G1 X25.928 Y85.748 E.05232
G1 X26.541 Y85.433 E.02161
G1 X26.711 Y85.765 F9000
G1 F1200
G1 X27.662 Y85.518 E.03081
G1 X64.335 Y85.521 E1.14986
G1 X65.158 Y85.71 E.02648
G1 X65.947 Y86.126 E.02797
G1 X66.794 Y86.948 E.03701
G1 X67.174 Y87.562 E.02264
G1 X67.451 Y88.455 E.02932
G1 X67.472 Y90.518 E.06469
G1 X152.528 Y90.518 E2.66687
G1 X152.549 Y88.455 E.06469
G1 X152.826 Y87.563 E.02929
G1 X153.205 Y86.949 E.02262
G1 X154.021 Y86.151 E.03579
G1 X154.694 Y85.769 E.02426
G1 X155.662 Y85.518 E.03135
G1 X192.26 Y85.518 E1.1475
G1 X192.79 Y85.59 E.01677
G1 X193.833 Y86.05 E.03574
G1 X194.689 Y86.822 E.03614
G1 X195.229 Y87.69 E.03205
G1 X195.482 Y88.662 E.03149
G1 X195.482 Y112.045 E.73316
G1 X195.293 Y114.909 E.08999
G1 X195.045 Y116.412 E.04776
G1 X194.289 Y119.226 E.09136
G1 X193.158 Y121.954 E.09259
G1 X191.657 Y124.544 E.09386
G1 X189.945 Y126.775 E.08817
G1 X188.917 Y127.878 E.04728
G1 X187.814 Y128.911 E.04738
G1 X186.655 Y129.86 E.04697
G1 X185.435 Y130.73 E.04698
G1 X182.944 Y132.163 E.09011
G1 X180.227 Y133.289 E.09222
G1 X178.757 Y133.733 E.04815
G1 X175.999 Y134.281 E.08817
G1 X173.027 Y134.482 E.0934
G1 X46.91 Y134.481 E3.95431
G1 X44.129 Y134.298 E.08738
G1 X42.679 Y134.063 E.04606
G1 X39.81 Y133.301 E.09307
G1 X37.067 Y132.169 E.09304
G1 X34.509 Y130.693 E.0926
G1 X32.215 Y128.936 E.0906
G1 X30.105 Y126.833 E.09341
G1 X28.3 Y124.48 E.09298
G1 X26.875 Y122.021 E.08911
G1 X26.215 Y120.569 E.05001
G1 X25.715 Y119.238 E.04458
G1 X24.955 Y116.412 E.09176
G1 X24.57 Y113.535 E.09101
G1 X24.518 Y88.662 E.77988
G1 X24.765 Y87.711 E.03081
G1 X25.069 Y87.129 E.02059
G1 X26.129 Y86.069 E.047
G1 X26.657 Y85.792 E.01869
G1 X26.829 Y86.123 F9000
G1 F1200
G1 X27.687 Y85.895 E.02784
G1 X64.313 Y85.898 E1.14838
G1 X65.046 Y86.071 E.02361
G1 X65.745 Y86.445 E.02486
G1 X66.487 Y87.168 E.03248
G1 X66.821 Y87.699 E.01967
G1 X67.082 Y88.54 E.02761
G1 X67.096 Y90.895 E.07384
G1 X152.904 Y90.895 E2.69045
G1 X152.918 Y88.54 E.07384
G1 X153.179 Y87.699 E.02761
G1 X153.512 Y87.169 E.01963
G1 X154.231 Y86.465 E.03155
G1 X154.817 Y86.127 E.02121
G1 X155.687 Y85.895 E.02823
G1 X192.247 Y85.895 E1.14631
G1 X192.711 Y85.959 E.01469
G1 X193.65 Y86.381 E.03228
G1 X194.415 Y87.082 E.03253
G1 X194.873 Y87.815 E.0271
G1 X195.105 Y88.687 E.02829
G1 X195.105 Y112.035 E.73206
G1 X194.92 Y114.853 E.08855
G1 X194.343 Y117.753 E.09271
G1 X193.435 Y120.429 E.0886
G1 X192.121 Y123.092 E.09311
G1 X191.348 Y124.329 E.04574
G1 X189.657 Y126.531 E.08705
G1 X187.57 Y128.623 E.09265
G1 X185.232 Y130.412 E.09231
G1 X184.003 Y131.172 E.04531
G1 X181.512 Y132.4 E.08708
G1 X180.111 Y132.93 E.04697
G1 X178.666 Y133.367 E.04733
G1 X175.943 Y133.908 E.08705
G1 X174.505 Y134.054 E.04532
G1 X173.024 Y134.105 E.04646
G1 X46.92 Y134.104 E3.9539
G1 X44.172 Y133.923 E.08635
G1 X42.745 Y133.692 E.04533
G1 X39.925 Y132.942 E.09149
G1 X37.228 Y131.828 E.09149
G1 X34.714 Y130.376 E.09103
G1 X32.458 Y128.649 E.08908
G1 X31.338 Y127.599 E.04814
G1 X29.498 Y125.502 E.08747
G1 X28.61 Y124.265 E.04774
G1 X27.211 Y121.848 E.08756
G1 X26.561 Y120.419 E.04922
G1 X25.663 Y117.776 E.08752
G1 X25.324 Y116.332 E.04651
G1 X24.946 Y113.504 E.08946
G1 X24.895 Y112.024 E.04643
G1 X24.895 Y88.687 E.73172
G1 X25.123 Y87.829 E.02784
G1 X25.388 Y87.331 E.01769
G1 X26.331 Y86.388 E.04181
G1 X26.776 Y86.151 E.01581
G1 X26.951 Y86.48 F9000
G1 F1200
G1 X27.713 Y86.272 E.02477
G1 X64.289 Y86.276 E1.14681
G1 X64.932 Y86.431 E.02074
G1 X65.541 Y86.763 E.02175
G1 X66.205 Y87.419 E.02927
G1 X66.488 Y87.876 E.01685
G1 X66.705 Y88.571 E.02283
G1 X66.721 Y91.272 E.08469
G1 X153.279 Y91.272 E2.71397
G1 X153.295 Y88.571 E.08469
G1 X153.512 Y87.876 E.02283
G1 X153.794 Y87.42 E.01681
G1 X154.444 Y86.777 E.02867
G1 X154.942 Y86.483 E.01813
G1 X155.713 Y86.272 E.02506
G1 X192.233 Y86.272 E1.14506
G1 X192.629 Y86.329 E.01254
G1 X193.464 Y86.711 E.02879
G1 X194.14 Y87.34 E.02895
G1 X194.517 Y87.942 E.02227
G1 X194.728 Y88.713 E.02506
G1 X194.728 Y112.026 E.73096
G1 X194.547 Y114.798 E.0871
G1 X194.303 Y116.277 E.047
G1 X193.977 Y117.661 E.04458
G1 X193.089 Y120.279 E.08668
G1 X191.797 Y122.898 E.09157
G1 X191.038 Y124.114 E.04494
G1 X189.37 Y126.288 E.08592
G1 X187.326 Y128.336 E.09072
G1 X185.028 Y130.095 E.09074
G1 X183.82 Y130.842 E.04453
G1 X181.362 Y132.054 E.08593
G1 X178.575 Y133.001 E.09229
G1 X175.887 Y133.535 E.08593
G1 X173.02 Y133.728 E.0901
G1 X46.929 Y133.727 E3.95349
G1 X44.214 Y133.549 E.08531
G1 X42.812 Y133.321 E.04454
G1 X40.04 Y132.583 E.08994
G1 X37.389 Y131.487 E.08994
G1 X34.918 Y130.059 E.08948
G1 X32.702 Y128.361 E.08753
G1 X30.664 Y126.326 E.0903
G1 X28.92 Y124.051 E.08988
G1 X27.546 Y121.675 E.08606
G1 X26.425 Y118.984 E.0914
G1 X25.692 Y116.252 E.08869
G1 X25.322 Y113.472 E.08793
G1 X25.272 Y88.713 E.7763
G1 X25.48 Y87.951 E.02477
G1 X25.706 Y87.535 E.01484
G1 X26.535 Y86.706 E.03676
G1 X26.898 Y86.509 E.01295
G1 X27.076 Y86.837 F9000
G1 F1200
G1 X27.74 Y86.649 E.02164
G1 X64.267 Y86.653 E1.14528
G1 X64.774 Y86.774 E.01634
G1 X65.336 Y87.081 E.02008
G1 X65.921 Y87.668 E.02598
G1 X66.153 Y88.052 E.01407
G1 X66.328 Y88.602 E.0181
G1 X66.347 Y91.649 E.09554
G1 X153.653 Y91.649 E2.73742
G1 X153.672 Y88.602 E.09554
G1 X153.847 Y88.052 E.0181
G1 X154.078 Y87.669 E.01402
G1 X154.659 Y87.087 E.02578
G1 X155.071 Y86.839 E.01508
G1 X155.74 Y86.649 E.02181
G1 X192.546 Y86.697 E1.15403
G1 X193.276 Y87.038 E.02526
G1 X193.862 Y87.597 E.02539
G1 X194.162 Y88.071 E.01759
G1 X194.351 Y88.74 E.0218
G1 X194.351 Y112.017 E.72983
G1 X194.174 Y114.743 E.08565
G1 X193.932 Y116.209 E.04659
G1 X193.612 Y117.569 E.04381
G1 X192.743 Y120.13 E.0848
G1 X191.474 Y122.703 E.08995
G1 X190.728 Y123.899 E.0442
G1 X189.082 Y126.044 E.08477
G1 X187.082 Y128.048 E.08877
G1 X184.824 Y129.778 E.08919
G1 X183.637 Y130.513 E.04377
G1 X181.212 Y131.709 E.08478
G1 X178.483 Y132.635 E.09036
G1 X175.831 Y133.162 E.08478
G1 X174.441 Y133.302 E.0438
G1 X46.939 Y133.35 E3.99774
G1 X44.257 Y133.174 E.08427
G1 X42.879 Y132.949 E.04378
G1 X40.155 Y132.224 E.08838
G1 X37.551 Y131.146 E.08837
G1 X35.123 Y129.742 E.08794
G1 X32.946 Y128.073 E.08601
G1 X31.872 Y127.066 E.04616
G1 X30.088 Y125.033 E.08481
G1 X29.23 Y123.836 E.04618
G1 X27.881 Y121.503 E.0845
G1 X27.258 Y120.131 E.04725
G1 X26.388 Y117.569 E.08483
G1 X26.061 Y116.172 E.04499
G1 X25.698 Y113.441 E.08638
G1 X25.649 Y112.017 E.04467
G1 X25.649 Y88.74 E.72983
G1 X25.837 Y88.076 E.02164
G1 X26.022 Y87.742 E.01197
G1 X26.742 Y87.022 E.03193
G1 X27.024 Y86.866 E.0101
G1 X27.171 Y87.253 F9000
G1 F1200
G1 X27.768 Y87.026 E.02003
G1 X64.245 Y87.03 E1.14371
G1 X64.62 Y87.119 E.01208
G1 X65.089 Y87.368 E.01665
G1 X65.638 Y87.918 E.02437
G1 X65.803 Y88.192 E.01003
G1 X65.952 Y88.635 E.01465
G1 X65.972 Y92.026 E.10632
G1 X154.028 Y92.026 E2.76093
G1 X154.048 Y88.635 E.10632
G1 X154.197 Y88.192 E.01465
G1 X154.362 Y87.918 E.01003
G1 X154.879 Y87.394 E.02308
G1 X155.203 Y87.192 E.01197
G1 X155.768 Y87.026 E.01846
G1 X192.46 Y87.065 E1.15045
G1 X193.083 Y87.364 E.02167
G1 X193.583 Y87.851 E.02188
G1 X193.808 Y88.204 E.01313
G1 X193.974 Y88.768 E.01843
G1 X193.974 Y112.014 E.72886
G1 X193.799 Y114.7 E.0844
G1 X193.563 Y116.129 E.04541
G1 X193.249 Y117.465 E.04303
G1 X192.392 Y119.991 E.08364
G1 X191.151 Y122.509 E.08802
