; generated by PrusaSlicer 2.7.1+linux-x64-GTK3 on 2024-01-06 at 09:18:35 UTC


;
;

;
;
; 

; external perimeters extrusion width = 0.42mm
; perimeters extrusion width = 0.44mm
; infill extrusion width = 0.44mm
; solid infill extrusion width = 0.44mm
; top infill extrusion width = 0.40mm
; support material extrusion width = 0.36mm
; first layer extrusion width = 0.42mm

M201 X500 Y500 Z100 E5000 ; sets maximum accelerations, mm/sec^2
M203 X500 Y500 Z10 E60 ; sets maximum feedrates, mm / sec
M204 P500 R1000 T500 ; sets acceleration (P, T) and retract acceleration (R), mm/sec^2
M205 X8.00 Y8.00 Z0.40 E5.00 ; sets the jerk limits, mm/sec
M205 S0 T0 ; sets the minimum extruding and travel feed rate, mm/sec

; printing object key_hole.stl id:0 copy 0
; stop printing object key_hole.stl id:0 copy 0

;TYPE:Custom
BED_MESH_PROFILE LOAD=default
G90 ; use absolute coordinates
M83 ; extruder relative mode
M104 S150 ; set temporary nozzle temp to prevent oozing during homing
M140 S60 ; set final bed temp
G4 S30 ; allow partial nozzle warmup
G28 ; home all axis
G1 Z50 F240
G1 X2.0 Y10 F3000
M104 S210 ; set final nozzle temp
M190 S60 ; wait for bed temp to stabilize
M109 S210 ; wait for nozzle temp to stabilize
G1 Z0.28 F240
G92 E0
G1 X2.0 Y140 E10 F1500 ; prime the nozzle
G1 X2.3 Y140 F5000
G92 E0
G1 X2.3 Y10 E10 F1200 ; prime the nozzle
G92 E0
G21 ; set units to millimeters
G90 ; use absolute coordinates
M83 ; use relative distances for extrusion
; Filament gcode
M107
;LAYER_CHANGE
;Z:0.2
;HEIGHT:0.2
;BEFORE_LAYER_CHANGE
G92 E0
;0.2


G1 E-5 F3600
G1 Z.2 F9000
;AFTER_LAYER_CHANGE
;0.2
G1 X96.45 Y81.07
G1 Z.2
G1 E5 F2400
;TYPE:Skirt/Brim
;WIDTH:0.42
G1 F1200
G1 X97.944 Y79.505 E.06784
G1 X99.096 Y78.524 E.04744
G1 X100.742 Y77.382 E.06281
G1 X101.968 Y76.698 E.04402
G1 X103.797 Y75.893 E.06266
G1 X105.137 Y75.454 E.04421
G1 X107.092 Y75.013 E.06284
G1 X108.485 Y74.839 E.04402
G1 X110.488 Y74.78 E.06283
G1 X113.014 Y75.032 E.07959
G1 X114.863 Y75.454 E.05946
G1 X116.031 Y75.831 E.03848
G1 X118.366 Y76.872 E.08016
G1 X119.35 Y77.44 E.03562
G1 X120.898 Y78.52 E.05918
G1 X122.678 Y80.11 E.07483
G1 X124.318 Y82.049 E.07963
G1 X125.352 Y83.638 E.05944
G1 X125.888 Y84.64 E.03563
G1 X126.849 Y86.99 E.07961
G1 X127.434 Y89.297 E.07462
G1 X127.677 Y91.176 E.05941
G1 X127.725 Y92.327 E.03612
G1 X127.727 Y127.593 E1.10574
G1 X127.605 Y129.567 E.06201
G1 X127.385 Y130.967 E.04443
G1 X126.882 Y132.907 E.06284
G1 X126.401 Y134.227 E.04405
G1 X125.537 Y136.034 E.0628
G1 X124.813 Y137.238 E.04405
G1 X123.619 Y138.847 E.06282
G1 X122.602 Y139.966 E.04741
G1 X121.199 Y141.241 E.05944
G1 X119.986 Y142.146 E.04745
G1 X118.27 Y143.18 E.06282
G1 X116.651 Y143.927 E.05591
G1 X114.967 Y144.517 E.05595
G1 X113.015 Y144.968 E.06282
G1 X111.515 Y145.161 E.04742
G1 X109.62 Y145.222 E.05945
G1 X107.092 Y144.987 E.07961
G1 X105.872 Y144.739 E.03903
G1 X104.416 Y144.319 E.04751
G1 X102.997 Y143.784 E.04755
G1 X101.872 Y143.254 E.03899
G1 X99.705 Y141.93 E.07962
G1 X98.801 Y141.241 E.03564
G1 X97.398 Y139.967 E.05942
G1 X95.745 Y138.039 E.07963
G1 X95.042 Y137.012 E.03902
G1 X94.118 Y135.372 E.05902
G1 X93.151 Y133.01 E.08002
G1 X92.566 Y130.703 E.07462
G1 X92.323 Y128.824 E.05941
G1 X92.275 Y127.673 E.03612
G1 X92.273 Y92.407 E1.10574
G1 X92.395 Y90.432 E.06204
G1 X92.615 Y89.036 E.04431
G1 X93.118 Y87.093 E.06293
G1 X93.641 Y85.674 E.04742
G1 X94.463 Y83.966 E.05943
G1 X95.247 Y82.672 E.04744
G1 X96.414 Y81.118 E.06093
G1 E-3.5 F3600
;WIPE_START
G1 F7200
G1 X96.45 Y81.07 E-.0285
G1 X97.944 Y79.505 E-1.02772
G1 X98.655 Y78.899 E-.44378
;WIPE_END
G1 X99.287 Y83.389 F9000
G1 E5 F2400
G1 F1200
G1 X100.481 Y82.148 E.054
G1 X101.298 Y81.452 E.03365
G1 X102.65 Y80.51 E.05167
G1 X104.342 Y79.626 E.05986
G1 X105.952 Y79.032 E.05381
G1 X106.785 Y78.809 E.02704
G1 X108.642 Y78.502 E.05902
G1 X110.526 Y78.446 E.0591
G1 X111.437 Y78.51 E.02863
G1 X113.045 Y78.77 E.05107
G1 X114.917 Y79.324 E.06121
G1 X115.772 Y79.676 E.02899
G1 X117.217 Y80.429 E.05109
G1 X118.797 Y81.528 E.06035
G1 X119.519 Y82.148 E.02984
G1 X120.663 Y83.33 E.05158
G1 X121.797 Y84.845 E.05933
G1 X122.697 Y86.454 E.0578
G1 X123.069 Y87.304 E.02909
G1 X123.598 Y88.914 E.05314
G1 X123.944 Y90.672 E.05618
G1 X124.063 Y92.464 E.05631
G1 X124.063 Y127.535 E1.09963
G1 X123.959 Y129.213 E.05271
G1 X123.788 Y130.271 E.0336
G1 X123.373 Y131.851 E.05122
G1 X123.004 Y132.855 E.03354
G1 X122.295 Y134.327 E.05123
G1 X121.741 Y135.242 E.03354
G1 X120.763 Y136.552 E.05126
G1 X120.044 Y137.344 E.03354
G1 X118.834 Y138.442 E.05123
G1 X117.977 Y139.082 E.03354
G1 X116.583 Y139.928 E.05113
G1 X115.286 Y140.527 E.04479
G1 X113.918 Y141.007 E.04546
G1 X112.328 Y141.37 E.05114
G1 X111.267 Y141.506 E.03354
G1 X109.635 Y141.559 E.0512
G1 X107.671 Y141.369 E.06187
G1 X106.082 Y141.007 E.0511
G1 X105.201 Y140.719 E.02906
G1 X103.493 Y139.967 E.05851
G1 X102.017 Y139.078 E.05402
G1 X101.267 Y138.523 E.02925
G1 X100.482 Y137.853 E.03236
G1 X99.348 Y136.682 E.05111
G1 X98.23 Y135.198 E.05826
G1 X97.704 Y134.325 E.03196
G1 X96.991 Y132.843 E.05157
G1 X96.395 Y131.06 E.05895
G1 X96.054 Y129.316 E.05572
G1 X95.937 Y127.536 E.05593
G1 X95.937 Y92.465 E1.09963
G1 X96.041 Y90.787 E.05271
G1 X96.212 Y89.729 E.0336
G1 X96.627 Y88.148 E.05125
G1 X96.996 Y87.145 E.03351
G1 X97.705 Y85.673 E.05123
G1 X98.261 Y84.756 E.03362
G1 X99.251 Y83.437 E.05171
G1 X99.552 Y83.663 F9000
G1 F1200
G1 X99.578 Y83.629 E.00134
G1 X100.74 Y82.422 E.05253
G1 X101.527 Y81.751 E.03243
G1 X102.852 Y80.829 E.05061
G1 X103.742 Y80.328 E.03202
G1 X105.272 Y79.656 E.0524
G1 X106.876 Y79.175 E.0525
G1 X107.878 Y78.979 E.03201
G1 X109.483 Y78.823 E.05056
G1 X110.507 Y78.823 E.03211
G1 X111.393 Y78.885 E.02785
G1 X112.968 Y79.139 E.05002
G1 X114.78 Y79.675 E.05925
G1 X115.613 Y80.017 E.02823
G1 X117.027 Y80.756 E.05002
G1 X118.556 Y81.818 E.05837
G1 X119.261 Y82.422 E.02911
G1 X120.38 Y83.58 E.05049
G1 X121.478 Y85.045 E.0574
G1 X122.354 Y86.611 E.05626
G1 X122.716 Y87.439 E.02833
G1 X123.235 Y89.015 E.05202
G1 X123.571 Y90.726 E.05467
G1 X123.686 Y92.468 E.05474
G1 X123.686 Y127.532 E1.09941
G1 X123.584 Y129.172 E.05152
G1 X123.419 Y130.192 E.0324
G1 X123.013 Y131.739 E.05015
G1 X122.657 Y132.707 E.03234
G1 X121.963 Y134.148 E.05015
G1 X121.428 Y135.031 E.03237
G1 X120.472 Y136.313 E.05014
G1 X119.778 Y137.076 E.03234
G1 X118.594 Y138.152 E.05016
G1 X117.767 Y138.769 E.03235
G1 X116.402 Y139.597 E.05006
G1 X115.142 Y140.178 E.0435
G1 X113.817 Y140.643 E.04403
G1 X112.261 Y140.998 E.05004
G1 X111.238 Y141.13 E.03234
G1 X109.64 Y141.182 E.05013
G1 X107.738 Y140.998 E.05991
G1 X106.182 Y140.643 E.05004
G1 X105.324 Y140.363 E.0283
G1 X103.672 Y139.636 E.05659
G1 X102.227 Y138.765 E.0529
G1 X101.496 Y138.224 E.02851
G1 X100.741 Y137.579 E.03113
G1 X99.63 Y136.432 E.05007
G1 X98.543 Y134.986 E.05672
G1 X98.036 Y134.147 E.03074
G1 X97.338 Y132.695 E.05051
G1 X96.758 Y130.958 E.05742
G1 X96.428 Y129.261 E.0542
G1 X96.314 Y127.532 E.05433
G1 X96.314 Y92.468 E1.09941
G1 X96.416 Y90.828 E.05152
G1 X96.581 Y89.808 E.0324
G1 X96.987 Y88.261 E.05015
G1 X97.343 Y87.293 E.03234
G1 X98.037 Y85.852 E.05015
G1 X98.573 Y84.968 E.03241
G1 X99.516 Y83.711 E.04927
G1 X99.818 Y83.937 F9000
G1 F1200
G1 X99.869 Y83.869 E.00267
G1 X100.999 Y82.696 E.05107
G1 X101.757 Y82.05 E.03123
G1 X103.053 Y81.148 E.04951
G1 X104.645 Y80.316 E.05632
G1 X106.18 Y79.751 E.05129
G1 X106.967 Y79.541 E.02554
G1 X108.715 Y79.253 E.05555
G1 X110.487 Y79.2 E.05558
G1 X111.35 Y79.259 E.02712
G1 X112.891 Y79.509 E.04895
G1 X114.642 Y80.027 E.05725
G1 X115.453 Y80.359 E.02748
G1 X116.838 Y81.082 E.04899
G1 X118.316 Y82.108 E.05641
G1 X119.002 Y82.697 E.02835
G1 X120.098 Y83.83 E.04943
G1 X121.165 Y85.256 E.05584
G1 X122.011 Y86.768 E.05432
G1 X122.364 Y87.573 E.02756
G1 X122.872 Y89.116 E.05093
G1 X123.198 Y90.781 E.0532
G1 X123.309 Y92.471 E.0531
G1 X123.309 Y127.529 E1.09922
G1 X123.209 Y129.13 E.0503
G1 X123.05 Y130.113 E.03122
G1 X122.653 Y131.627 E.04908
G1 X122.31 Y132.56 E.03117
G1 X121.631 Y133.969 E.04904
G1 X121.116 Y134.819 E.03116
G1 X120.18 Y136.073 E.04906
G1 X119.512 Y136.809 E.03116
G1 X118.353 Y137.861 E.04908
G1 X117.557 Y138.456 E.03116
G1 X116.221 Y139.266 E.04899
G1 X114.999 Y139.83 E.0422
G1 X113.717 Y140.28 E.0426
G1 X112.194 Y140.627 E.04898
G1 X111.208 Y140.754 E.03117
G1 X109.645 Y140.805 E.04903
G1 X107.805 Y140.627 E.05796
G1 X106.282 Y140.279 E.04898
G1 X105.448 Y140.007 E.02751
G1 X104.561 Y139.647 E.03001
G1 X103.163 Y138.919 E.04942
G1 X101.726 Y137.925 E.05478
G1 X100.999 Y137.304 E.02998
G1 X99.913 Y136.183 E.04894
G1 X98.855 Y134.775 E.05522
G1 X98.368 Y133.968 E.02955
G1 X97.685 Y132.547 E.04943
G1 X97.121 Y130.857 E.05586
G1 X96.801 Y129.207 E.0527
G1 X96.691 Y127.529 E.05273
G1 X96.691 Y92.471 E1.09922
G1 X96.791 Y90.87 E.0503
G1 X96.95 Y89.887 E.03122
G1 X97.347 Y88.373 E.04908
G1 X97.69 Y87.441 E.03114
G1 X98.369 Y86.031 E.04907
G1 X98.885 Y85.179 E.03123
G1 X99.782 Y83.985 E.04682
G1 X100.082 Y84.211 F9000
G1 F1200
G1 X100.152 Y84.118 E.00365
G1 X101.257 Y82.971 E.04994
G1 X101.987 Y82.349 E.03007
G1 X103.254 Y81.467 E.0484
G1 X104.078 Y81.004 E.02964
G1 X105.533 Y80.364 E.04984
G1 X107.058 Y79.907 E.04992
G1 X107.985 Y79.726 E.02961
G1 X109.521 Y79.577 E.04839
G1 X110.468 Y79.576 E.02969
G1 X112.814 Y79.878 E.07416
G1 X114.505 Y80.378 E.05529
G1 X115.294 Y80.701 E.02673
G1 X116.648 Y81.408 E.04789
G1 X118.085 Y82.407 E.05487
G1 X118.743 Y82.971 E.02717
G1 X119.815 Y84.079 E.04834
G1 X120.852 Y85.466 E.0543
G1 X121.669 Y86.925 E.05243
G1 X122.012 Y87.708 E.0268
G1 X122.509 Y89.217 E.04981
G1 X122.825 Y90.835 E.05169
G1 X122.932 Y92.474 E.0515
G1 X122.932 Y127.526 E1.09903
G1 X122.834 Y129.089 E.0491
G1 X122.681 Y130.034 E.03002
G1 X122.293 Y131.514 E.04797
G1 X121.963 Y132.412 E.03
G1 X121.299 Y133.79 E.04796
G1 X120.804 Y134.608 E.02998
G1 X119.889 Y135.834 E.04797
G1 X119.246 Y136.542 E.02999
G1 X118.113 Y137.571 E.04799
G1 X117.347 Y138.143 E.02997
G1 X116.04 Y138.935 E.04792
G1 X114.856 Y139.481 E.04088
G1 X113.617 Y139.916 E.04117
G1 X112.127 Y140.256 E.04792
G1 X111.179 Y140.378 E.02997
G1 X109.651 Y140.427 E.04793
G1 X107.872 Y140.256 E.05604
G1 X106.383 Y139.916 E.04789
G1 X105.571 Y139.65 E.02679
G1 X104.72 Y139.305 E.02879
G1 X103.352 Y138.593 E.04835
G1 X101.956 Y137.626 E.05325
G1 X101.258 Y137.03 E.02878
G1 X100.195 Y135.933 E.04789
G1 X99.168 Y134.564 E.05366
G1 X98.7 Y133.789 E.02839
G1 X98.032 Y132.399 E.04835
G1 X97.484 Y130.756 E.05431
G1 X97.174 Y129.153 E.05119
G1 X97.068 Y127.526 E.05112
G1 X97.068 Y92.474 E1.09903
G1 X97.166 Y90.911 E.0491
G1 X97.319 Y89.965 E.03005
G1 X97.707 Y88.485 E.04797
G1 X98.037 Y87.588 E.02997
G1 X98.701 Y86.21 E.04796
G1 X99.197 Y85.391 E.03002
G1 X100.046 Y84.259 E.04437
G1 X100.347 Y84.484 F9000
G1 F1200
G1 X100.436 Y84.366 E.00463
G1 X101.516 Y83.245 E.04881
G1 X102.217 Y82.648 E.02887
G1 X103.455 Y81.786 E.0473
G1 X104.938 Y81.011 E.05246
G1 X106.396 Y80.473 E.04873
G1 X107.149 Y80.273 E.02443
G1 X108.788 Y80.004 E.05208
G1 X110.449 Y79.953 E.0521
G1 X111.264 Y80.009 E.02561
G1 X112.737 Y80.247 E.04678
G1 X114.368 Y80.729 E.05333
G1 X116.459 Y81.734 E.07274
G1 X117.844 Y82.697 E.05289
G1 X118.484 Y83.245 E.02642
G1 X119.532 Y84.328 E.04725
G1 X120.532 Y85.667 E.0524
G1 X121.326 Y87.082 E.05087
G1 X121.659 Y87.843 E.02605
G1 X122.145 Y89.319 E.04872
G1 X122.451 Y90.89 E.05018
G1 X122.555 Y92.477 E.04987
G1 X122.555 Y127.523 E1.09884
G1 X122.459 Y129.048 E.04791
G1 X122.313 Y129.956 E.02884
G1 X121.933 Y131.402 E.04688
G1 X121.616 Y132.264 E.0288
G1 X120.967 Y133.611 E.04688
G1 X120.491 Y134.397 E.02881
G1 X119.597 Y135.595 E.04687
G1 X118.979 Y136.275 E.02881
G1 X117.873 Y137.28 E.04686
G1 X117.136 Y137.83 E.02883
G1 X115.859 Y138.604 E.04682
G1 X114.716 Y139.131 E.03946
G1 X113.516 Y139.553 E.03988
G1 X112.06 Y139.885 E.04682
G1 X111.149 Y140.002 E.0288
G1 X109.656 Y140.05 E.04684
G1 X107.939 Y139.885 E.05408
G1 X105.695 Y139.294 E.07276
G1 X104.878 Y138.963 E.02764
G1 X103.542 Y138.267 E.04723
G1 X102.186 Y137.327 E.05173
G1 X101.516 Y136.755 E.02762
G1 X100.478 Y135.683 E.04679
G1 X99.48 Y134.353 E.05214
G1 X99.032 Y133.61 E.0272
G1 X98.379 Y132.252 E.04725
G1 X97.848 Y130.655 E.05277
G1 X97.547 Y129.099 E.04969
G1 X97.445 Y127.523 E.04952
G1 X97.445 Y92.477 E1.09884
G1 X97.541 Y90.952 E.04791
G1 X97.687 Y90.044 E.02884
G1 X98.067 Y88.598 E.04688
G1 X98.384 Y87.736 E.0288
G1 X99.032 Y86.389 E.04687
G1 X99.509 Y85.602 E.02885
G1 X100.311 Y84.532 E.04193
G1 X100.613 Y84.758 F9000
G1 F1200
G1 X100.727 Y84.607 E.00593
G1 X101.775 Y83.519 E.04737
G1 X102.447 Y82.947 E.02767
G1 X103.656 Y82.105 E.04619
G1 X104.414 Y81.679 E.02726
G1 X105.793 Y81.072 E.04724
G1 X107.24 Y80.639 E.04736
G1 X108.093 Y80.472 E.02725
G1 X109.559 Y80.33 E.04618
G1 X110.429 Y80.33 E.02728
G1 X112.66 Y80.616 E.07052
G1 X114.232 Y81.081 E.0514
G1 X116.269 Y82.06 E.07086
G1 X117.604 Y82.988 E.05098
G1 X119.249 Y84.578 E.07173
G1 X120.213 Y85.868 E.05049
G1 X120.983 Y87.239 E.0493
G1 X121.779 Y89.408 E.07244
G1 X122.078 Y90.944 E.04906
G1 X122.178 Y92.48 E.04826
G1 X122.178 Y127.52 E1.09865
G1 X122.084 Y129.006 E.04669
G1 X121.944 Y129.877 E.02766
G1 X121.573 Y131.289 E.04577
G1 X121.269 Y132.117 E.02766
G1 X120.636 Y133.432 E.04576
G1 X120.179 Y134.186 E.02764
G1 X119.306 Y135.356 E.04577
G1 X118.713 Y136.008 E.02763
G1 X117.632 Y136.989 E.04577
G1 X116.926 Y137.517 E.02764
G1 X115.679 Y138.273 E.04572
G1 X114.573 Y138.782 E.03817
G1 X113.416 Y139.189 E.03846
G1 X111.993 Y139.514 E.04577
G1 X111.119 Y139.626 E.02763
G1 X109.661 Y139.673 E.04574
G1 X108.006 Y139.514 E.05213
G1 X105.819 Y138.938 E.07091
G1 X105.037 Y138.621 E.02646
G1 X103.731 Y137.941 E.04617
G1 X102.416 Y137.028 E.05019
G1 X101.775 Y136.481 E.02642
G1 X100.761 Y135.433 E.04572
G1 X99.793 Y134.142 E.05059
G1 X99.364 Y133.431 E.02604
G1 X98.726 Y132.104 E.04617
G1 X98.214 Y130.565 E.05085
G1 X97.922 Y129.057 E.04816
G1 X97.822 Y127.52 E.04829
G1 X97.822 Y92.48 E1.09865
G1 X97.916 Y90.994 E.04669
G1 X98.056 Y90.123 E.02766
G1 X98.427 Y88.71 E.04581
G1 X98.731 Y87.884 E.0276
G1 X99.364 Y86.568 E.04579
G1 X99.822 Y85.814 E.02766
G1 X100.577 Y84.806 E.03949
G1 X100.878 Y85.032 F9000
G1 F1200
G1 X101.01 Y84.855 E.00692
G1 X102.033 Y83.794 E.04621
G1 X102.677 Y83.246 E.02651
G1 X103.856 Y82.424 E.04506
G1 X105.242 Y81.701 E.04901
G1 X106.612 Y81.196 E.04578
G1 X108.861 Y80.754 E.07186
G1 X110.411 Y80.706 E.04862
G1 X111.177 Y80.758 E.02407
G1 X113.351 Y81.185 E.06947
G1 X114.817 Y81.727 E.04901
G1 X116.747 Y82.819 E.06953
G1 X117.967 Y83.794 E.04897
G1 X119.462 Y85.448 E.0699
G1 X120.278 Y86.702 E.04691
G1 X120.955 Y88.113 E.04907
G1 X121.582 Y90.237 E.06944
G1 X121.801 Y92.483 E.07076
G1 X121.801 Y127.517 E1.09847
G1 X121.71 Y128.965 E.04549
G1 X121.575 Y129.799 E.02649
G1 X121.214 Y131.177 E.04466
G1 X120.922 Y131.969 E.02647
G1 X120.304 Y133.252 E.04465
G1 X119.866 Y133.974 E.02648
G1 X119.014 Y135.116 E.04467
G1 X118.447 Y135.741 E.02646
G1 X117.392 Y136.699 E.04468
G1 X116.716 Y137.204 E.02646
G1 X115.498 Y137.942 E.04465
G1 X114.43 Y138.433 E.03686
G1 X113.315 Y138.826 E.03707
G1 X111.927 Y139.143 E.04464
G1 X111.09 Y139.25 E.02646
G1 X109.666 Y139.296 E.04467
G1 X108.073 Y139.143 E.05018
G1 X105.943 Y138.581 E.06907
G1 X103.921 Y137.615 E.07026
G1 X102.646 Y136.729 E.04868
G1 X101.043 Y135.184 E.06981
G1 X100.106 Y133.932 E.04903
G1 X99.073 Y131.957 E.06988
G1 X98.58 Y130.476 E.04894
G1 X98.295 Y129.003 E.04704
G1 X98.199 Y127.517 E.04669
G1 X98.199 Y92.483 E1.09847
G1 X98.29 Y91.035 E.04549
G1 X98.425 Y90.201 E.02649
G1 X98.787 Y88.823 E.04467
G1 X99.078 Y88.031 E.02646
G1 X99.696 Y86.748 E.04465
G1 X100.134 Y86.025 E.0265
G1 X100.842 Y85.08 E.03702
G1 X101.143 Y85.306 F9000
G1 F1200
G1 X101.301 Y85.095 E.00826
G1 X102.292 Y84.069 E.04473
G1 X104.057 Y82.744 E.0692
G1 X106.054 Y81.779 E.06954
G1 X108.201 Y81.219 E.06957
G1 X110.392 Y81.083 E.06883
G1 X112.505 Y81.354 E.06679
G1 X113.97 Y81.788 E.04791
G1 X115.89 Y82.712 E.06681
G1 X117.133 Y83.577 E.04748
G1 X118.683 Y85.076 E.06761
G1 X119.575 Y86.269 E.04671
G1 X120.298 Y87.555 E.04626
G1 X121.047 Y89.589 E.06796
