; generated by PrusaSlicer 2.7.1+linux-x64-GTK3 on 2023-12-27 at 16:39:19 UTC


;
;

;
;
; 

; external perimeters extrusion width = 0.42mm
; perimeters extrusion width = 0.44mm
; infill extrusion width = 0.44mm
; solid infill extrusion width = 0.44mm
; top infill extrusion width = 0.40mm
; support material extrusion width = 0.36mm
; first layer extrusion width = 0.42mm

M201 X500 Y500 Z100 E5000 ; sets maximum accelerations, mm/sec^2
M203 X500 Y500 Z10 E60 ; sets maximum feedrates, mm / sec
M204 P500 R1000 T500 ; sets acceleration (P, T) and retract acceleration (R), mm/sec^2
M205 X8.00 Y8.00 Z0.40 E5.00 ; sets the jerk limits, mm/sec
M205 S0 T0 ; sets the minimum extruding and travel feed rate, mm/sec

; printing object Leg_128_lower.stl id:0 copy 0
; stop printing object Leg_128_lower.stl id:0 copy 0

;TYPE:Custom
BED_MESH_PROFILE LOAD=default
G90 ; use absolute coordinates
M83 ; extruder relative mode
M104 S150 ; set temporary nozzle temp to prevent oozing during homing
M140 S60 ; set final bed temp
G4 S30 ; allow partial nozzle warmup
G28 ; home all axis
G1 Z50 F240
G1 X2.0 Y10 F3000
M104 S210 ; set final nozzle temp
M190 S60 ; wait for bed temp to stabilize
M109 S210 ; wait for nozzle temp to stabilize
G1 Z0.28 F240
G92 E0
G1 X2.0 Y140 E10 F1500 ; prime the nozzle
G1 X2.3 Y140 F5000
G92 E0
G1 X2.3 Y10 E10 F1200 ; prime the nozzle
G92 E0
G21 ; set units to millimeters
G90 ; use absolute coordinates
M83 ; use relative distances for extrusion
; Filament gcode
M107
;LAYER_CHANGE
;Z:0.2
;HEIGHT:0.2
;BEFORE_LAYER_CHANGE
G92 E0
;0.2


G1 E-5 F3600
G1 Z.2 F9000
;AFTER_LAYER_CHANGE
;0.2
G1 X86.328 Y86.622
G1 Z.2
G1 E5 F2400
;TYPE:Skirt/Brim
;WIDTH:0.42
G1 F1200
G1 X88.185 Y84.872 E.08001
G1 X89.547 Y83.749 E.05535
G1 X90.84 Y82.895 E.04859
G1 X96.179 Y79.814 E.19327
G1 X97.226 Y79.27 E.03699
G1 X98.157 Y78.923 E.03115
G1 X104.718 Y77.166 E.21296
G1 X105.698 Y77 E.03116
G1 X113.041 Y76.947 E.23024
G1 X114.587 Y77.039 E.04856
G1 X117.869 Y77.667 E.10477
G1 X120.934 Y78.57 E.10018
G1 X123.242 Y79.498 E.078
G1 X129.16 Y82.895 E.21395
G1 X130.453 Y83.749 E.04859
G1 X133.042 Y85.992 E.1074
G1 X135.128 Y88.185 E.0949
G1 X136.251 Y89.547 E.05535
G1 X137.105 Y90.84 E.04859
G1 X140.502 Y96.758 E.21395
G1 X141.36 Y98.869 E.07145
G1 X141.959 Y100.729 E.06127
G1 X142.669 Y103.671 E.09489
G1 X143.023 Y105.985 E.0734
G1 X143.053 Y113.041 E.22124
G1 X142.99 Y114.357 E.04131
G1 X142.669 Y116.329 E.06264
G1 X141.901 Y119.472 E.10145
G1 X140.839 Y122.508 E.10085
G1 X140.145 Y123.893 E.04857
G1 X137.105 Y129.16 E.19068
G1 X136.251 Y130.453 E.04859
G1 X134.008 Y133.042 E.1074
G1 X131.815 Y135.128 E.0949
G1 X130.453 Y136.251 E.05535
G1 X129.16 Y137.105 E.04859
G1 X123.242 Y140.502 E.21395
G1 X121.131 Y141.36 E.07145
G1 X119.271 Y141.959 E.06127
G1 X116.329 Y142.669 E.09489
G1 X114.015 Y143.023 E.0734
G1 X106.959 Y143.053 E.22124
G1 X105.643 Y142.99 E.04131
G1 X103.671 Y142.669 E.06264
G1 X100.528 Y141.901 E.10145
G1 X97.492 Y140.839 E.10085
G1 X96.107 Y140.145 E.04857
G1 X90.84 Y137.105 E.19068
G1 X89.547 Y136.251 E.04859
G1 X86.958 Y134.008 E.1074
G1 X84.872 Y131.815 E.0949
G1 X83.749 Y130.453 E.05535
G1 X82.895 Y129.16 E.04859
G1 X79.498 Y123.242 E.21395
G1 X78.64 Y121.131 E.07145
G1 X78.041 Y119.271 E.06127
G1 X77.331 Y116.329 E.09489
G1 X76.977 Y114.015 E.0734
G1 X76.947 Y106.959 E.22124
G1 X77.01 Y105.643 E.04131
G1 X77.331 Y103.671 E.06264
G1 X78.099 Y100.528 E.10145
G1 X79.161 Y97.492 E.10085
G1 X79.855 Y96.107 E.04857
G1 X82.895 Y90.84 E.19068
G1 X83.749 Y89.547 E.04859
G1 X84.816 Y88.248 E.05271
G1 X86.287 Y86.666 E.06773
G1 E-3.5 F3600
;WIPE_START
G1 F7200
G1 X86.328 Y86.622 E-.02857
G1 X88.185 Y84.872 E-1.21204
G1 X88.606 Y84.524 E-.25939
;WIPE_END
G1 X88.957 Y89.205 F9000
G1 E5 F2400
G1 F1200
G1 X89.543 Y88.588 E.02668
G1 X91.835 Y86.61 E.09493
G1 X92.677 Y86.072 E.03133
G1 X93.969 Y85.591 E.04323
G1 X95.337 Y85.438 E.04316
G1 X95.845 Y85.497 E.01604
G1 X96.137 Y84.886 E.02123
G1 X96.784 Y84.012 E.0341
G1 X98.086 Y82.942 E.05284
G1 X99.185 Y82.441 E.03787
G1 X105.668 Y80.709 E.2104
G1 X107.399 Y80.65 E.05431
G1 X108.407 Y80.871 E.03236
G1 X109.344 Y81.262 E.03183
G1 X109.999 Y81.703 E.02476
G1 X110.484 Y81.357 E.01868
G1 X111.455 Y80.917 E.03342
G1 X112.637 Y80.65 E.03799
G1 X113.953 Y80.65 E.04126
G1 X115.478 Y80.898 E.04844
G1 X118.323 Y81.58 E.09173
G1 X121.217 Y82.592 E.09613
G1 X122.186 Y83.118 E.03457
G1 X123.15 Y83.94 E.03972
G1 X123.857 Y84.877 E.0368
G1 X124.144 Y85.499 E.02148
G1 X124.687 Y85.438 E.01713
G1 X126.168 Y85.624 E.0468
G1 X127.206 Y86.014 E.03477
G1 X128.156 Y86.603 E.03505
G1 X129.356 Y87.588 E.04868
G1 X131.412 Y89.543 E.08896
G1 X133.39 Y91.835 E.09493
G1 X133.928 Y92.677 E.03133
G1 X134.408 Y93.968 E.04319
G1 X134.563 Y95.286 E.04161
G1 X134.5 Y95.848 E.01773
G1 X134.946 Y96.041 E.01524
G1 X136.008 Y96.803 E.04098
G1 X137.011 Y98.008 E.04916
G1 X137.426 Y98.826 E.02876
G1 X138.422 Y101.685 E.09493
G1 X139.085 Y104.433 E.08863
G1 X139.347 Y106.012 E.05019
G1 X139.348 Y107.387 E.04311
G1 X139.044 Y108.654 E.04085
G1 X138.533 Y109.697 E.03642
G1 X138.294 Y110.013 E.01242
G1 X138.746 Y110.671 E.02503
G1 X139.165 Y111.711 E.03516
G1 X139.375 Y112.904 E.03798
G1 X139.348 Y113.954 E.03293
G1 X139.099 Y115.495 E.04894
G1 X138.42 Y118.323 E.09119
G1 X137.408 Y121.217 E.09613
G1 X136.882 Y122.186 E.03457
G1 X136.06 Y123.15 E.03972
G1 X135.123 Y123.857 E.0368
G1 X134.501 Y124.144 E.02148
G1 X134.561 Y124.676 E.01679
G1 X134.396 Y126.094 E.04476
G1 X133.994 Y127.189 E.03657
G1 X133.402 Y128.15 E.03539
G1 X132.412 Y129.356 E.04892
G1 X130.457 Y131.412 E.08896
G1 X128.165 Y133.39 E.09493
G1 X127.323 Y133.928 E.03133
G1 X126.032 Y134.408 E.04319
G1 X124.714 Y134.563 E.04161
G1 X124.152 Y134.5 E.01773
G1 X123.959 Y134.946 E.01524
G1 X123.197 Y136.008 E.04098
G1 X121.992 Y137.011 E.04916
G1 X121.174 Y137.426 E.02876
G1 X118.315 Y138.422 E.09493
G1 X115.567 Y139.085 E.08863
G1 X113.988 Y139.347 E.05019
G1 X112.613 Y139.348 E.04311
G1 X111.346 Y139.045 E.04085
G1 X110.303 Y138.533 E.03643
G1 X109.987 Y138.294 E.01242
G1 X109.329 Y138.746 E.02503
G1 X108.289 Y139.165 E.03516
G1 X107.096 Y139.375 E.03798
G1 X106.046 Y139.348 E.03293
G1 X104.505 Y139.099 E.04894
G1 X101.677 Y138.42 E.09119
G1 X98.783 Y137.408 E.09613
G1 X97.814 Y136.882 E.03457
G1 X96.85 Y136.06 E.03972
G1 X96.143 Y135.123 E.0368
G1 X95.856 Y134.501 E.02148
G1 X95.313 Y134.562 E.01713
G1 X93.832 Y134.376 E.0468
G1 X92.794 Y133.986 E.03477
G1 X91.844 Y133.397 E.03505
G1 X90.644 Y132.412 E.04868
G1 X88.588 Y130.457 E.08896
G1 X86.61 Y128.165 E.09493
G1 X86.072 Y127.323 E.03133
G1 X85.592 Y126.032 E.04319
G1 X85.437 Y124.714 E.04161
G1 X85.5 Y124.152 E.01773
G1 X85.054 Y123.959 E.01524
G1 X83.992 Y123.197 E.04098
G1 X82.989 Y121.992 E.04916
G1 X82.574 Y121.174 E.02876
G1 X81.578 Y118.315 E.09493
G1 X80.913 Y115.557 E.08895
G1 X80.658 Y114.02 E.04885
G1 X80.624 Y112.919 E.03454
G1 X80.811 Y111.796 E.0357
G1 X81.388 Y110.434 E.04638
G1 X81.712 Y109.995 E.01711
G1 X81.254 Y109.329 E.02534
G1 X80.835 Y108.289 E.03516
G1 X80.625 Y107.096 E.03798
G1 X80.652 Y106.046 E.03293
G1 X80.901 Y104.505 E.04894
G1 X81.58 Y101.677 E.09119
G1 X82.578 Y98.815 E.09504
G1 X83.084 Y97.865 E.03375
G1 X83.851 Y96.934 E.03782
G1 X84.829 Y96.172 E.03887
G1 X85.5 Y95.858 E.02323
G1 X85.439 Y95.324 E.01685
G1 X85.604 Y93.906 E.04476
G1 X86.006 Y92.811 E.03657
G1 X86.598 Y91.85 E.03539
G1 X87.588 Y90.644 E.04892
G1 X88.915 Y89.248 E.06039
G1 X89.188 Y89.508 F9000
G1 F1200
G1 X89.807 Y88.858 E.02814
G1 X92.066 Y86.908 E.09357
G1 X92.828 Y86.418 E.02841
G1 X94.078 Y85.953 E.04182
G1 X95.354 Y85.815 E.04024
G1 X96.07 Y85.908 E.02264
G1 X96.452 Y85.095 E.02816
G1 X97.074 Y84.255 E.03277
G1 X98.266 Y83.275 E.04838
G1 X99.298 Y82.801 E.03561
G1 X105.744 Y81.079 E.2092
G1 X107.342 Y81.024 E.05013
G1 X108.278 Y81.226 E.03002
G1 X109.181 Y81.602 E.03067
G1 X110.006 Y82.165 E.03132
G1 X110.658 Y81.692 E.02526
G1 X111.594 Y81.268 E.03222
G1 X112.659 Y81.027 E.03424
G1 X113.908 Y81.024 E.03916
G1 X115.413 Y81.269 E.04781
G1 X118.221 Y81.943 E.09054
G1 X121.071 Y82.94 E.09467
G1 X121.989 Y83.439 E.03276
G1 X122.862 Y84.184 E.03598
G1 X123.543 Y85.087 E.03546
G1 X123.914 Y85.909 E.02828
G1 X124.666 Y85.815 E.02376
G1 X126.058 Y85.985 E.04397
G1 X127.025 Y86.345 E.03235
G1 X127.927 Y86.902 E.03324
G1 X129.106 Y87.87 E.04783
G1 X131.142 Y89.807 E.08811
G1 X133.092 Y92.066 E.09357
G1 X133.582 Y92.828 E.02841
G1 X134.047 Y94.077 E.04179
G1 X134.185 Y95.305 E.03875
G1 X134.09 Y96.087 E.0247
G1 X134.744 Y96.361 E.02223
G1 X135.769 Y97.095 E.03953
G1 X136.685 Y98.198 E.04495
G1 X137.077 Y98.969 E.02712
G1 X138.059 Y101.786 E.09354
G1 X138.716 Y104.508 E.0878
G1 X138.972 Y106.058 E.04926
G1 X138.971 Y107.364 E.04095
G1 X138.683 Y108.543 E.03805
G1 X138.205 Y109.511 E.03385
G1 X137.824 Y110 E.01944
G1 X138.405 Y110.832 E.03182
G1 X138.808 Y111.834 E.03386
G1 X138.998 Y112.914 E.03438
G1 X138.974 Y113.906 E.03111
G1 X138.728 Y115.43 E.0484
G1 X138.057 Y118.221 E.09
G1 X137.06 Y121.071 E.09467
G1 X136.561 Y121.989 E.03276
G1 X135.816 Y122.862 E.03598
G1 X134.913 Y123.543 E.03546
G1 X134.09 Y123.914 E.02831
G1 X134.184 Y124.657 E.02348
G1 X134.033 Y125.986 E.04194
G1 X133.663 Y127.008 E.03408
G1 X133.102 Y127.921 E.0336
G1 X132.13 Y129.106 E.04806
G1 X130.193 Y131.142 E.08811
G1 X127.934 Y133.092 E.09357
G1 X127.172 Y133.582 E.02841
G1 X125.923 Y134.047 E.04179
G1 X124.695 Y134.185 E.03875
G1 X123.913 Y134.09 E.0247
G1 X123.639 Y134.744 E.02223
G1 X122.905 Y135.769 E.03953
G1 X121.802 Y136.685 E.04495
G1 X121.031 Y137.077 E.02712
G1 X118.214 Y138.059 E.09354
G1 X115.492 Y138.716 E.0878
G1 X113.942 Y138.972 E.04926
G1 X112.636 Y138.971 E.04095
G1 X111.457 Y138.683 E.03805
G1 X110.489 Y138.205 E.03385
G1 X110 Y137.824 E.01944
G1 X109.168 Y138.405 E.03182
G1 X108.166 Y138.808 E.03386
G1 X107.086 Y138.998 E.03438
G1 X106.094 Y138.974 E.03111
G1 X104.57 Y138.728 E.0484
G1 X101.779 Y138.057 E.09
G1 X98.929 Y137.06 E.09467
G1 X98.011 Y136.561 E.03276
G1 X97.138 Y135.816 E.03598
G1 X96.457 Y134.913 E.03546
G1 X96.086 Y134.091 E.02828
G1 X95.334 Y134.185 E.02376
G1 X93.942 Y134.015 E.04397
G1 X92.976 Y133.655 E.03232
G1 X92.073 Y133.098 E.03327
G1 X90.894 Y132.13 E.04783
G1 X88.858 Y130.193 E.08811
G1 X86.908 Y127.934 E.09357
G1 X86.418 Y127.172 E.02841
G1 X85.953 Y125.923 E.04179
G1 X85.815 Y124.695 E.03875
G1 X85.91 Y123.913 E.0247
G1 X85.256 Y123.639 E.02223
G1 X84.231 Y122.905 E.03953
G1 X83.315 Y121.802 E.04495
G1 X82.923 Y121.031 E.02712
G1 X81.941 Y118.213 E.09357
G1 X81.282 Y115.482 E.08809
G1 X81.032 Y113.971 E.04802
G1 X81.002 Y112.927 E.03275
G1 X81.179 Y111.881 E.03326
G1 X81.725 Y110.605 E.04352
G1 X82.18 Y110.006 E.02359
G1 X81.595 Y109.168 E.03204
G1 X81.192 Y108.166 E.03386
G1 X81.002 Y107.086 E.03438
G1 X81.026 Y106.094 E.03111
G1 X81.272 Y104.57 E.0484
G1 X81.943 Y101.779 E.09
G1 X82.926 Y98.96 E.09361
G1 X83.407 Y98.059 E.03202
G1 X84.099 Y97.219 E.03412
G1 X85.043 Y96.484 E.03751
G1 X85.91 Y96.086 E.02991
G1 X85.816 Y95.343 E.02348
G1 X85.967 Y94.014 E.04194
G1 X86.337 Y92.992 E.03408
G1 X86.898 Y92.079 E.0336
G1 X87.87 Y90.894 E.04806
G1 X89.147 Y89.551 E.05811
G1 X89.42 Y89.811 F9000
G1 F1200
G1 X90.07 Y89.127 E.02959
G1 X92.297 Y87.206 E.09221
G1 X92.979 Y86.764 E.02548
G1 X94.187 Y86.315 E.04041
G1 X95.369 Y86.192 E.03726
G1 X96.294 Y86.321 E.02928
G1 X96.767 Y85.304 E.03517
G1 X97.363 Y84.498 E.03143
G1 X98.446 Y83.607 E.04397
G1 X99.411 Y83.161 E.03333
G1 X105.821 Y81.449 E.20803
G1 X107.287 Y81.397 E.04599
G1 X108.149 Y81.581 E.02764
G1 X109.018 Y81.943 E.02952
G1 X110.013 Y82.628 E.03788
G1 X110.832 Y82.028 E.03183
G1 X111.732 Y81.62 E.03098
G1 X112.682 Y81.404 E.03055
G1 X113.863 Y81.399 E.03703
G1 X115.348 Y81.641 E.04718
G1 X118.119 Y82.306 E.08935
G1 X120.926 Y83.288 E.09324
G1 X121.791 Y83.761 E.03091
G1 X122.573 Y84.428 E.03223
G1 X123.229 Y85.296 E.03411
G1 X123.683 Y86.322 E.03518
G1 X124.647 Y86.193 E.03049
G1 X125.948 Y86.347 E.04108
G1 X126.875 Y86.692 E.03101
G1 X127.697 Y87.202 E.03033
G1 X128.856 Y88.153 E.04701
G1 X130.873 Y90.07 E.08725
G1 X132.794 Y92.297 E.09221
G1 X133.236 Y92.979 E.02548
G1 X133.685 Y94.186 E.04038
G1 X133.808 Y95.322 E.03583
G1 X133.677 Y96.328 E.03181
G1 X134.544 Y96.681 E.02935
G1 X135.53 Y97.387 E.03802
G1 X136.358 Y98.388 E.04073
G1 X136.728 Y99.112 E.02549
G1 X137.696 Y101.888 E.09218
G1 X138.346 Y104.583 E.08692
G1 X138.598 Y106.104 E.04834
G1 X138.594 Y107.339 E.03872
G1 X138.323 Y108.432 E.03531
G1 X137.877 Y109.324 E.03127
G1 X137.352 Y109.986 E.02649
G1 X138.063 Y110.994 E.03868
G1 X138.451 Y111.956 E.03252
G1 X138.62 Y112.924 E.03081
G1 X138.6 Y113.859 E.02932
G1 X138.356 Y115.365 E.04784
G1 X137.694 Y118.119 E.08881
G1 X136.712 Y120.926 E.09324
G1 X136.239 Y121.791 E.03091
G1 X135.572 Y122.573 E.03223
G1 X134.704 Y123.229 E.03411
G1 X133.677 Y123.684 E.03522
G1 X133.806 Y124.64 E.03025
G1 X133.671 Y125.881 E.03914
G1 X133.331 Y126.828 E.03155
G1 X132.802 Y127.692 E.03176
G1 X131.847 Y128.856 E.04721
G1 X129.93 Y130.873 E.08725
G1 X127.703 Y132.794 E.09221
G1 X127.021 Y133.236 E.02548
G1 X125.814 Y133.685 E.04038
G1 X124.678 Y133.808 E.03583
G1 X123.672 Y133.677 E.03181
G1 X123.319 Y134.544 E.02935
G1 X122.613 Y135.53 E.03802
G1 X121.612 Y136.358 E.04073
G1 X120.888 Y136.728 E.02549
G1 X118.112 Y137.696 E.09218
G1 X115.417 Y138.346 E.08692
G1 X113.896 Y138.598 E.04834
G1 X112.661 Y138.594 E.03872
G1 X111.568 Y138.323 E.03531
G1 X110.676 Y137.877 E.03127
G1 X110.014 Y137.352 E.02649
G1 X109.006 Y138.063 E.03868
G1 X108.044 Y138.451 E.03252
G1 X107.076 Y138.62 E.03081
G1 X106.141 Y138.6 E.02932
G1 X104.635 Y138.356 E.04784
G1 X101.881 Y137.694 E.08881
G1 X99.074 Y136.712 E.09324
G1 X98.209 Y136.239 E.03091
G1 X97.427 Y135.572 E.03223
G1 X96.771 Y134.704 E.03411
G1 X96.317 Y133.678 E.03518
G1 X95.353 Y133.807 E.03049
G1 X94.052 Y133.653 E.04108
G1 X93.125 Y133.308 E.03101
G1 X92.303 Y132.798 E.03033
G1 X91.144 Y131.847 E.04701
G1 X89.127 Y129.93 E.08725
G1 X87.206 Y127.703 E.09221
G1 X86.764 Y127.021 E.02548
G1 X86.315 Y125.814 E.04038
G1 X86.192 Y124.678 E.03583
G1 X86.323 Y123.672 E.03181
G1 X85.456 Y123.319 E.02935
G1 X84.47 Y122.613 E.03802
G1 X83.642 Y121.612 E.04073
G1 X83.272 Y120.888 E.02549
G1 X82.304 Y118.111 E.09221
G1 X81.652 Y115.407 E.08721
G1 X81.407 Y113.922 E.04719
G1 X81.377 Y112.971 E.02983
G1 X81.547 Y111.967 E.03193
G1 X82.061 Y110.777 E.04064
G1 X82.65 Y110.016 E.03017
G1 X81.937 Y109.006 E.03876
G1 X81.549 Y108.044 E.03252
G1 X81.38 Y107.076 E.03081
G1 X81.4 Y106.141 E.02932
G1 X81.644 Y104.635 E.04784
G1 X82.306 Y101.881 E.08881
G1 X83.275 Y99.104 E.09222
G1 X83.712 Y98.283 E.02916
G1 X84.348 Y97.503 E.03156
G1 X85.257 Y96.795 E.03613
G1 X86.323 Y96.315 E.03666
G1 X86.194 Y95.36 E.03022
G1 X86.329 Y94.119 E.03914
G1 X86.669 Y93.172 E.03155
G1 X87.198 Y92.308 E.03176
G1 X88.153 Y91.144 E.04721
G1 X89.379 Y89.854 E.0558
G1 X89.652 Y90.114 F9000
G1 F1200
G1 X90.334 Y89.397 E.03103
G1 X92.528 Y87.504 E.09086
G1 X93.132 Y87.11 E.02261
G1 X94.251 Y86.687 E.03751
G1 X95.383 Y86.57 E.03568
G1 X96.612 Y86.749 E.03894
G1 X96.711 Y86.318 E.01387
G1 X97.083 Y85.51 E.02789
G1 X97.621 Y84.773 E.02861
G1 X98.666 Y83.914 E.04241
G1 X99.524 Y83.521 E.02959
G1 X105.856 Y81.825 E.20553
G1 X107.275 Y81.775 E.04452
G1 X108.052 Y81.946 E.02495
G1 X108.82 Y82.265 E.02607
G1 X109.669 Y82.849 E.03231
G1 X109.995 Y83.2 E.01502
G1 X110.247 Y82.925 E.0117
G1 X111.008 Y82.362 E.02968
G1 X111.837 Y81.982 E.02859
G1 X112.705 Y81.78 E.02794
G1 X113.818 Y81.774 E.0349
G1 X115.273 Y82.01 E.04622
G1 X118.009 Y82.667 E.08822
G1 X120.78 Y83.636 E.09204
G1 X121.592 Y84.082 E.02905
G1 X122.285 Y84.671 E.02852
G1 X122.914 Y85.505 E.03275
G1 X123.398 Y86.745 E.04174
G1 X124.627 Y86.57 E.03892
G1 X125.88 Y86.718 E.03956
G1 X126.724 Y87.038 E.0283
G1 X127.467 Y87.501 E.02745
G1 X128.606 Y88.435 E.04618
G1 X130.603 Y90.334 E.0864
G1 X132.496 Y92.528 E.09086
G1 X132.89 Y93.132 E.02261
G1 X133.313 Y94.251 E.03751
G1 X133.431 Y95.339 E.03431
G1 X133.262 Y96.569 E.03893
G1 X134.343 Y97.001 E.0365
G1 X135.289 Y97.679 E.03649
