; generated by PrusaSlicer 2.7.1+linux-x64-GTK3 on 2023-12-21 at 20:58:38 UTC


;
;

;
;
; 

; external perimeters extrusion width = 0.42mm
; perimeters extrusion width = 0.44mm
; infill extrusion width = 0.44mm
; solid infill extrusion width = 0.44mm
; top infill extrusion width = 0.40mm
; support material extrusion width = 0.36mm
; first layer extrusion width = 0.42mm

M201 X500 Y500 Z100 E5000 ; sets maximum accelerations, mm/sec^2
M203 X500 Y500 Z10 E60 ; sets maximum feedrates, mm / sec
M204 P500 R1000 T500 ; sets acceleration (P, T) and retract acceleration (R), mm/sec^2
M205 X8.00 Y8.00 Z0.40 E5.00 ; sets the jerk limits, mm/sec
M205 S0 T0 ; sets the minimum extruding and travel feed rate, mm/sec

; printing object lootbug_plug.stl id:0 copy 0
; stop printing object lootbug_plug.stl id:0 copy 0

;TYPE:Custom
BED_MESH_PROFILE LOAD=default
G90 ; use absolute coordinates
M83 ; extruder relative mode
M104 S150 ; set temporary nozzle temp to prevent oozing during homing
M140 S60 ; set final bed temp
G4 S30 ; allow partial nozzle warmup
G28 ; home all axis
G1 Z50 F240
G1 X2.0 Y10 F3000
M104 S210 ; set final nozzle temp
M190 S60 ; wait for bed temp to stabilize
M109 S210 ; wait for nozzle temp to stabilize
G1 Z0.28 F240
G92 E0
G1 X2.0 Y140 E10 F1500 ; prime the nozzle
G1 X2.3 Y140 F5000
G92 E0
G1 X2.3 Y10 E10 F1200 ; prime the nozzle
G92 E0
G21 ; set units to millimeters
G90 ; use absolute coordinates
M83 ; use relative distances for extrusion
; Filament gcode
M107
;LAYER_CHANGE
;Z:0.2
;HEIGHT:0.2
;BEFORE_LAYER_CHANGE
G92 E0
;0.2


G1 E-5 F3600
G1 Z.2 F9000
;AFTER_LAYER_CHANGE
;0.2
G1 X92.477 Y93.536
G1 Z.2
G1 E5 F2400
;TYPE:Skirt/Brim
;WIDTH:0.42
G1 F1200
G1 X94.395 Y91.709 E.08305
G1 X96.096 Y90.384 E.0676
G1 X98.016 Y89.156 E.07146
G1 X99.259 Y88.489 E.04423
G1 X101.122 Y87.657 E.06397
G1 X102.59 Y87.127 E.04894
G1 X104.587 Y86.574 E.06497
G1 X106.108 Y86.275 E.0486
G1 X108.305 Y86.017 E.06936
G1 X110.405 Y85.961 E.06587
G1 X112.831 Y86.124 E.07624
G1 X115.168 Y86.519 E.07431
G1 X117.454 Y87.142 E.07429
G1 X119.668 Y87.986 E.07429
G1 X121.788 Y89.045 E.0743
G1 X123.794 Y90.307 E.07431
G1 X125.666 Y91.76 E.0743
G1 X127.32 Y93.324 E.07137
G1 X128.875 Y95.107 E.07418
G1 X130.248 Y97.034 E.07419
G1 X131.424 Y99.086 E.07416
G1 X132.393 Y101.245 E.0742
G1 X133.168 Y103.569 E.07681
G1 X133.646 Y105.641 E.06667
G1 X133.952 Y107.896 E.07135
G1 X134.043 Y110.147 E.07064
G1 X133.881 Y112.795 E.08318
G1 X133.534 Y114.927 E.06773
G1 X132.946 Y117.185 E.07316
G1 X132.117 Y119.431 E.07507
G1 X131.07 Y121.584 E.07506
G1 X129.814 Y123.621 E.07503
G1 X128.361 Y125.524 E.07507
G1 X126.726 Y127.273 E.07507
G1 X125.023 Y128.773 E.07116
G1 X123.082 Y130.174 E.07506
G1 X121.011 Y131.375 E.07506
G1 X118.831 Y132.364 E.07506
G1 X116.564 Y133.131 E.07504
G1 X114.231 Y133.669 E.07507
G1 X111.857 Y133.972 E.07504
G1 X109.464 Y134.038 E.07506
G1 X106.952 Y133.85 E.07898
G1 X104.514 Y133.409 E.07768
G1 X103.275 Y133.082 E.04018
G1 X101.442 Y132.467 E.06062
G1 X99.116 Y131.438 E.07975
G1 X96.895 Y130.158 E.08037
G1 X94.846 Y128.665 E.07949
G1 X93.395 Y127.387 E.06063
G1 X92.492 Y126.48 E.04013
G1 X90.941 Y124.657 E.07505
G1 X89.425 Y122.44 E.08421
G1 X88.417 Y120.596 E.06589
G1 X87.888 Y119.44 E.03986
G1 X87.072 Y117.237 E.07366
G1 X85.385 Y111.621 E.18386
G1 X85.243 Y110.65 E.03077
G1 X85.243 Y103.729 E.217
G1 X85.969 Y101.636 E.06946
G1 X91.124 Y95.107 E.26083
G1 X92.438 Y93.582 E.06312
G1 E-3.5 F3600
;WIPE_START
G1 F7200
G1 X92.477 Y93.536 E-.02865
G1 X94.395 Y91.709 E-1.25823
G1 X94.749 Y91.433 E-.21312
;WIPE_END
G1 X95.213 Y95.976 F9000
G1 E5 F2400
G1 F1200
G1 X95.222 Y95.966 E.00042
G1 X95.969 Y95.219 E.03312
G1 X98.256 Y93.344 E.09273
G1 X99.901 Y92.297 E.06114
G1 X100.879 Y91.776 E.03474
G1 X101.8 Y91.342 E.03192
G1 X103.669 Y90.628 E.06273
G1 X105.52 Y90.118 E.0602
G1 X107.452 Y89.779 E.0615
G1 X109.448 Y89.627 E.06276
G1 X110.499 Y89.627 E.03295
G1 X112.495 Y89.774 E.06275
G1 X114.467 Y90.116 E.06275
G1 X116.369 Y90.641 E.06187
G1 X118.265 Y91.371 E.0637
G1 X120.01 Y92.248 E.06123
G1 X121.719 Y93.327 E.06337
G1 X123.285 Y94.545 E.0622
G1 X124.771 Y95.959 E.06432
G1 X126.047 Y97.437 E.06122
G1 X127.213 Y99.089 E.0634
G1 X128.196 Y100.822 E.06247
G1 X129.024 Y102.689 E.06404
G1 X129.629 Y104.515 E.06031
G1 X130.063 Y106.416 E.06114
G1 X130.304 Y108.232 E.05744
G1 X130.364 Y110.803 E.08063
G1 X130.234 Y112.445 E.05164
G1 X129.959 Y114.125 E.05338
G1 X129.453 Y116.077 E.06323
G1 X128.74 Y118.012 E.06466
G1 X127.871 Y119.797 E.06225
G1 X126.803 Y121.534 E.06393
G1 X125.579 Y123.14 E.06331
G1 X124.163 Y124.655 E.06502
G1 X122.679 Y125.956 E.06188
G1 X121.021 Y127.144 E.06395
G1 X119.281 Y128.145 E.06294
G1 X117.4 Y128.99 E.06466
G1 X115.506 Y129.623 E.06261
G1 X113.507 Y130.077 E.06427
G1 X111.503 Y130.325 E.06331
G1 X109.465 Y130.374 E.06392
G1 X107.405 Y130.215 E.06478
G1 X105.408 Y129.857 E.06361
G1 X103.456 Y129.301 E.06364
G1 X101.59 Y128.564 E.06291
G1 X99.766 Y127.625 E.06432
G1 X98.082 Y126.533 E.06293
G1 X96.497 Y125.266 E.06362
G1 X95.109 Y123.915 E.06073
G1 X94.404 Y123.118 E.03336
G1 X93.198 Y121.533 E.06245
G1 X92.13 Y119.796 E.06393
G1 X91.248 Y117.98 E.0633
G1 X90.536 Y116.04 E.06479
G1 X90.041 Y114.126 E.06199
G1 X89.735 Y112.167 E.06217
G1 X89.621 Y110.257 E.05999
G1 X89.655 Y108.974 E.04024
G1 X89.237 Y108.266 E.02578
G1 X88.945 Y107.265 E.03269
G1 X88.905 Y105.311 E.06128
G1 X89.207 Y104.059 E.04038
G1 X89.699 Y103.13 E.03296
G1 X90.733 Y102.046 E.04697
G1 X91.453 Y101.58 E.02689
G1 X92.798 Y99.07 E.08929
G1 X93.952 Y97.437 E.0627
G1 X95.174 Y96.021 E.05864
G1 X95.466 Y96.261 F9000
G1 F1200
G1 X95.498 Y96.222 E.00158
G1 X96.941 Y94.848 E.06247
G1 X98.477 Y93.649 E.0611
G1 X100.092 Y92.623 E.05999
G1 X101.052 Y92.111 E.03411
G1 X102.852 Y91.318 E.06167
G1 X105.607 Y90.485 E.09024
G1 X107.503 Y90.153 E.06035
G1 X109.463 Y90.004 E.06163
G1 X111.473 Y90.051 E.06304
G1 X113.417 Y90.291 E.06142
G1 X115.323 Y90.718 E.06124
G1 X117.19 Y91.333 E.06163
G1 X118.978 Y92.124 E.0613
G1 X120.671 Y93.08 E.06096
G1 X122.287 Y94.215 E.06192
G1 X123.785 Y95.505 E.06198
G1 X125.141 Y96.928 E.06163
G1 X126.344 Y98.467 E.06125
G1 X127.397 Y100.127 E.06164
G1 X128.287 Y101.893 E.06201
G1 X128.988 Y103.708 E.06101
G1 X129.499 Y105.538 E.05957
G1 X129.828 Y107.361 E.05808
G1 X129.986 Y109.173 E.05703
G1 X129.987 Y110.792 E.05076
G1 X129.859 Y112.401 E.05061
G1 X129.365 Y115.01 E.08326
G1 X128.768 Y116.918 E.06268
G1 X127.991 Y118.742 E.06216
G1 X127.038 Y120.478 E.06209
G1 X125.912 Y122.121 E.06245
G1 X124.62 Y123.651 E.06279
G1 X123.19 Y125.037 E.06244
G1 X121.646 Y126.262 E.0618
G1 X119.979 Y127.335 E.06216
G1 X118.198 Y128.245 E.06271
G1 X116.343 Y128.97 E.06245
G1 X114.434 Y129.504 E.06215
G1 X112.463 Y129.85 E.06274
G1 X110.476 Y129.997 E.06247
G1 X108.508 Y129.946 E.06173
G1 X106.532 Y129.699 E.06244
G1 X104.59 Y129.257 E.06245
G1 X102.703 Y128.624 E.06241
G1 X100.887 Y127.806 E.06245
G1 X99.162 Y126.812 E.06242
G1 X97.545 Y125.651 E.06241
G1 X96.75 Y124.986 E.0325
G1 X95.381 Y123.654 E.05989
G1 X94.085 Y122.119 E.06299
G1 X92.964 Y120.483 E.06218
G1 X92.006 Y118.737 E.06244
G1 X91.223 Y116.896 E.06273
G1 X90.63 Y114.995 E.06244
G1 X90.234 Y113.066 E.06174
G1 X90.032 Y111.182 E.05941
G1 X90.041 Y108.851 E.07309
G1 X89.593 Y108.141 E.02632
G1 X89.314 Y107.184 E.03126
G1 X89.283 Y105.33 E.05814
G1 X89.567 Y104.173 E.03735
G1 X90.019 Y103.331 E.02996
G1 X90.989 Y102.324 E.04384
G1 X91.75 Y101.839 E.02829
G1 X92.634 Y100.074 E.06189
G1 X93.665 Y98.455 E.06018
G1 X95.428 Y96.308 E.08711
G1 X95.739 Y96.591 F9000
G1 F1200
G1 X96.495 Y95.76 E.03522
G1 X98.698 Y93.955 E.0893
G1 X100.282 Y92.948 E.05885
G1 X101.225 Y92.445 E.03351
G1 X103.895 Y91.347 E.09052
G1 X105.685 Y90.854 E.05821
G1 X107.555 Y90.526 E.05953
G1 X109.477 Y90.381 E.06043
G1 X110.49 Y90.381 E.03176
G1 X112.395 Y90.521 E.05989
G1 X114.294 Y90.85 E.06043
G1 X116.125 Y91.355 E.05955
G1 X117.951 Y92.057 E.06134
G1 X119.632 Y92.901 E.05898
G1 X121.279 Y93.939 E.06104
G1 X122.786 Y95.111 E.05986
G1 X124.219 Y96.472 E.06197
G1 X125.448 Y97.895 E.05895
G1 X126.571 Y99.485 E.06103
G1 X127.519 Y101.153 E.06016
G1 X128.317 Y102.952 E.06171
G1 X128.902 Y104.718 E.05833
G1 X129.319 Y106.541 E.05864
G1 X129.552 Y108.289 E.05529
G1 X129.61 Y110.78 E.07812
G1 X129.485 Y112.358 E.04963
G1 X129.222 Y113.966 E.05109
G1 X128.736 Y115.843 E.06079
G1 X128.05 Y117.707 E.06228
G1 X127.215 Y119.426 E.05992
G1 X126.186 Y121.1 E.06161
G1 X125.009 Y122.646 E.06092
G1 X123.646 Y124.106 E.06263
G1 X122.218 Y125.36 E.05959
G1 X120.621 Y126.504 E.06159
G1 X118.946 Y127.469 E.06061
G1 X117.135 Y128.283 E.06225
G1 X115.312 Y128.894 E.06028
G1 X113.386 Y129.332 E.06193
G1 X111.457 Y129.572 E.06095
G1 X109.475 Y129.619 E.06216
G1 X107.51 Y129.468 E.06179
G1 X105.586 Y129.124 E.06128
G1 X103.706 Y128.59 E.06128
G1 X101.909 Y127.881 E.06057
G1 X100.152 Y126.977 E.06195
G1 X98.53 Y125.926 E.0606
G1 X97.004 Y124.707 E.06124
G1 X94.987 Y122.639 E.09057
G1 X93.825 Y121.114 E.06011
G1 X92.795 Y119.441 E.0616
G1 X91.945 Y117.693 E.06094
G1 X91.259 Y115.824 E.06242
G1 X90.778 Y113.965 E.06021
G1 X90.484 Y112.078 E.05988
G1 X90.375 Y110.238 E.05779
G1 X90.428 Y108.724 E.0475
G1 X89.934 Y107.978 E.02805
G1 X89.691 Y107.152 E.027
G1 X89.66 Y105.349 E.05654
G1 X89.927 Y104.289 E.03427
G1 X90.337 Y103.535 E.02691
G1 X91.243 Y102.603 E.04075
G1 X92.023 Y102.147 E.02833
G1 X92.959 Y100.265 E.0659
G1 X94.546 Y97.901 E.08927
G1 X95.699 Y96.635 E.05369
G1 X95.958 Y96.848 F9000
G1 F1200
G1 X96.051 Y96.735 E.00459
G1 X97.426 Y95.425 E.05955
G1 X98.919 Y94.26 E.05938
G1 X100.472 Y93.274 E.05768
G1 X101.39 Y92.785 E.03261
G1 X103.113 Y92.026 E.05903
G1 X105.772 Y91.221 E.08711
G1 X107.606 Y90.9 E.05838
G1 X109.491 Y90.757 E.05927
G1 X111.417 Y90.803 E.06041
G1 X113.279 Y91.032 E.05882
G1 X115.114 Y91.442 E.05895
G1 X116.91 Y92.034 E.05929
G1 X118.631 Y92.794 E.05899
G1 X120.268 Y93.718 E.05894
G1 X121.817 Y94.805 E.05933
G1 X123.258 Y96.045 E.05961
G1 X124.564 Y97.414 E.05932
G1 X125.723 Y98.895 E.05896
G1 X126.737 Y100.492 E.05931
G1 X127.597 Y102.198 E.0599
G1 X128.272 Y103.946 E.05875
G1 X128.764 Y105.707 E.05733
G1 X129.079 Y107.452 E.0556
G1 X129.232 Y109.197 E.05492
G1 X129.234 Y110.769 E.04929
G1 X129.11 Y112.315 E.04863
G1 X128.637 Y114.813 E.07971
G1 X128.063 Y116.649 E.06031
G1 X127.316 Y118.405 E.05983
G1 X126.4 Y120.076 E.05975
G1 X125.317 Y121.657 E.06009
G1 X124.069 Y123.136 E.06068
G1 X122.699 Y124.464 E.05982
G1 X121.214 Y125.644 E.05947
G1 X119.603 Y126.682 E.06009
G1 X117.897 Y127.554 E.06007
G1 X116.111 Y128.252 E.06012
G1 X114.267 Y128.769 E.06005
G1 X112.379 Y129.1 E.0601
G1 X110.458 Y129.243 E.0604
G1 X107.562 Y129.094 E.09092
G1 X105.675 Y128.757 E.0601
G1 X103.831 Y128.234 E.0601
G1 X102.068 Y127.539 E.05942
G1 X100.345 Y126.653 E.06075
G1 X98.754 Y125.623 E.05943
G1 X97.257 Y124.427 E.06008
G1 X95.926 Y123.133 E.0582
G1 X94.691 Y121.669 E.06005
G1 X93.601 Y120.08 E.06042
G1 X92.68 Y118.399 E.0601
G1 X91.931 Y116.636 E.06006
G1 X91.36 Y114.807 E.06008
G1 X90.978 Y112.942 E.05969
G1 X90.785 Y111.13 E.05714
G1 X90.814 Y108.596 E.07946
G1 X90.275 Y107.816 E.02973
G1 X90.067 Y107.119 E.02281
G1 X90.038 Y105.368 E.05491
G1 X90.286 Y104.407 E.03112
G1 X90.654 Y103.741 E.02386
G1 X91.496 Y102.884 E.03767
G1 X92.3 Y102.447 E.02869
G1 X93.284 Y100.455 E.06966
G1 X94.286 Y98.883 E.05845
G1 X95.92 Y96.895 E.08069
G1 X96.226 Y97.173 F9000
G1 F1200
G1 X97.008 Y96.312 E.03647
G1 X99.139 Y94.566 E.08638
G1 X101.555 Y93.124 E.08822
G1 X104.121 Y92.067 E.08701
G1 X105.85 Y91.59 E.05624
G1 X107.657 Y91.274 E.05752
G1 X110.48 Y91.135 E.08862
G1 X112.294 Y91.269 E.05703
G1 X114.121 Y91.584 E.05813
G1 X115.881 Y92.069 E.05724
G1 X117.638 Y92.744 E.05902
G1 X119.254 Y93.553 E.05666
G1 X120.838 Y94.551 E.0587
G1 X122.288 Y95.677 E.05756
G1 X123.667 Y96.986 E.05962
G1 X124.848 Y98.353 E.05664
G1 X125.93 Y99.882 E.05873
G1 X126.842 Y101.485 E.05783
G1 X127.61 Y103.215 E.05935
G1 X128.178 Y104.929 E.05662
G1 X128.575 Y106.666 E.05587
G1 X128.8 Y108.347 E.05318
G1 X128.857 Y110.758 E.07562
G1 X128.735 Y112.271 E.04759
G1 X128.485 Y113.807 E.04879
G1 X128.019 Y115.609 E.05836
G1 X127.36 Y117.403 E.05992
G1 X126.558 Y119.055 E.05758
G1 X125.57 Y120.665 E.05923
G1 X124.439 Y122.153 E.0586
G1 X123.128 Y123.558 E.06025
G1 X121.756 Y124.763 E.05725
G1 X120.221 Y125.865 E.05925
G1 X118.611 Y126.793 E.05827
G1 X116.87 Y127.578 E.05988
G1 X115.118 Y128.165 E.05793
G1 X113.266 Y128.588 E.05956
G1 X111.411 Y128.819 E.05861
G1 X109.485 Y128.865 E.06041
G1 X107.614 Y128.721 E.05884
G1 X105.764 Y128.391 E.05892
G1 X103.956 Y127.878 E.05893
G1 X102.228 Y127.198 E.05822
G1 X100.538 Y126.329 E.05958
G1 X98.978 Y125.319 E.05827
G1 X97.51 Y124.147 E.0589
G1 X95.569 Y122.16 E.08709
G1 X94.452 Y120.694 E.05779
G1 X93.461 Y119.086 E.05922
G1 X92.643 Y117.405 E.05862
G1 X91.982 Y115.609 E.06001
G1 X91.515 Y113.804 E.05846
G1 X91.233 Y111.989 E.05759
G1 X91.129 Y110.22 E.05556
G1 X91.201 Y108.465 E.05507
G1 X90.813 Y108.016 E.01861
G1 X90.616 Y107.654 E.01292
G1 X90.437 Y107.039 E.02008
G1 X90.415 Y105.39 E.05171
G1 X90.643 Y104.528 E.02796
G1 X90.969 Y103.949 E.02083
G1 X91.746 Y103.167 E.03456
G1 X92.59 Y102.744 E.0296
G1 X93.61 Y100.645 E.07317
G1 X95.135 Y98.374 E.08577
G1 X96.186 Y97.217 E.04901
G1 X96.45 Y97.435 F9000
G1 F1200
G1 X96.603 Y97.249 E.00755
G1 X97.911 Y96.002 E.05666
G1 X99.36 Y94.872 E.05761
G1 X100.852 Y93.925 E.05541
G1 X103.375 Y92.733 E.08749
G1 X105.928 Y91.959 E.08365
G1 X107.708 Y91.647 E.05666
G1 X109.52 Y91.511 E.05697
G1 X111.362 Y91.555 E.05777
G1 X113.141 Y91.774 E.0562
G1 X114.905 Y92.167 E.05666
G1 X116.631 Y92.734 E.05696
G1 X118.285 Y93.464 E.05669
G1 X119.866 Y94.356 E.05692
G1 X121.354 Y95.4 E.05699
G1 X122.732 Y96.585 E.05698
G1 X123.988 Y97.9 E.05702
G1 X125.107 Y99.33 E.05693
G1 X126.081 Y100.865 E.057
G1 X126.904 Y102.496 E.05728
G1 X127.556 Y104.183 E.05671
G1 X128.03 Y105.883 E.05534
G1 X128.331 Y107.544 E.05293
G1 X128.479 Y109.222 E.05282
G1 X128.48 Y110.746 E.04778
G1 X128.361 Y112.228 E.04662
G1 X127.909 Y114.616 E.0762
G1 X127.358 Y116.381 E.05797
G1 X126.638 Y118.076 E.05774
G1 X125.757 Y119.681 E.05741
G1 X124.717 Y121.2 E.05772
G1 X123.523 Y122.615 E.05805
G1 X122.208 Y123.892 E.05747
G1 X120.768 Y125.036 E.05766
G1 X119.219 Y126.032 E.05774
G1 X117.579 Y126.87 E.05775
G1 X115.863 Y127.54 E.05776
G1 X114.091 Y128.036 E.0577
G1 X112.277 Y128.353 E.05774
G1 X110.44 Y128.489 E.05776
G1 X107.666 Y128.347 E.08709
G1 X105.853 Y128.024 E.05774
G1 X104.081 Y127.522 E.05775
G1 X102.387 Y126.856 E.05707
G1 X100.73 Y126.005 E.05841
G1 X99.202 Y125.016 E.05707
G1 X97.762 Y123.868 E.05774
G1 X96.471 Y122.611 E.0565
G1 X95.291 Y121.212 E.05738
G1 X94.238 Y119.676 E.05839
G1 X93.354 Y118.061 E.05773
G1 X92.638 Y116.375 E.05743
G1 X92.091 Y114.618 E.0577
G1 X91.607 Y111.944 E.0852
G1 X91.506 Y110.22 E.05415
G1 X91.588 Y108.336 E.05913
G1 X91.112 Y107.787 E.02278
G1 X90.806 Y106.961 E.02762
G1 X90.792 Y105.414 E.04851
G1 X91 Y104.652 E.02477
G1 X91.283 Y104.159 E.01782
G1 X91.963 Y103.476 E.03022
G1 X92.387 Y103.216 E.01559
G1 X92.875 Y103.045 E.01621
G1 X93.936 Y100.836 E.07684
G1 X94.907 Y99.311 E.05669
G1 X96.412 Y97.481 E.07429
G1 X96.714 Y97.755 F9000
G1 F1200
G1 X97.528 Y96.859 E.03796
G1 X99.581 Y95.178 E.0832
G1 X101.901 Y93.794 E.0847
G1 X104.347 Y92.786 E.08295
G1 X106.005 Y92.328 E.05393
G1 X107.759 Y92.021 E.05583
G1 X110.47 Y91.889 E.0851
G1 X112.194 Y92.016 E.0542
G1 X113.948 Y92.318 E.0558
G1 X115.638 Y92.782 E.05495
G1 X117.325 Y93.43 E.05666
G1 X118.876 Y94.206 E.05438
G1 X120.398 Y95.164 E.05639
G1 X121.79 Y96.243 E.05522
G1 X123.115 Y97.5 E.05726
G1 X124.249 Y98.811 E.05435
G1 X125.288 Y100.278 E.05636
G1 X126.164 Y101.817 E.05552
G1 X126.903 Y103.478 E.057
G1 X127.454 Y105.14 E.0549
G1 X127.832 Y106.791 E.05311
G1 X128.048 Y108.405 E.05106
G1 X128.103 Y110.735 E.07308
G1 X127.986 Y112.184 E.04558
G1 X127.747 Y113.648 E.04651
G1 X127.302 Y115.376 E.05595
G1 X126.67 Y117.099 E.05754
G1 X125.901 Y118.684 E.05524
G1 X124.953 Y120.231 E.05689
G1 X123.868 Y121.659 E.05623
