; generated by PrusaSlicer 2.7.1+linux-x64-GTK3 on 2023-12-20 at 07:12:28 UTC


;
;

;
;
; 

; external perimeters extrusion width = 0.42mm
; perimeters extrusion width = 0.44mm
; infill extrusion width = 0.44mm
; solid infill extrusion width = 0.44mm
; top infill extrusion width = 0.40mm
; support material extrusion width = 0.36mm
; first layer extrusion width = 0.42mm

M201 X500 Y500 Z100 E5000 ; sets maximum accelerations, mm/sec^2
M203 X500 Y500 Z10 E60 ; sets maximum feedrates, mm / sec
M204 P500 R1000 T500 ; sets acceleration (P, T) and retract acceleration (R), mm/sec^2
M205 X8.00 Y8.00 Z0.40 E5.00 ; sets the jerk limits, mm/sec
M205 S0 T0 ; sets the minimum extruding and travel feed rate, mm/sec

; printing object nameplate.stl id:0 copy 0
; stop printing object nameplate.stl id:0 copy 0

;TYPE:Custom
BED_MESH_PROFILE LOAD=default
G90 ; use absolute coordinates
M83 ; extruder relative mode
M104 S150 ; set temporary nozzle temp to prevent oozing during homing
M140 S60 ; set final bed temp
G4 S30 ; allow partial nozzle warmup
G28 ; home all axis
G1 Z50 F240
G1 X2.0 Y10 F3000
M104 S210 ; set final nozzle temp
M190 S60 ; wait for bed temp to stabilize
M109 S210 ; wait for nozzle temp to stabilize
G1 Z0.28 F240
G92 E0
G1 X2.0 Y140 E10 F1500 ; prime the nozzle
G1 X2.3 Y140 F5000
G92 E0
G1 X2.3 Y10 E10 F1200 ; prime the nozzle
G92 E0
G21 ; set units to millimeters
G90 ; use absolute coordinates
M83 ; use relative distances for extrusion
; Filament gcode
M107
;LAYER_CHANGE
;Z:0.2
;HEIGHT:0.2
;BEFORE_LAYER_CHANGE
G92 E0
;0.2


G1 E-5 F3600
G1 Z.2 F9000
;AFTER_LAYER_CHANGE
;0.2
G1 X73.895 Y94.86
G1 Z.2
G1 E5 F2400
;TYPE:Skirt/Brim
;WIDTH:0.42
G1 F1200
G1 X75.047 Y94.129 E.04278
G1 X76.339 Y93.519 E.0448
G1 X78.246 Y92.951 E.06239
G1 X79.419 Y92.775 E.03719
G1 X80.386 Y92.724 E.03036
G1 X139.563 Y92.723 E1.85545
G1 X141.512 Y92.904 E.06137
G1 X143.477 Y93.448 E.06393
G1 X145.249 Y94.299 E.06163
G1 X146.073 Y94.837 E.03086
G1 X147.02 Y95.596 E.03805
G1 X148.413 Y97.092 E.06409
G1 X149.478 Y98.745 E.06165
G1 X150.239 Y100.557 E.06162
G1 X150.688 Y102.582 E.06503
G1 X150.777 Y103.937 E.04258
G1 X150.771 Y116.364 E.38964
G1 X150.627 Y117.832 E.04625
G1 X150.293 Y119.269 E.04626
G1 X149.869 Y120.433 E.03884
G1 X149.294 Y121.591 E.04054
G1 X148.663 Y122.573 E.0366
G1 X147.778 Y123.659 E.04393
G1 X146.849 Y124.554 E.04045
G1 X145.924 Y125.269 E.03666
G1 X144.823 Y125.941 E.04044
G1 X143.697 Y126.467 E.03897
G1 X142.769 Y126.793 E.03084
G1 X141.584 Y127.083 E.03825
G1 X139.617 Y127.276 E.06197
G1 X79.572 Y127.239 E1.88267
G1 X78.006 Y126.998 E.04968
G1 X76.523 Y126.552 E.04856
G1 X74.973 Y125.83 E.05361
G1 X73.737 Y125.024 E.04627
G1 X72.568 Y124.016 E.0484
G1 X71.586 Y122.908 E.04642
G1 X70.707 Y121.591 E.04965
G1 X70.033 Y120.197 E.04855
G1 X69.463 Y118.315 E.06166
G1 X69.229 Y116.364 E.06161
G1 X69.224 Y103.85 E.39237
G1 X69.308 Y102.62 E.03866
G1 X69.503 Y101.502 E.03558
G1 X69.884 Y100.195 E.04269
G1 X70.407 Y98.97 E.04176
G1 X71.127 Y97.729 E.04499
G1 X71.953 Y96.644 E.04276
G1 X72.956 Y95.618 E.04499
G1 X73.848 Y94.897 E.03596
G1 E-3.5 F3600
;WIPE_START
G1 F7200
G1 X73.895 Y94.86 E-.02841
G1 X75.047 Y94.129 E-.64807
G1 X76.339 Y93.519 E-.67866
G1 X76.631 Y93.432 E-.14486
;WIPE_END
G1 X76.011 Y97.873 F9000
G1 E5 F2400
G1 F1200
G1 X76.463 Y97.545 E.01751
G1 X77.384 Y97.054 E.03272
G1 X78.385 Y96.687 E.03343
G1 X79.383 Y96.469 E.03203
G1 X80.421 Y96.387 E.03265
G1 X139.775 Y96.389 E1.861
G1 X141.158 Y96.57 E.04373
G1 X142.508 Y97.007 E.04449
G1 X143.719 Y97.66 E.04314
G1 X144.811 Y98.542 E.04401
G1 X145.741 Y99.64 E.04512
G1 X146.456 Y100.905 E.04556
G1 X146.887 Y102.148 E.04125
G1 X147.103 Y103.609 E.04631
G1 X147.114 Y116.081 E.39105
G1 X147.04 Y117.054 E.0306
G1 X146.839 Y118.025 E.03109
G1 X146.336 Y119.354 E.04455
G1 X145.809 Y120.26 E.03286
G1 X145.143 Y121.11 E.03386
G1 X144.384 Y121.84 E.03302
G1 X143.526 Y122.461 E.03321
G1 X142.587 Y122.958 E.03331
G1 X141.599 Y123.318 E.03297
G1 X140.599 Y123.533 E.03207
G1 X139.579 Y123.613 E.03208
G1 X80.076 Y123.6 E1.86567
G1 X78.912 Y123.445 E.03682
G1 X77.786 Y123.113 E.03681
G1 X76.726 Y122.612 E.03676
G1 X75.761 Y121.958 E.03655
G1 X74.898 Y121.154 E.03698
G1 X74.165 Y120.221 E.0372
G1 X73.594 Y119.203 E.0366
G1 X73.187 Y118.113 E.03648
G1 X72.97 Y117.125 E.03172
G1 X72.887 Y116.079 E.0329
G1 X72.887 Y103.917 E.38133
G1 X72.966 Y102.903 E.03189
G1 X73.186 Y101.889 E.03253
G1 X73.64 Y100.695 E.04005
G1 X74.163 Y99.782 E.03299
G1 X74.844 Y98.904 E.03484
G1 X75.615 Y98.161 E.03357
G1 X75.962 Y97.909 E.01345
G1 X76.184 Y98.213 F9000
G1 F1200
G1 X76.652 Y97.871 E.01817
G1 X77.55 Y97.393 E.0319
G1 X78.502 Y97.046 E.03177
G1 X79.45 Y96.84 E.03042
G1 X80.428 Y96.764 E.03076
G1 X139.762 Y96.766 E1.86038
G1 X141.091 Y96.941 E.04203
G1 X142.375 Y97.36 E.04235
G1 X143.506 Y97.971 E.04031
G1 X144.551 Y98.815 E.04212
G1 X145.441 Y99.869 E.04325
G1 X146.118 Y101.075 E.04336
G1 X146.519 Y102.234 E.03845
G1 X146.727 Y103.638 E.0445
G1 X146.736 Y116.074 E.38992
G1 X146.665 Y117.013 E.02953
G1 X146.473 Y117.933 E.02947
G1 X146.002 Y119.178 E.04174
G1 X145.504 Y120.039 E.03119
G1 X144.872 Y120.848 E.03219
G1 X144.152 Y121.543 E.03138
G1 X143.337 Y122.135 E.03158
G1 X142.446 Y122.609 E.03164
G1 X141.483 Y122.959 E.03213
G1 X140.557 Y123.159 E.0297
G1 X139.571 Y123.236 E.03101
G1 X80.112 Y123.225 E1.8643
G1 X79.004 Y123.079 E.03504
G1 X77.907 Y122.756 E.03586
G1 X76.901 Y122.278 E.03492
G1 X75.986 Y121.655 E.03471
G1 X75.166 Y120.889 E.03518
G1 X74.471 Y120.001 E.03536
G1 X73.93 Y119.032 E.0348
G1 X73.545 Y117.995 E.03468
G1 X73.342 Y117.057 E.03009
G1 X73.264 Y116.071 E.03101
G1 X73.264 Y103.924 E.38086
G1 X73.341 Y102.945 E.03079
G1 X73.551 Y101.983 E.03087
G1 X73.975 Y100.869 E.03737
G1 X74.47 Y100.001 E.03133
G1 X75.116 Y99.166 E.0331
G1 X75.848 Y98.458 E.03193
G1 X76.136 Y98.248 E.01118
G1 X76.358 Y98.553 F9000
G1 F1200
G1 X76.864 Y98.184 E.01964
G1 X77.715 Y97.733 E.0302
G1 X78.618 Y97.404 E.03013
G1 X79.516 Y97.212 E.02879
G1 X80.435 Y97.141 E.0289
G1 X139.75 Y97.143 E1.85978
G1 X141.024 Y97.313 E.0403
G1 X142.241 Y97.713 E.04017
G1 X143.292 Y98.283 E.03749
G1 X144.292 Y99.089 E.04027
G1 X145.121 Y100.07 E.04027
G1 X145.768 Y101.215 E.04124
G1 X146.152 Y102.32 E.03668
G1 X146.351 Y103.666 E.04266
G1 X146.359 Y116.067 E.38882
G1 X146.29 Y116.972 E.02846
G1 X146.107 Y117.841 E.02784
G1 X145.667 Y119.003 E.03896
G1 X145.198 Y119.818 E.02948
G1 X144.6 Y120.586 E.03052
G1 X143.9 Y121.262 E.03051
G1 X143.127 Y121.822 E.02993
G1 X142.282 Y122.269 E.02997
G1 X141.367 Y122.6 E.03051
G1 X140.49 Y122.787 E.02812
G1 X139.564 Y122.859 E.02912
G1 X80.149 Y122.85 E1.86292
G1 X79.096 Y122.713 E.03329
G1 X78.054 Y122.408 E.03404
G1 X77.1 Y121.957 E.03309
G1 X76.232 Y121.369 E.03287
G1 X75.453 Y120.644 E.03337
G1 X74.792 Y119.803 E.03354
G1 X74.279 Y118.887 E.03292
G1 X73.903 Y117.876 E.03382
G1 X73.713 Y116.991 E.02838
G1 X73.641 Y116.064 E.02915
G1 X73.641 Y103.932 E.38039
G1 X73.716 Y102.988 E.02969
G1 X73.917 Y102.078 E.02922
G1 X74.31 Y101.043 E.03471
G1 X74.777 Y100.221 E.02964
G1 X75.388 Y99.427 E.03141
G1 X76.081 Y98.754 E.03029
G1 X76.309 Y98.588 E.00884
G1 X76.532 Y98.892 F9000
G1 F1200
G1 X77.052 Y98.511 E.02021
G1 X77.879 Y98.072 E.02936
G1 X78.734 Y97.763 E.0285
G1 X79.558 Y97.587 E.02642
G1 X80.443 Y97.518 E.02783
G1 X139.738 Y97.52 E1.85915
G1 X140.924 Y97.677 E.03751
G1 X142.077 Y98.053 E.03803
G1 X143.079 Y98.594 E.0357
G1 X144.031 Y99.363 E.03837
G1 X144.821 Y100.299 E.0384
G1 X145.431 Y101.384 E.03903
G1 X145.784 Y102.406 E.0339
G1 X145.975 Y103.694 E.04083
G1 X145.982 Y116.06 E.38773
G1 X145.918 Y116.906 E.0266
G1 X145.741 Y117.749 E.02701
G1 X145.333 Y118.829 E.0362
G1 X144.892 Y119.597 E.02777
G1 X144.328 Y120.325 E.02887
G1 X143.667 Y120.965 E.02885
G1 X142.939 Y121.495 E.02823
G1 X142.117 Y121.929 E.02914
G1 X141.252 Y122.241 E.02883
G1 X140.425 Y122.416 E.0265
G1 X139.557 Y122.482 E.02729
G1 X80.184 Y122.474 E1.8616
G1 X79.186 Y122.347 E.03154
G1 X78.201 Y122.061 E.03216
G1 X77.3 Y121.637 E.03122
G1 X76.456 Y121.065 E.03197
G1 X75.721 Y120.379 E.03152
G1 X75.099 Y119.583 E.03167
G1 X74.615 Y118.716 E.03113
G1 X74.262 Y117.759 E.03198
G1 X74.084 Y116.925 E.02674
G1 X74.018 Y116.057 E.02729
G1 X74.018 Y103.94 E.37992
G1 X74.091 Y103.032 E.02856
G1 X74.282 Y102.173 E.02759
G1 X74.646 Y101.216 E.0321
G1 X75.084 Y100.439 E.02797
G1 X75.661 Y99.687 E.02972
G1 X76.315 Y99.051 E.0286
G1 X76.483 Y98.927 E.00655
G1 X76.707 Y99.231 F9000
G1 F1200
G1 X77.242 Y98.837 E.02083
G1 X78.044 Y98.412 E.02846
G1 X78.849 Y98.123 E.02682
G1 X79.624 Y97.958 E.02484
G1 X80.45 Y97.895 E.02597
G1 X139.725 Y97.898 E1.85853
G1 X140.857 Y98.048 E.0358
G1 X141.943 Y98.405 E.03584
G1 X142.867 Y98.906 E.03296
G1 X143.771 Y99.636 E.03643
G1 X144.521 Y100.528 E.03654
G1 X145.093 Y101.553 E.0368
G1 X145.417 Y102.492 E.03115
G1 X145.599 Y103.722 E.03899
G1 X145.605 Y116.053 E.38663
G1 X145.543 Y116.865 E.02553
G1 X145.375 Y117.657 E.02539
G1 X144.998 Y118.655 E.03345
G1 X144.585 Y119.378 E.02611
G1 X144.055 Y120.064 E.02718
G1 X143.434 Y120.668 E.02716
G1 X142.728 Y121.182 E.02738
G1 X141.954 Y121.589 E.02742
G1 X141.137 Y121.881 E.0272
G1 X140.36 Y122.044 E.02489
G1 X139.55 Y122.105 E.02547
G1 X80.219 Y122.098 E1.86028
G1 X79.276 Y121.98 E.0298
G1 X78.347 Y121.713 E.03031
G1 X77.498 Y121.315 E.0294
G1 X76.702 Y120.779 E.03009
G1 X75.99 Y120.114 E.03055
G1 X75.405 Y119.363 E.02985
G1 X74.952 Y118.547 E.02926
G1 X74.62 Y117.642 E.03022
G1 X74.456 Y116.86 E.02505
G1 X74.395 Y116.05 E.02547
G1 X74.395 Y103.947 E.37948
G1 X74.465 Y103.076 E.0274
G1 X74.647 Y102.269 E.02594
G1 X74.981 Y101.388 E.02954
G1 X75.392 Y100.657 E.02629
G1 X75.935 Y99.947 E.02803
G1 X76.549 Y99.346 E.02694
G1 X76.658 Y99.266 E.00424
G1 X76.88 Y99.569 F9000
G1 F1200
G1 X77.453 Y99.15 E.02226
G1 X78.208 Y98.752 E.02676
G1 X78.963 Y98.482 E.02514
G1 X80.457 Y98.272 E.0473
G1 X139.712 Y98.275 E1.8579
G1 X140.788 Y98.419 E.03404
G1 X141.808 Y98.758 E.0337
G1 X142.653 Y99.217 E.03015
G1 X143.511 Y99.909 E.03456
G1 X144.22 Y100.756 E.03463
G1 X144.755 Y101.721 E.0346
G1 X145.05 Y102.579 E.02845
G1 X145.223 Y103.75 E.03711
G1 X145.228 Y116.046 E.38553
G1 X145.168 Y116.823 E.02443
G1 X145.01 Y117.564 E.02376
G1 X144.663 Y118.481 E.03074
G1 X144.278 Y119.158 E.02442
G1 X143.782 Y119.804 E.02554
G1 X143.2 Y120.372 E.0255
G1 X142.539 Y120.855 E.02567
G1 X141.814 Y121.239 E.02572
G1 X141.023 Y121.521 E.02633
G1 X139.543 Y121.728 E.04686
G1 X80.253 Y121.723 E1.859
G1 X79.365 Y121.614 E.02805
G1 X78.492 Y121.364 E.02847
G1 X77.695 Y120.994 E.02755
G1 X76.947 Y120.492 E.02825
G1 X76.278 Y119.87 E.02864
G1 X75.712 Y119.143 E.02889
G1 X75.29 Y118.378 E.02739
G1 X74.98 Y117.526 E.02843
G1 X74.828 Y116.796 E.02338
G1 X74.772 Y116.043 E.02367
G1 X74.772 Y103.955 E.37901
G1 X74.836 Y103.144 E.02551
G1 X75.004 Y102.389 E.02425
G1 X75.318 Y101.56 E.02779
G1 X75.701 Y100.875 E.02461
G1 X76.208 Y100.207 E.02629
G1 X76.803 Y99.626 E.02607
G1 X76.832 Y99.605 E.00112
G1 X77.056 Y99.905 F9000
G1 F1200
G1 X77.663 Y99.463 E.02354
G1 X78.37 Y99.092 E.02503
G1 X79.077 Y98.842 E.02351
G1 X80.464 Y98.649 E.04391
G1 X139.7 Y98.652 E1.8573
G1 X140.688 Y98.783 E.03125
G1 X141.644 Y99.098 E.03156
G1 X142.441 Y99.529 E.02841
G1 X143.25 Y100.181 E.03258
G1 X143.919 Y100.983 E.03275
G1 X144.404 Y101.86 E.03142
G1 X144.683 Y102.666 E.02674
G1 X144.846 Y103.778 E.03524
G1 X144.851 Y116.039 E.38444
G1 X144.644 Y117.471 E.04537
G1 X144.327 Y118.309 E.02809
G1 X143.97 Y118.94 E.02273
G1 X143.508 Y119.544 E.02384
G1 X142.947 Y120.092 E.02459
G1 X142.329 Y120.542 E.02397
G1 X141.651 Y120.899 E.02403
G1 X140.91 Y121.162 E.02465
G1 X139.536 Y121.351 E.04349
G1 X80.287 Y121.347 E1.85771
G1 X79.453 Y121.247 E.02634
G1 X78.637 Y121.016 E.02659
G1 X77.868 Y120.658 E.0266
G1 X77.171 Y120.188 E.02636
G1 X76.547 Y119.605 E.02678
G1 X76.019 Y118.925 E.02699
G1 X75.627 Y118.21 E.02557
G1 X75.339 Y117.411 E.02663
G1 X75.149 Y116.036 E.04352
G1 X75.149 Y103.962 E.37857
G1 X75.208 Y103.212 E.02359
G1 X75.362 Y102.51 E.02253
G1 X75.665 Y101.706 E.02694
G1 X76.023 Y101.072 E.02283
G1 X76.499 Y100.447 E.02463
G1 X77.013 Y99.947 E.02248
G1 X77.275 Y100.218 F9000
G1 F1200
G1 X77.308 Y100.186 E.00144
G1 X77.873 Y99.777 E.02187
G1 X78.532 Y99.433 E.02331
G1 X79.189 Y99.202 E.02184
G1 X80.47 Y99.026 E.04054
G1 X139.687 Y99.029 E1.85671
G1 X140.619 Y99.154 E.02948
G1 X141.509 Y99.45 E.02941
G1 X142.229 Y99.841 E.02569
G1 X142.989 Y100.454 E.03061
G1 X143.598 Y101.183 E.02978
G1 X144.054 Y102 E.02934
G1 X144.413 Y103.231 E.0402
G1 X144.47 Y103.805 E.01809
G1 X144.474 Y116.032 E.38337
G1 X144.278 Y117.378 E.04265
G1 X143.991 Y118.137 E.02544
G1 X143.662 Y118.722 E.02104
G1 X143.234 Y119.284 E.02215
G1 X142.713 Y119.796 E.0229
G1 X142.119 Y120.229 E.02305
G1 X141.488 Y120.558 E.02231
G1 X140.797 Y120.801 E.02297
G1 X139.53 Y120.974 E.04009
G1 X80.32 Y120.971 E1.85649
G1 X79.541 Y120.88 E.02459
G1 X78.755 Y120.657 E.02562
G1 X78.042 Y120.323 E.02469
G1 X77.395 Y119.885 E.0245
G1 X76.816 Y119.341 E.02491
G1 X76.328 Y118.707 E.02509
G1 X75.966 Y118.043 E.02371
G1 X75.699 Y117.297 E.02484
G1 X75.572 Y116.67 E.02006
G1 X75.526 Y103.969 E.39823
G1 X75.579 Y103.279 E.0217
G1 X75.72 Y102.629 E.02085
G1 X76.001 Y101.878 E.02514
G1 X76.331 Y101.29 E.02114
G1 X76.79 Y100.687 E.02376
G1 X77.232 Y100.26 E.01927
G1 X77.501 Y100.578 F9000
G1 F1200
G1 X78.06 Y100.104 E.02298
G1 X79.3 Y99.563 E.04242
G1 X80.477 Y99.403 E.03724
G1 X139.674 Y99.406 E1.85608
G1 X140.551 Y99.526 E.02775
G1 X141.344 Y99.79 E.02621
G1 X142.016 Y100.153 E.02395
G1 X142.728 Y100.726 E.02866
G1 X143.278 Y101.383 E.02687
G1 X143.703 Y102.14 E.02722
G1 X143.949 Y102.843 E.02335
G1 X144.094 Y103.833 E.03137
G1 X144.047 Y116.673 E.40259
G1 X143.655 Y117.965 E.04233
G1 X142.96 Y119.025 E.03974
G1 X142.459 Y119.517 E.02202
G1 X141.909 Y119.915 E.02129
G1 X140.685 Y120.441 E.04177
G1 X139.523 Y120.597 E.03676
G1 X80.331 Y120.594 E1.85592
G1 X79.601 Y120.507 E.02305
G1 X78.874 Y120.299 E.02371
G1 X78.217 Y119.989 E.02278
G1 X77.621 Y119.582 E.02263
G1 X77.087 Y119.078 E.02302
G1 X76.636 Y118.49 E.02323
G1 X76.305 Y117.876 E.02187
G1 X76.059 Y117.185 E.023
G1 X75.903 Y116.024 E.03673
G1 X75.95 Y103.345 E.39754
G1 X76.338 Y102.048 E.04245
G1 X77.064 Y100.947 E.04135
G1 X77.455 Y100.616 E.01606
G1 X77.695 Y100.901 F9000
G1 F1200
G1 X78.27 Y100.418 E.02355
G1 X78.855 Y100.115 E.02066
G1 X79.411 Y99.924 E.01843
G1 X80.483 Y99.78 E.03391
G1 X139.662 Y99.783 E1.85552
G1 X140.45 Y99.889 E.02493
G1 X141.181 Y100.13 E.02413
G1 X141.804 Y100.465 E.02218
G1 X142.466 Y100.998 E.02665
G1 X142.978 Y101.611 E.02504
G1 X143.353 Y102.281 E.02407
G1 X143.665 Y103.326 E.03419
G1 X143.72 Y116.018 E.39795
G1 X143.555 Y117.164 E.0363
G1 X143.044 Y118.29 E.03877
G1 X142.226 Y119.22 E.03883
G1 X141.212 Y119.856 E.03753
G1 X140.573 Y120.081 E.02124
G1 X139.517 Y120.22 E.0334
G1 X80.342 Y120.217 E1.85539
G1 X79.69 Y120.14 E.02059
G1 X78.993 Y119.941 E.02273
G1 X78.393 Y119.655 E.02084
G1 X77.847 Y119.28 E.02077
G1 X77.358 Y118.815 E.02116
G1 X76.946 Y118.274 E.02132
G1 X76.644 Y117.711 E.02003
G1 X76.419 Y117.073 E.02121
G1 X76.28 Y116.017 E.0334
G1 X76.28 Y103.983 E.37732
G1 X76.437 Y102.864 E.03543
G1 X76.675 Y102.217 E.02162
G1 X77.355 Y101.187 E.0387
G1 X77.649 Y100.94 E.01204
G1 X77.891 Y101.225 F9000
G1 F1200
G1 X78.456 Y100.746 E.02322
G1 X79.52 Y100.285 E.03636
G1 X80.489 Y100.157 E.03065
G1 X139.649 Y100.16 E1.85492
G1 X140.35 Y100.253 E.02217
G1 X141.018 Y100.471 E.02203
G1 X141.592 Y100.777 E.0204
G1 X142.204 Y101.27 E.02464
G1 X142.658 Y101.812 E.02217
G1 X143.004 Y102.423 E.02202
G1 X143.217 Y103.023 E.01996
G1 X143.34 Y103.853 E.02631
G1 X143.304 Y116.541 E.39782
G1 X142.981 Y117.625 E.03546
G1 X142.409 Y118.51 E.03304
G1 X141.531 Y119.262 E.03625
G1 X140.461 Y119.72 E.03649
G1 X139.511 Y119.843 E.03004
G1 X80.353 Y119.84 E1.85486
G1 X79.139 Y119.593 E.03884
G1 X78.073 Y118.978 E.03859
G1 X77.256 Y118.058 E.03858
G1 X76.78 Y116.961 E.03749
G1 X76.657 Y116.011 E.03004
G1 X76.694 Y103.473 E.39312
G1 X77.013 Y102.386 E.03552
G1 X77.628 Y101.448 E.03517
