; generated by PrusaSlicer 2.7.1+linux-x64-GTK3 on 2024-01-06 at 15:51:56 UTC


;
;

;
;
; 

; external perimeters extrusion width = 0.42mm
; perimeters extrusion width = 0.44mm
; infill extrusion width = 0.44mm
; solid infill extrusion width = 0.44mm
; top infill extrusion width = 0.40mm
; support material extrusion width = 0.36mm
; first layer extrusion width = 0.42mm

M201 X500 Y500 Z100 E5000 ; sets maximum accelerations, mm/sec^2
M203 X500 Y500 Z10 E60 ; sets maximum feedrates, mm / sec
M204 P500 R1000 T500 ; sets acceleration (P, T) and retract acceleration (R), mm/sec^2
M205 X8.00 Y8.00 Z0.40 E5.00 ; sets the jerk limits, mm/sec
M205 S0 T0 ; sets the minimum extruding and travel feed rate, mm/sec

; printing object Part Studio 1 - Part 1.stl id:0 copy 0
; stop printing object Part Studio 1 - Part 1.stl id:0 copy 0

;TYPE:Custom
BED_MESH_PROFILE LOAD=default
G90 ; use absolute coordinates
M83 ; extruder relative mode
M104 S150 ; set temporary nozzle temp to prevent oozing during homing
M140 S60 ; set final bed temp
G4 S30 ; allow partial nozzle warmup
G28 ; home all axis
G1 Z50 F240
G1 X2.0 Y10 F3000
M104 S210 ; set final nozzle temp
M190 S60 ; wait for bed temp to stabilize
M109 S210 ; wait for nozzle temp to stabilize
G1 Z0.28 F240
G92 E0
G1 X2.0 Y140 E10 F1500 ; prime the nozzle
G1 X2.3 Y140 F5000
G92 E0
G1 X2.3 Y10 E10 F1200 ; prime the nozzle
G92 E0
G21 ; set units to millimeters
G90 ; use absolute coordinates
M83 ; use relative distances for extrusion
; Filament gcode
M107
;LAYER_CHANGE
;Z:0.2
;HEIGHT:0.2
;BEFORE_LAYER_CHANGE
G92 E0
;0.2


G1 E-5 F3600
G1 Z.2 F9000
;AFTER_LAYER_CHANGE
;0.2
G1 X28.054 Y31.325
G1 Z.2
G1 E5 F2400
;TYPE:Skirt/Brim
;WIDTH:0.42
G1 F1200
G1 X50.795 Y10.958 E.95719
G1 X52.238 Y10.196 E.05117
G1 X53.234 Y10.102 E.03137
G1 X57.37 Y10.33 E.12988
G1 X58.929 Y10.811 E.05116
G1 X59.7 Y11.449 E.03138
G1 X202.429 Y170.822 E6.70801
G1 X203.192 Y172.264 E.05115
G1 X203.285 Y173.26 E.03136
G1 X203.058 Y177.396 E.12988
G1 X202.577 Y178.955 E.05116
G1 X201.939 Y179.726 E.03138
G1 X169.205 Y209.042 E1.37779
G1 X167.762 Y209.804 E.05117
G1 X166.766 Y209.898 E.03137
G1 X162.63 Y209.67 E.12988
G1 X161.071 Y209.189 E.05116
G1 X160.3 Y208.551 E.03138
G1 X17.571 Y49.178 E6.70801
G1 X16.808 Y47.736 E.05115
G1 X16.715 Y46.74 E.03136
G1 X16.943 Y42.604 E.12988
G1 X17.423 Y41.045 E.05115
G1 X18.061 Y40.274 E.03138
G1 X28.009 Y31.365 E.41871
G1 E-3.5 F3600
;WIPE_START
G1 F7200
G1 X28.054 Y31.325 E-.0286
G1 X30.362 Y29.258 E-1.4714
;WIPE_END
G1 X30.453 Y34.094 F9000
G1 E5 F2400
G1 F1200
G1 X52.023 Y14.777 E.90787
G1 X52.866 Y14.263 E.03096
G1 X53.828 Y13.936 E.03186
G1 X55.74 Y13.927 E.05995
G1 X56.964 Y14.334 E.04044
G1 X58.05 Y15.098 E.04163
G1 X198.921 Y172.493 E6.62295
G1 X199.245 Y173.178 E.02376
G1 X199.458 Y173.886 E.02318
G1 X199.499 Y175.506 E.05081
G1 X199.114 Y176.861 E.04417
G1 X198.29 Y178.075 E.046
G1 X167.533 Y205.533 E1.29275
G1 X166.848 Y205.858 E.02377
G1 X166.14 Y206.07 E.02317
G1 X164.52 Y206.112 E.05081
G1 X163.165 Y205.727 E.04417
G1 X161.952 Y204.904 E.04596
G1 X141.688 Y182.277 E.95237
G1 X141.077 Y181.131 E.04072
G1 X140.819 Y179.884 E.03993
G1 X140.883 Y178.623 E.03959
G1 X141.268 Y177.44 E.03901
G1 X141.901 Y176.48 E.03605
G1 X150.804 Y168.473 E.37543
G1 X110.258 Y123.199 E1.90559
G1 X101.362 Y131.14 E.37389
G1 X100.551 Y131.594 E.02914
G1 X99.69 Y131.87 E.02835
G1 X97.366 Y131.777 E.07293
G1 X96.362 Y131.347 E.03425
G1 X95.492 Y130.695 E.03409
G1 X81.693 Y115.286 E.64855
G1 X81.179 Y114.444 E.03093
G1 X80.854 Y113.485 E.03175
G1 X80.804 Y111.832 E.05185
G1 X81.185 Y110.489 E.04377
G1 X81.748 Y109.565 E.03393
G1 X90.762 Y101.43 E.38071
G1 X56.887 Y63.604 E1.59208
G1 X47.965 Y71.561 E.37483
G1 X46.98 Y72.077 E.03487
G1 X45.824 Y72.339 E.03716
G1 X44.599 Y72.298 E.03843
G1 X43.435 Y71.973 E.03789
G1 X42.17 Y71.155 E.04723
G1 X21.079 Y47.507 E.99352
G1 X20.755 Y46.822 E.02376
G1 X20.542 Y46.114 E.02318
G1 X20.501 Y44.494 E.05081
G1 X20.886 Y43.139 E.04417
G1 X21.708 Y41.926 E.04594
G1 X30.408 Y34.134 E.3662
G1 X30.66 Y34.415 F9000
G1 F1200
G1 X52.261 Y15.07 E.90918
G1 X53.043 Y14.597 E.02866
G1 X53.918 Y14.304 E.02893
G1 X55.708 Y14.304 E.05612
G1 X56.816 Y14.682 E.03671
G1 X57.783 Y15.365 E.03712
G1 X198.592 Y172.679 E6.61976
G1 X198.888 Y173.301 E.0216
G1 X199.089 Y173.969 E.02187
G1 X199.122 Y175.485 E.04754
G1 X198.761 Y176.727 E.04055
G1 X198.022 Y177.809 E.04108
G1 X167.347 Y205.205 E1.28953
G1 X166.725 Y205.501 E.0216
G1 X166.057 Y205.702 E.02187
G1 X164.541 Y205.734 E.04754
G1 X163.299 Y205.374 E.04054
G1 X162.218 Y204.636 E.04104
G1 X141.984 Y182.043 E.95095
G1 X141.423 Y180.98 E.03769
G1 X141.193 Y179.834 E.03665
G1 X141.258 Y178.669 E.03658
G1 X141.598 Y177.624 E.03446
G1 X142.171 Y176.744 E.03293
G1 X151.335 Y168.501 E.38647
G1 X110.287 Y122.667 E1.92917
G1 X101.158 Y130.822 E.38381
G1 X100.417 Y131.241 E.02669
G1 X99.606 Y131.501 E.0267
G1 X97.481 Y131.416 E.06668
G1 X96.569 Y131.03 E.03105
G1 X95.76 Y130.429 E.0316
G1 X81.986 Y115.048 E.64737
G1 X81.513 Y114.267 E.02863
G1 X81.221 Y113.393 E.02889
G1 X81.182 Y111.852 E.04833
G1 X81.539 Y110.62 E.04022
G1 X82.054 Y109.786 E.03073
G1 X91.294 Y101.459 E.39
G1 X56.916 Y63.072 E1.61571
G1 X47.768 Y71.239 E.3845
G1 X46.87 Y71.716 E.03188
G1 X45.812 Y71.961 E.03405
G1 X44.635 Y71.922 E.03692
G1 X43.565 Y71.618 E.03488
G1 X42.435 Y70.885 E.04223
G1 X21.408 Y47.32 E.99024
G1 X21.112 Y46.699 E.02157
G1 X20.911 Y46.031 E.02187
G1 X20.878 Y44.515 E.04754
G1 X21.239 Y43.273 E.04055
G1 X21.977 Y42.192 E.04104
G1 X30.615 Y34.455 E.3636
G1 X30.867 Y34.736 F9000
G1 F1200
G1 X52.499 Y15.363 E.91049
G1 X53.218 Y14.931 E.0263
G1 X54.007 Y14.671 E.02605
G1 X55.616 Y14.671 E.05045
G1 X56.668 Y15.03 E.03485
G1 X57.516 Y15.632 E.03261
G1 X198.263 Y172.866 E6.61659
G1 X198.72 Y174.052 E.03985
G1 X198.744 Y175.461 E.04418
G1 X198.408 Y176.59 E.03693
G1 X197.754 Y177.543 E.03624
G1 X167.16 Y204.876 E1.28632
G1 X165.975 Y205.333 E.03982
G1 X164.565 Y205.357 E.04422
G1 X163.436 Y205.021 E.03693
G1 X162.484 Y204.368 E.0362
G1 X142.281 Y181.809 E.94951
G1 X141.77 Y180.83 E.03463
G1 X141.571 Y179.83 E.03197
G1 X141.625 Y178.761 E.03356
G1 X141.948 Y177.766 E.0328
G1 X142.472 Y176.972 E.02983
G1 X151.868 Y168.53 E.39605
G1 X110.317 Y122.134 E1.95282
G1 X100.953 Y130.504 E.39379
G1 X100.283 Y130.888 E.02421
G1 X99.523 Y131.132 E.02503
G1 X97.597 Y131.056 E.06044
G1 X96.737 Y130.692 E.02928
G1 X96.029 Y130.163 E.02771
G1 X82.279 Y114.81 E.64622
G1 X81.847 Y114.092 E.02627
G1 X81.588 Y113.303 E.02604
G1 X81.559 Y111.875 E.04478
G1 X81.893 Y110.753 E.03671
G1 X82.359 Y110.01 E.0275
G1 X91.826 Y101.487 E.3994
G1 X56.946 Y62.54 E1.63929
G1 X47.569 Y70.918 E.39427
G1 X46.758 Y71.355 E.02888
G1 X45.797 Y71.584 E.03098
G1 X44.713 Y71.552 E.034
G1 X43.744 Y71.285 E.03151
G1 X42.699 Y70.615 E.03892
G1 X21.737 Y47.134 E.98692
G1 X21.28 Y45.948 E.03985
G1 X21.256 Y44.539 E.04418
G1 X21.592 Y43.41 E.03693
G1 X22.245 Y42.458 E.0362
G1 X30.822 Y34.776 E.36102
G1 X31.074 Y35.057 F9000
G1 F1200
G1 X52.738 Y15.655 E.91185
G1 X53.356 Y15.283 E.02262
G1 X54.096 Y15.039 E.02443
G1 X55.526 Y15.039 E.04484
G1 X56.474 Y15.355 E.03133
G1 X57.249 Y15.9 E.02971
G1 X197.935 Y173.053 E6.61342
G1 X198.351 Y174.133 E.03629
G1 X198.367 Y175.436 E.04086
G1 X198.057 Y176.451 E.03328
G1 X197.487 Y177.277 E.03147
G1 X166.973 Y204.548 E1.28316
G1 X165.893 Y204.964 E.03629
G1 X164.591 Y204.98 E.04083
G1 X163.575 Y204.669 E.03331
G1 X162.75 Y204.1 E.03142
G1 X142.578 Y181.576 E.94804
G1 X142.118 Y180.682 E.03152
G1 X141.946 Y179.783 E.0287
G1 X142 Y178.808 E.03062
G1 X142.297 Y177.91 E.02966
G1 X142.772 Y177.202 E.02673
G1 X152.4 Y168.56 E.40565
G1 X110.346 Y121.602 E1.97646
G1 X100.749 Y130.187 E.40373
G1 X100.113 Y130.551 E.02298
G1 X99.441 Y130.763 E.02209
G1 X97.71 Y130.695 E.05432
G1 X96.942 Y130.375 E.02609
G1 X96.297 Y129.897 E.02517
G1 X82.572 Y114.572 E.64504
G1 X82.199 Y113.953 E.02266
G1 X81.955 Y113.213 E.02443
G1 X81.937 Y111.9 E.04117
G1 X82.245 Y110.889 E.03314
G1 X82.663 Y110.234 E.02436
G1 X92.358 Y101.516 E.40881
G1 X56.975 Y62.007 E1.66294
G1 X47.369 Y70.598 E.40407
G1 X46.643 Y70.995 E.02594
G1 X45.78 Y71.206 E.02786
G1 X44.787 Y71.182 E.03114
G1 X43.92 Y70.951 E.02813
G1 X42.962 Y70.344 E.03556
G1 X22.065 Y46.946 E.98362
G1 X21.649 Y45.867 E.03626
G1 X21.633 Y44.564 E.04086
G1 X21.943 Y43.549 E.03328
G1 X22.513 Y42.724 E.03144
G1 X31.029 Y35.097 E.35845
G1 X31.281 Y35.378 F9000
G1 F1200
G1 X52.976 Y15.949 E.91314
G1 X53.53 Y15.618 E.02023
G1 X54.183 Y15.407 E.02152
G1 X55.438 Y15.406 E.03935
G1 X56.283 Y15.681 E.02786
G1 X56.984 Y16.168 E.02676
G1 X197.608 Y173.242 E6.61028
G1 X197.982 Y174.215 E.03268
G1 X197.99 Y175.407 E.03738
G1 X197.706 Y176.31 E.02968
G1 X197.219 Y177.01 E.02674
G1 X166.784 Y204.22 E1.28004
G1 X165.811 Y204.595 E.0327
G1 X164.619 Y204.603 E.03738
G1 X163.716 Y204.319 E.02968
G1 X163.017 Y203.832 E.02671
G1 X142.876 Y181.343 E.94658
G1 X142.467 Y180.537 E.02834
G1 X142.321 Y179.738 E.02547
G1 X142.375 Y178.857 E.02767
G1 X142.646 Y178.056 E.02651
G1 X143.07 Y177.434 E.0236
G1 X152.932 Y168.589 E.41536
G1 X110.376 Y121.07 E2.00007
G1 X100.543 Y129.871 E.41376
G1 X99.98 Y130.197 E.0204
G1 X99.358 Y130.393 E.02045
G1 X97.822 Y130.333 E.0482
G1 X97.145 Y130.057 E.02292
G1 X96.564 Y129.631 E.02259
G1 X82.865 Y114.334 E.64384
G1 X82.534 Y113.779 E.02026
G1 X82.323 Y113.126 E.02152
G1 X82.314 Y111.928 E.03756
G1 X82.597 Y111.028 E.02958
G1 X82.965 Y110.461 E.02119
G1 X92.89 Y101.545 E.41832
G1 X57.005 Y61.475 E1.68654
G1 X47.167 Y70.279 E.41394
G1 X46.526 Y70.636 E.023
G1 X45.763 Y70.829 E.02468
G1 X44.818 Y70.806 E.02964
G1 X44.095 Y70.615 E.02345
G1 X43.225 Y70.072 E.03216
G1 X22.392 Y46.758 E.98032
G1 X22.018 Y45.785 E.03268
G1 X22.01 Y44.593 E.03738
G1 X22.294 Y43.69 E.02968
G1 X22.781 Y42.99 E.02674
G1 X31.236 Y35.418 E.35587
G1 X31.488 Y35.699 F9000
G1 F1200
G1 X53.213 Y16.242 E.91442
G1 X53.702 Y15.954 E.01779
G1 X54.269 Y15.775 E.01864
G1 X55.35 Y15.774 E.03389
G1 X56.139 Y16.031 E.02602
G1 X56.717 Y16.435 E.02211
G1 X197.281 Y173.432 E6.60723
G1 X197.613 Y174.296 E.02902
G1 X197.613 Y175.376 E.03386
G1 X197.357 Y176.166 E.02604
G1 X196.952 Y176.743 E.0221
G1 X166.594 Y203.894 E1.277
G1 X165.731 Y204.225 E.02898
G1 X164.65 Y204.226 E.03389
G1 X163.861 Y203.969 E.02602
G1 X163.283 Y203.565 E.02211
G1 X143.174 Y181.111 E.94509
G1 X142.817 Y180.395 E.02509
G1 X142.696 Y179.698 E.02218
G1 X142.749 Y178.908 E.02483
G1 X142.993 Y178.206 E.0233
G1 X143.367 Y177.668 E.02054
G1 X153.465 Y168.618 E.42516
G1 X110.405 Y120.537 E2.02374
G1 X100.334 Y129.556 E.42388
G1 X99.845 Y129.844 E.01779
G1 X99.276 Y130.024 E.01871
G1 X97.931 Y129.971 E.0422
G1 X97.347 Y129.737 E.01973
G1 X96.831 Y129.364 E.01996
G1 X83.159 Y114.097 E.64258
G1 X82.87 Y113.607 E.01784
G1 X82.691 Y113.041 E.01861
G1 X82.691 Y111.959 E.03393
G1 X82.947 Y111.17 E.02601
G1 X83.265 Y110.69 E.01805
G1 X93.422 Y101.574 E.42792
G1 X57.034 Y60.943 E1.71016
G1 X46.963 Y69.962 E.42388
G1 X46.405 Y70.278 E.02011
G1 X45.745 Y70.451 E.02139
G1 X44.848 Y70.429 E.02813
G1 X44.267 Y70.279 E.01881
G1 X43.488 Y69.8 E.02867
G1 X22.719 Y46.568 E.97707
G1 X22.387 Y45.704 E.02902
G1 X22.387 Y44.624 E.03386
G1 X22.643 Y43.834 E.02604
G1 X23.048 Y43.257 E.0221
G1 X31.443 Y35.739 E.35334
G1 X31.694 Y36.02 F9000
G1 F1200
G1 X53.45 Y16.536 E.91571
G1 X53.872 Y16.291 E.0153
G1 X54.35 Y16.144 E.01568
G1 X55.316 Y16.151 E.03029
G1 X55.992 Y16.378 E.02236
G1 X56.45 Y16.702 E.01759
G1 X196.955 Y173.624 E6.60424
G1 X197.243 Y174.376 E.02525
G1 X197.237 Y175.342 E.03029
G1 X197.009 Y176.018 E.02237
G1 X196.685 Y176.476 E.01759
G1 X166.403 Y203.568 E1.27399
G1 X165.651 Y203.856 E.02525
G1 X164.684 Y203.849 E.03032
G1 X164.008 Y203.622 E.02236
G1 X163.55 Y203.298 E.01759
G1 X143.473 Y180.879 E.9436
G1 X143.168 Y180.255 E.02178
G1 X143.074 Y179.701 E.01762
G1 X143.123 Y178.96 E.02328
G1 X143.338 Y178.358 E.02004
G1 X143.661 Y177.904 E.01747
G1 X153.997 Y168.647 E.43505
G1 X110.434 Y120.005 E2.04736
G1 X100.098 Y129.262 E.43505
G1 X99.676 Y129.507 E.0153
G1 X99.197 Y129.654 E.01571
G1 X98.038 Y129.608 E.03637
G1 X97.546 Y129.416 E.01656
G1 X97.098 Y129.096 E.01726
G1 X83.453 Y113.86 E.64129
G1 X83.208 Y113.438 E.0153
G1 X83.061 Y112.959 E.01571
G1 X83.067 Y111.994 E.03026
G1 X83.295 Y111.317 E.0224
G1 X83.563 Y110.922 E.01497
G1 X93.955 Y101.603 E.43766
G1 X57.063 Y60.41 E1.73383
G1 X46.727 Y69.667 E.43505
G1 X46.244 Y69.936 E.01733
G1 X45.68 Y70.079 E.01824
G1 X44.881 Y70.053 E.02507
G1 X44.437 Y69.941 E.01436
G1 X43.749 Y69.527 E.02518
G1 X23.045 Y46.376 E.97381
G1 X22.757 Y45.624 E.02525
G1 X22.763 Y44.658 E.03029
G1 X22.991 Y43.982 E.02237
G1 X23.315 Y43.524 E.01759
G1 X31.65 Y36.06 E.35081
G1 X31.901 Y36.341 F9000
G1 F1200
G1 X53.686 Y16.831 E.91693
G1 X54.429 Y16.514 E.02533
G1 X55.278 Y16.527 E.02662
G1 X55.84 Y16.725 E.01868
G1 X56.182 Y16.969 E.01317
G1 X196.631 Y173.817 E6.60134
G1 X196.873 Y174.455 E.02139
G1 X196.86 Y175.304 E.02662
G1 X196.663 Y175.866 E.01867
G1 X196.418 Y176.208 E.01319
G1 X166.209 Y203.243 E1.2711
G1 X165.571 Y203.486 E.02141
G1 X164.722 Y203.473 E.02662
G1 X164.16 Y203.275 E.01868
G1 X163.818 Y203.031 E.01317
G1 X143.773 Y180.649 E.94207
G1 X143.52 Y180.118 E.01844
G1 X143.452 Y179.705 E.01312
G1 X143.498 Y179.014 E.02171
G1 X143.683 Y178.514 E.01672
G1 X143.928 Y178.171 E.01322
G1 X154.53 Y168.677 E.44622
G1 X110.464 Y119.472 E2.07103
G1 X99.862 Y128.967 E.44624
G1 X99.12 Y129.284 E.0253
G1 X98.146 Y129.246 E.03056
G1 X97.705 Y129.073 E.01485
G1 X97.365 Y128.829 E.01312
G1 X83.748 Y113.624 E.63998
G1 X83.43 Y112.881 E.02534
G1 X83.443 Y112.032 E.02662
G1 X83.641 Y111.468 E.01874
G1 X83.859 Y111.157 E.01191
G1 X94.487 Y101.633 E.44746
G1 X57.093 Y59.878 E1.75746
G1 X46.491 Y69.372 E.44622
G1 X46.127 Y69.577 E.0131
G1 X45.615 Y69.706 E.01656
G1 X44.918 Y69.677 E.02187
G1 X44.559 Y69.583 E.01164
G1 X44.011 Y69.254 E.02004
G1 X23.369 Y46.183 E.97065
G1 X23.127 Y45.545 E.02139
G1 X23.14 Y44.696 E.02662
G1 X23.337 Y44.134 E.01867
G1 X23.582 Y43.792 E.01319
G1 X31.857 Y36.381 E.3483
G1 X32.108 Y36.662 F9000
G1 F1200
G1 X53.923 Y17.125 E.9182
G1 X54.507 Y16.884 E.01981
G1 X55.235 Y16.903 E.02283
G1 X55.914 Y17.235 E.0237
G1 X196.308 Y174.013 E6.59856
G1 X196.503 Y174.533 E.01741
G1 X196.484 Y175.261 E.02283
G1 X196.152 Y175.941 E.02373
G1 X166.013 Y202.921 E1.26831
G1 X165.493 Y203.116 E.01741
G1 X164.765 Y203.097 E.02283
G1 X164.086 Y202.765 E.0237
G1 X144.073 Y180.419 E.94056
G1 X143.874 Y179.986 E.01494
G1 X143.862 Y179.117 E.02725
G1 X144.194 Y178.439 E.02367
G1 X155.062 Y168.706 E.45743
G1 X110.493 Y118.94 E2.09466
G1 X99.625 Y128.673 E.45743
G1 X99.042 Y128.914 E.01978
G1 X98.254 Y128.883 E.02473
G1 X97.633 Y128.563 E.0219
G1 X84.042 Y113.387 E.63876
G1 X83.801 Y112.803 E.01981
G1 X83.819 Y112.075 E.02283
G1 X84.152 Y111.395 E.02374
G1 X95.02 Y101.662 E.45743
G1 X57.122 Y59.345 E1.78113
G1 X46.254 Y69.078 E.45743
G1 X45.6 Y69.328 E.02195
G1 X44.724 Y69.244 E.02759
G1 X44.272 Y68.98 E.01641
G1 X23.692 Y45.987 E.96753
G1 X23.497 Y45.467 E.01741
G1 X23.516 Y44.739 E.02283
G1 X23.848 Y44.059 E.02373
G1 X32.063 Y36.702 E.34577
G1 X32.315 Y36.983 F9000
G1 F1200
G1 X54.16 Y17.419 E.91946
G1 X54.583 Y17.255 E.01422
G1 X55.186 Y17.278 E.01892
G1 X55.646 Y17.501 E.01603
G1 X195.989 Y174.214 E6.59597
G1 X196.132 Y174.609 E.01317
G1 X196.109 Y175.212 E.01892
G1 X195.887 Y175.672 E.01601
G1 X165.812 Y202.601 E1.26575
G1 X165.417 Y202.745 E.01318
G1 X164.814 Y202.722 E.01892
G1 X164.354 Y202.499 E.01603
G1 X144.375 Y180.191 E.93896
G1 X144.23 Y179.859 E.01136
G1 X144.236 Y179.169 E.02164
G1 X144.46 Y178.707 E.0161
G1 X155.594 Y168.735 E.46865
G1 X110.522 Y118.407 E2.11831
G1 X99.387 Y128.379 E.46867
G1 X98.964 Y128.543 E.01422
G1 X98.362 Y128.52 E.01889
G1 X97.901 Y128.298 E.01604
G1 X84.335 Y113.15 E.63758
G1 X84.171 Y112.726 E.01425
G1 X84.194 Y112.124 E.01889
G1 X84.417 Y111.663 E.01606
G1 X95.552 Y101.691 E.46867
G1 X57.151 Y58.813 E1.80476
G1 X46.016 Y68.785 E.46867
G1 X45.533 Y68.956 E.01607
G1 X44.846 Y68.886 E.02165
G1 X44.532 Y68.705 E.01136
G1 X24.011 Y45.786 E.96457
