; generated by PrusaSlicer 2.7.0+linux-x64-GTK3 on 2023-12-10 at 08:24:32 UTC


;
;

;
;
; 

; external perimeters extrusion width = 0.42mm
; perimeters extrusion width = 0.44mm
; infill extrusion width = 0.44mm
; solid infill extrusion width = 0.44mm
; top infill extrusion width = 0.40mm
; support material extrusion width = 0.36mm
; first layer extrusion width = 0.42mm

M201 X500 Y500 Z100 E5000 ; sets maximum accelerations, mm/sec^2
M203 X500 Y500 Z10 E60 ; sets maximum feedrates, mm / sec
M204 P500 R1000 T500 ; sets acceleration (P, T) and retract acceleration (R), mm/sec^2
M205 X8.00 Y8.00 Z0.40 E5.00 ; sets the jerk limits, mm/sec
M205 S0 T0 ; sets the minimum extruding and travel feed rate, mm/sec

; printing object retriver.stl id:0 copy 0
; stop printing object retriver.stl id:0 copy 0

;TYPE:Custom
G90 ; use absolute coordinates
M83 ; extruder relative mode
M104 S150 ; set temporary nozzle temp to prevent oozing during homing
M140 S60 ; set final bed temp
G4 S30 ; allow partial nozzle warmup
G28 ; home all axis
G1 Z50 F240
G1 X2.0 Y10 F3000
M104 S210 ; set final nozzle temp
M190 S60 ; wait for bed temp to stabilize
M109 S210 ; wait for nozzle temp to stabilize
G1 Z0.28 F240
G92 E0
G1 X2.0 Y140 E10 F1500 ; prime the nozzle
G1 X2.3 Y140 F5000
G92 E0
G1 X2.3 Y10 E10 F1200 ; prime the nozzle
G92 E0
G21 ; set units to millimeters
G90 ; use absolute coordinates
M83 ; use relative distances for extrusion
; Filament gcode
M107
;LAYER_CHANGE
;Z:0.2
;HEIGHT:0.2
;BEFORE_LAYER_CHANGE
G92 E0
;0.2


G1 E-5 F3600
G1 Z.2 F9000
;AFTER_LAYER_CHANGE
;0.2
G1 X74.925 Y73.704
G1 Z.2
G1 E5 F2400
;TYPE:Skirt/Brim
;WIDTH:0.42
G1 F1200
G1 X75.974 Y72.785 E.04373
G1 X76.834 Y72.171 E.03313
G1 X77.809 Y71.596 E.03549
G1 X79.189 Y70.958 E.04767
G1 X80.395 Y70.542 E.04
G1 X81.877 Y70.167 E.04793
G1 X83.38 Y69.892 E.04791
G1 X85.689 Y69.604 E.07296
G1 X129.328 Y68.729 E1.36855
G1 X133.355 Y68.706 E.12627
G1 X135.24 Y68.857 E.05929
G1 X136.903 Y69.229 E.05343
G1 X138.53 Y69.859 E.0547
G1 X140.021 Y70.717 E.05394
G1 X141.365 Y71.8 E.05412
G1 X142.526 Y73.087 E.05435
G1 X143.455 Y74.499 E.053
G1 X144.219 Y76.177 E.05781
G1 X163.265 Y129.339 E1.7706
G1 X163.863 Y131.317 E.06479
G1 X164.196 Y133.136 E.05798
G1 X164.29 Y134.694 E.04894
G1 X164.201 Y136.257 E.04909
G1 X163.929 Y137.74 E.04727
G1 X163.437 Y139.25 E.04979
G1 X162.747 Y140.665 E.04936
G1 X161.765 Y142.09 E.05426
G1 X160.854 Y143.081 E.04221
G1 X159.728 Y144.032 E.04621
G1 X158.357 Y144.9 E.05088
G1 X148.656 Y149.587 E.33781
G1 X147.178 Y150.232 E.05056
G1 X145.24 Y150.835 E.06364
G1 X143.794 Y151.116 E.04619
G1 X142.226 Y151.272 E.04941
G1 X140.504 Y151.276 E.05399
G1 X139.111 Y151.157 E.04384
G1 X65.25 Y142.029 E2.33348
G1 X62.813 Y141.555 E.07784
G1 X61.68 Y141.096 E.03833
G1 X60.128 Y140.107 E.0577
G1 X59.234 Y139.274 E.03831
G1 X57.811 Y137.322 E.07574
G1 X57.03 Y135.951 E.04947
G1 X56.509 Y134.738 E.04139
G1 X55.988 Y132.937 E.05878
G1 X55.771 Y131.53 E.04464
G1 X55.714 Y129.791 E.05455
G1 X56.042 Y126.549 E.10217
G1 X56.277 Y125.138 E.04485
G1 X56.584 Y124.027 E.03614
G1 X71.948 Y78.325 E1.51176
G1 X72.423 Y77.2 E.03829
G1 X73.209 Y75.805 E.0502
G1 X74.053 Y74.657 E.04468
G1 X74.885 Y73.749 E.03861
G1 E-3.5 F3600
;WIPE_START
G1 F7200
G1 X74.925 Y73.704 E-.0286
G1 X75.974 Y72.785 E-.66244
G1 X76.834 Y72.171 E-.50193
G1 X77.391 Y71.843 E-.30703
;WIPE_END
G1 X77.515 Y76.331 F9000
G1 E5 F2400
G1 F1200
G1 X77.891 Y75.948 E.01683
G1 X79.32 Y74.946 E.05472
G1 X80.816 Y74.26 E.0516
G1 X82.556 Y73.768 E.0567
G1 X83.89 Y73.52 E.04254
G1 X85.988 Y73.256 E.0663
G1 X87.77 Y73.205 E.0559
G1 X89.444 Y73.436 E.05298
G1 X90.407 Y73.722 E.0315
G1 X91.326 Y74.122 E.03143
G1 X92.053 Y74.543 E.02634
G1 X92.894 Y75.178 E.03304
G1 X93.509 Y75.778 E.02694
G1 X94.065 Y76.465 E.02771
G1 X94.588 Y77.296 E.03079
G1 X94.99 Y78.149 E.02957
G1 X95.331 Y79.211 E.03497
G1 X95.519 Y80.318 E.03521
G1 X95.56 Y81.211 E.02803
G1 X95.44 Y82.532 E.04159
G1 X95.224 Y83.457 E.02978
G1 X94.83 Y84.531 E.03587
G1 X94.253 Y85.605 E.03823
G1 X93.709 Y86.34 E.02867
G1 X94.668 Y86.762 E.03285
G1 X95.768 Y87.428 E.04032
G1 X97.025 Y87.733 E.04056
G1 X98.682 Y88.356 E.0555
G1 X99.689 Y88.9 E.03589
G1 X100.391 Y89.38 E.02666
G1 X101.479 Y89.628 E.03499
G1 X102.833 Y89.815 E.04286
G1 X104.284 Y89.895 E.04556
G1 X105.869 Y89.858 E.04971
G1 X108.502 Y89.577 E.08302
G1 X112.49 Y88.8 E.12739
G1 X113.867 Y88.355 E.04537
G1 X114.675 Y87.922 E.02874
G1 X115.234 Y87.512 E.02174
G1 X115.801 Y86.999 E.02397
G1 X116.675 Y86.003 E.04155
G1 X116.81 Y85.379 E.02002
G1 X117.236 Y84.26 E.03754
G1 X117.542 Y82.999 E.04069
G1 X118.072 Y81.862 E.03933
G1 X118.686 Y80.975 E.03382
G1 X119.42 Y80.187 E.03377
G1 X120.582 Y79.333 E.04522
G1 X120.964 Y78.714 E.02281
G1 X121.361 Y77.462 E.04118
G1 X121.731 Y76.663 E.02761
G1 X122.443 Y75.547 E.04151
G1 X123.472 Y74.436 E.04748
G1 X124.571 Y73.631 E.04271
G1 X125.911 Y72.983 E.04667
G1 X126.926 Y72.673 E.03328
G1 X127.953 Y72.484 E.03274
G1 X129.382 Y72.392 E.0449
G1 X133.65 Y72.378 E.13382
G1 X134.888 Y72.51 E.03904
G1 X136.102 Y72.821 E.03929
G1 X137.173 Y73.276 E.03649
G1 X137.969 Y73.752 E.02908
G1 X139.157 Y74.774 E.04914
G1 X139.676 Y75.394 E.02535
G1 X140.24 Y76.254 E.03225
G1 X140.839 Y77.611 E.04651
G1 X141.171 Y79.018 E.04533
G1 X141.259 Y80.276 E.03954
G1 X141.166 Y81.625 E.0424
G1 X141.027 Y82.416 E.02518
G1 X140.821 Y83.198 E.02536
G1 X140.386 Y84.317 E.03764
G1 X139.875 Y85.253 E.03344
G1 X138.82 Y86.586 E.0533
G1 X138.225 Y87.109 E.02484
G1 X138.436 Y90.846 E.11736
G1 X143.563 Y97.135 E.25441
G1 X144.695 Y98.879 E.06519
G1 X145.658 Y100.72 E.06514
G1 X146.851 Y101.636 E.04716
G1 X147.848 Y102.732 E.04646
G1 X148.712 Y104.14 E.0518
G1 X149.054 Y104.964 E.02797
G1 X149.335 Y105.981 E.03308
G1 X149.495 Y107.625 E.05179
G1 X149.96 Y108.662 E.03563
G1 X150.231 Y109.636 E.0317
G1 X150.385 Y110.754 E.03539
G1 X150.321 Y112.451 E.05325
G1 X149.931 Y114.298 E.05919
G1 X149.711 Y118.769 E.14035
G1 X149.906 Y119.895 E.03583
G1 X150.562 Y122.337 E.07928
G1 X151.344 Y122.49 E.02498
G1 X152.65 Y122.888 E.04281
G1 X153.908 Y123.445 E.04314
G1 X155.047 Y124.12 E.04151
G1 X156.11 Y124.935 E.042
G1 X157.091 Y125.902 E.04319
G1 X158.349 Y127.559 E.06523
G1 X159.199 Y129.09 E.05491
G1 X159.821 Y130.59 E.05091
G1 X160.309 Y132.207 E.05296
G1 X160.574 Y133.71 E.04785
G1 X160.626 Y134.813 E.03462
G1 X160.486 Y136.337 E.04799
G1 X160.208 Y137.421 E.03509
G1 X159.505 Y138.948 E.05271
G1 X158.847 Y139.87 E.03552
G1 X158.024 Y140.705 E.03676
G1 X157.256 Y141.292 E.03031
G1 X156.438 Y141.773 E.02975
G1 X154.916 Y142.34 E.05093
G1 X153.402 Y142.592 E.04812
G1 X151.95 Y142.637 E.04555
G1 X150.363 Y144.049 E.0666
G1 X148.799 Y145.265 E.06212
G1 X147.06 Y146.29 E.06329
G1 X145.086 Y147.081 E.06668
G1 X143.166 Y147.505 E.06165
G1 X141.202 Y147.631 E.06171
G1 X139.203 Y147.472 E.06288
G1 X137.212 Y147.038 E.06389
G1 X134.83 Y146.141 E.07981
G1 X132.631 Y144.906 E.07908
G1 X130.959 Y143.652 E.06553
G1 X129.618 Y142.391 E.05772
G1 X128.302 Y140.871 E.06304
G1 X127.147 Y139.255 E.06228
G1 X125.505 Y136.487 E.10091
G1 X123.437 Y132.62 E.1375
G1 X122.439 Y130.961 E.0607
G1 X121.056 Y130.552 E.04522
G1 X115.142 Y129.456 E.18859
G1 X113.267 Y128.884 E.06146
G1 X111.575 Y128.133 E.05804
G1 X111.195 Y128.1 E.01196
G1 X100.936 Y128.25 E.3217
G1 X92.417 Y127.885 E.26735
G1 X90.586 Y128.057 E.05766
G1 X89.333 Y128.372 E.04051
G1 X87.954 Y128.854 E.0458
G1 X85.122 Y130.122 E.09729
G1 X81.369 Y132.143 E.13365
G1 X74.641 Y136.081 E.24443
G1 X72.052 Y137.353 E.09044
G1 X69.975 Y138.077 E.06897
G1 X68.025 Y138.443 E.06221
G1 X66.689 Y138.483 E.04191
G1 X65.79 Y138.405 E.02829
G1 X63.798 Y137.974 E.0639
G1 X62.807 Y137.469 E.03487
G1 X61.806 Y136.6 E.04156
G1 X60.83 Y135.243 E.05241
G1 X60.002 Y133.618 E.05718
G1 X59.553 Y132.082 E.05018
G1 X59.375 Y130.523 E.0492
G1 X59.424 Y129.232 E.04051
G1 X59.658 Y127.99 E.03963
G1 X59.721 Y126.643 E.04228
G1 X59.893 Y125.765 E.02805
G1 X60.333 Y124.43 E.04407
G1 X61.232 Y122.44 E.06847
G1 X62.097 Y121.133 E.04914
G1 X62.886 Y120.287 E.03627
G1 X63.867 Y119.529 E.03887
G1 X64.229 Y118.394 E.03735
G1 X64.875 Y117.243 E.04138
G1 X65.398 Y115.881 E.04574
G1 X65.944 Y115.005 E.03236
G1 X66.844 Y113.988 E.04258
G1 X67.729 Y113.287 E.0354
G1 X68.625 Y112.784 E.03222
G1 X69.589 Y111.782 E.0436
G1 X70.884 Y110.938 E.04847
G1 X71.782 Y110.57 E.03043
G1 X72.739 Y110.332 E.03092
G1 X73.273 Y110.088 E.01841
G1 X74.168 Y109.395 E.03549
G1 X75.456 Y108.762 E.045
G1 X76.254 Y108.523 E.02612
G1 X77.214 Y108.36 E.03053
G1 X77.183 Y106.991 E.04294
G1 X77.484 Y105.194 E.05713
G1 X77.343 Y102.284 E.09135
G1 X77.47 Y98.467 E.11975
G1 X77.327 Y98.032 E.01436
G1 X76.004 Y95.824 E.08071
G1 X75.212 Y94.108 E.05926
G1 X74.674 Y92.289 E.05948
G1 X74.479 Y91.169 E.03565
G1 X74.388 Y89.779 E.04368
G1 X74.519 Y87.755 E.06359
G1 X74.892 Y85.761 E.0636
G1 X74.778 Y83.399 E.07415
G1 X74.819 Y82.22 E.03699
G1 X75.169 Y80.263 E.06233
G1 X75.42 Y79.499 E.02521
G1 X76.018 Y78.229 E.04401
G1 X76.917 Y76.94 E.04927
G1 X77.473 Y76.374 E.02488
G1 X77.741 Y76.638 F9000
G1 F1200
G1 X78.151 Y76.221 E.01834
G1 X79.515 Y75.269 E.05215
G1 X80.952 Y74.611 E.04955
G1 X82.643 Y74.135 E.05508
G1 X83.943 Y73.894 E.04146
G1 X86.019 Y73.631 E.06561
G1 X87.745 Y73.581 E.05414
G1 X89.348 Y73.801 E.05073
G1 X90.267 Y74.073 E.03005
G1 X91.166 Y74.463 E.03073
G1 X91.835 Y74.851 E.02425
G1 X92.657 Y75.471 E.03228
G1 X93.765 Y76.693 E.05172
G1 X94.263 Y77.486 E.02936
G1 X94.643 Y78.298 E.02811
G1 X94.961 Y79.288 E.0326
G1 X95.145 Y80.369 E.03438
G1 X95.15 Y81.851 E.04647
G1 X94.866 Y83.338 E.04747
G1 X94.48 Y84.389 E.03511
G1 X93.928 Y85.414 E.0365
G1 X93.094 Y86.534 E.04378
G1 X94.493 Y87.096 E.04727
G1 X95.619 Y87.783 E.04136
G1 X96.912 Y88.093 E.04169
G1 X98.527 Y88.7 E.0541
G1 X99.49 Y89.22 E.03431
G1 X100.222 Y89.726 E.0279
G1 X101.412 Y89.999 E.03828
G1 X102.796 Y90.191 E.04381
G1 X104.279 Y90.272 E.04657
G1 X105.891 Y90.234 E.05056
G1 X108.561 Y89.949 E.08419
G1 X112.58 Y89.167 E.12838
G1 X114.019 Y88.7 E.04744
G1 X114.886 Y88.236 E.03083
G1 X115.472 Y87.805 E.02281
G1 X116.067 Y87.267 E.02515
G1 X117.026 Y86.167 E.04576
G1 X117.169 Y85.494 E.02157
G1 X117.599 Y84.375 E.03759
G1 X117.899 Y83.12 E.04046
G1 X118.391 Y82.063 E.03656
G1 X118.988 Y81.201 E.03288
G1 X119.686 Y80.454 E.03206
G1 X120.853 Y79.611 E.04514
G1 X121.314 Y78.864 E.02752
G1 X121.713 Y77.597 E.04165
G1 X122.068 Y76.833 E.02641
G1 X122.739 Y75.781 E.03912
G1 X123.726 Y74.715 E.04555
G1 X124.762 Y73.956 E.04027
G1 X126.032 Y73.34 E.04426
G1 X127.005 Y73.042 E.03191
G1 X128.013 Y72.856 E.03214
G1 X129.39 Y72.769 E.04326
G1 X132.957 Y72.748 E.11184
G1 X134.834 Y72.884 E.05901
G1 X135.994 Y73.182 E.03755
G1 X137.013 Y73.618 E.03475
G1 X137.748 Y74.058 E.02686
G1 X138.889 Y75.04 E.0472
G1 X139.367 Y75.611 E.02335
G1 X139.909 Y76.434 E.0309
G1 X140.485 Y77.74 E.04475
G1 X140.799 Y79.078 E.04309
G1 X140.882 Y80.289 E.03806
G1 X140.791 Y81.589 E.04086
G1 X140.657 Y82.342 E.02398
G1 X140.466 Y83.071 E.02363
G1 X140.039 Y84.169 E.03694
G1 X139.549 Y85.062 E.03194
G1 X138.544 Y86.329 E.05071
G1 X137.839 Y86.946 E.02937
G1 X138.071 Y91.004 E.12744
G1 X143.261 Y97.36 E.25729
G1 X144.371 Y99.072 E.06397
G1 X145.367 Y100.981 E.06751
G1 X146.59 Y101.909 E.04814
G1 X147.551 Y102.965 E.04477
G1 X148.376 Y104.311 E.0495
G1 X148.701 Y105.097 E.02667
G1 X148.964 Y106.047 E.03091
G1 X149.12 Y107.728 E.05293
G1 X149.6 Y108.775 E.03611
G1 X149.859 Y109.7 E.03012
G1 X150.01 Y110.793 E.0346
G1 X149.946 Y112.406 E.05061
G1 X149.555 Y114.253 E.05919
G1 X149.485 Y116.709 E.07704
G1 X149.334 Y118.761 E.06451
G1 X149.54 Y119.987 E.03898
G1 X150.259 Y122.663 E.08688
G1 X151.243 Y122.853 E.03142
G1 X152.529 Y123.245 E.04215
G1 X153.745 Y123.785 E.04172
G1 X154.845 Y124.439 E.04013
G1 X155.854 Y125.212 E.03985
G1 X156.806 Y126.149 E.04188
G1 X157.509 Y127.008 E.0348
G1 X158.475 Y128.508 E.05594
G1 X159.192 Y130.003 E.05199
G1 X159.72 Y131.486 E.04936
G1 X160.111 Y133.108 E.05231
G1 X160.249 Y134.804 E.05335
G1 X160.113 Y136.276 E.04635
G1 X159.853 Y137.294 E.03294
G1 X159.178 Y138.76 E.0506
G1 X158.549 Y139.638 E.03386
G1 X157.766 Y140.43 E.03492
G1 X157.037 Y140.985 E.02873
G1 X156.262 Y141.439 E.02816
G1 X154.798 Y141.981 E.04895
G1 X153.367 Y142.217 E.04547
G1 X151.801 Y142.264 E.04912
G1 X150.122 Y143.76 E.07051
G1 X148.592 Y144.95 E.06077
G1 X146.895 Y145.95 E.06176
G1 X144.97 Y146.722 E.06503
G1 X143.106 Y147.133 E.05985
G1 X141.199 Y147.254 E.05991
G1 X139.252 Y147.099 E.06124
G1 X137.311 Y146.674 E.0623
G1 X134.984 Y145.796 E.07798
G1 X132.832 Y144.587 E.07739
G1 X131.198 Y143.36 E.06407
G1 X129.893 Y142.134 E.05614
G1 X128.596 Y140.634 E.06217
G1 X127.465 Y139.053 E.06095
G1 X125.834 Y136.303 E.10025
G1 X123.218 Y131.465 E.17245
G1 X122.647 Y130.639 E.03148
G1 X121.136 Y130.184 E.04948
G1 X115.235 Y129.091 E.18817
G1 X113.395 Y128.529 E.06032
G1 X111.677 Y127.763 E.05898
G1 X111.212 Y127.723 E.01463
G1 X100.937 Y127.873 E.3222
G1 X92.41 Y127.507 E.2676
G1 X90.521 Y127.685 E.05949
G1 X89.221 Y128.011 E.04202
G1 X87.818 Y128.502 E.04661
G1 X84.954 Y129.785 E.0984
G1 X81.181 Y131.816 E.13435
G1 X74.463 Y135.749 E.24408
G1 X71.9 Y137.008 E.08953
G1 X69.869 Y137.715 E.06743
G1 X67.994 Y138.067 E.05982
G1 X66.699 Y138.106 E.04062
G1 X65.857 Y138.034 E.0265
G1 X63.945 Y137.626 E.0613
G1 X63.035 Y137.168 E.03194
G1 X62.099 Y136.361 E.03875
G1 X61.154 Y135.05 E.05067
G1 X60.351 Y133.475 E.05543
G1 X59.921 Y132 E.04817
G1 X59.751 Y130.503 E.04724
G1 X59.8 Y129.267 E.03878
G1 X60.036 Y128.033 E.03939
G1 X60.096 Y126.688 E.04221
G1 X60.261 Y125.849 E.02681
G1 X60.684 Y124.57 E.04224
G1 X61.567 Y122.614 E.06729
G1 X62.381 Y121.381 E.04632
G1 X63.151 Y120.555 E.03541
G1 X64.205 Y119.745 E.04168
G1 X64.579 Y118.535 E.03971
G1 X65.218 Y117.411 E.04054
G1 X65.725 Y116.068 E.04501
G1 X66.238 Y115.242 E.03049
G1 X67.092 Y114.272 E.04052
G1 X67.93 Y113.605 E.03358
G1 X68.851 Y113.103 E.03289
G1 X69.822 Y112.078 E.04427
G1 X71.06 Y111.272 E.04632
G1 X71.914 Y110.924 E.02891
G1 X72.855 Y110.695 E.03037
G1 X73.472 Y110.422 E.02115
G1 X74.376 Y109.71 E.03608
G1 X75.607 Y109.108 E.04297
G1 X76.331 Y108.892 E.02369
G1 X77.619 Y108.742 E.04066
G1 X77.559 Y107.02 E.05402
G1 X77.864 Y105.235 E.05678
G1 X77.721 Y102.286 E.09257
G1 X77.874 Y99.082 E.10057
G1 X77.845 Y98.413 E.021
G1 X77.665 Y97.863 E.01814
G1 X76.339 Y95.65 E.08089
G1 X75.568 Y93.983 E.05759
G1 X75.044 Y92.217 E.05776
G1 X74.854 Y91.126 E.03472
G1 X74.765 Y89.782 E.04223
G1 X74.893 Y87.798 E.06234
G1 X75.271 Y85.79 E.06407
G1 X75.155 Y83.388 E.0754
G1 X75.196 Y82.244 E.03589
G1 X75.534 Y80.36 E.06001
G1 X75.766 Y79.648 E.02348
G1 X76.342 Y78.423 E.04244
G1 X77.209 Y77.179 E.04754
G1 X77.699 Y76.681 E.02191
G1 X77.967 Y76.945 F9000
G1 F1200
G1 X78.411 Y76.495 E.01982
G1 X79.71 Y75.592 E.0496
G1 X81.088 Y74.963 E.04749
G1 X82.73 Y74.502 E.05347
G1 X83.996 Y74.267 E.04037
G1 X86.051 Y74.007 E.06495
G1 X87.721 Y73.957 E.05239
G1 X89.252 Y74.166 E.04845
G1 X90.149 Y74.431 E.02933
G1 X91.005 Y74.804 E.02928
G1 X91.617 Y75.159 E.02218
G1 X92.42 Y75.765 E.03154
G1 X93.464 Y76.921 E.04884
G1 X93.937 Y77.676 E.02793
G1 X94.296 Y78.446 E.02664
G1 X94.592 Y79.364 E.03024
G1 X94.771 Y80.421 E.03361
G1 X94.774 Y81.824 E.04399
G1 X94.501 Y83.242 E.04528
G1 X94.142 Y84.222 E.03272
G1 X93.602 Y85.223 E.03566
G1 X92.722 Y86.329 E.04432
G1 X92.804 Y86.833 E.01601
G1 X94.319 Y87.43 E.05106
G1 X95.467 Y88.137 E.04227
G1 X96.8 Y88.453 E.04295
G1 X98.371 Y89.043 E.05262
G1 X99.291 Y89.541 E.0328
G1 X100.053 Y90.071 E.0291
G1 X101.345 Y90.37 E.04158
G1 X102.76 Y90.566 E.04479
G1 X104.273 Y90.649 E.04751
G1 X105.913 Y90.611 E.05143
G1 X108.619 Y90.322 E.08533
G1 X112.67 Y89.533 E.1294
G1 X114.172 Y89.046 E.04951
G1 X115.096 Y88.549 E.0329
G1 X115.711 Y88.098 E.02391
G1 X116.332 Y87.536 E.02626
G1 X117.377 Y86.33 E.05003
G1 X117.528 Y85.609 E.0231
G1 X117.963 Y84.492 E.03758
G1 X118.256 Y83.241 E.04029
G1 X118.71 Y82.264 E.03378
G1 X119.29 Y81.427 E.03193
G1 X119.951 Y80.723 E.03028
G1 X121.13 Y79.886 E.04533
G1 X121.662 Y79.026 E.03171
G1 X122.066 Y77.731 E.04253
