; generated by PrusaSlicer 2.7.1+linux-x64-GTK3 on 2024-01-23 at 21:10:02 UTC


;
;

;
;
; 

; external perimeters extrusion width = 0.42mm
; perimeters extrusion width = 0.44mm
; infill extrusion width = 0.44mm
; solid infill extrusion width = 0.44mm
; top infill extrusion width = 0.40mm
; support material extrusion width = 0.36mm
; first layer extrusion width = 0.42mm

M201 X500 Y500 Z100 E5000 ; sets maximum accelerations, mm/sec^2
M203 X500 Y500 Z10 E60 ; sets maximum feedrates, mm / sec
M204 P500 R1000 T500 ; sets acceleration (P, T) and retract acceleration (R), mm/sec^2
M205 X8.00 Y8.00 Z0.40 E5.00 ; sets the jerk limits, mm/sec
M205 S0 T0 ; sets the minimum extruding and travel feed rate, mm/sec

; printing object sawtooth_hanger.stl id:0 copy 0
; stop printing object sawtooth_hanger.stl id:0 copy 0

;TYPE:Custom
BED_MESH_PROFILE LOAD=default
G90 ; use absolute coordinates
M83 ; extruder relative mode
M104 S150 ; set temporary nozzle temp to prevent oozing during homing
M140 S60 ; set final bed temp
G4 S30 ; allow partial nozzle warmup
G28 ; home all axis
G1 Z50 F240
G1 X2.0 Y10 F3000
M104 S210 ; set final nozzle temp
M190 S60 ; wait for bed temp to stabilize
M109 S210 ; wait for nozzle temp to stabilize
G1 Z0.28 F240
G92 E0
G1 X2.0 Y140 E10 F1500 ; prime the nozzle
G1 X2.3 Y140 F5000
G92 E0
G1 X2.3 Y10 E10 F1200 ; prime the nozzle
G92 E0
G21 ; set units to millimeters
G90 ; use absolute coordinates
M83 ; use relative distances for extrusion
; Filament gcode
M107
;LAYER_CHANGE
;Z:0.2
;HEIGHT:0.2
;BEFORE_LAYER_CHANGE
G92 E0
;0.2


G1 E-5 F3600
G1 Z.2 F9000
;AFTER_LAYER_CHANGE
;0.2
G1 X80.436 Y104.872
G1 Z.2
G1 E5 F2400
;TYPE:Skirt/Brim
;WIDTH:0.42
G1 F1200
G1 X81.391 Y104.247 E.03579
G1 X82.228 Y103.82 E.02946
G1 X96.568 Y98.71 E.47731
G1 X97.741 Y98.35 E.03847
G1 X98.844 Y98.136 E.03523
G1 X100.365 Y98.023 E.04782
G1 X119.743 Y98.025 E.60758
G1 X121.156 Y98.136 E.04444
G1 X122.776 Y98.493 E.05201
G1 X137.436 Y103.68 E.48758
G1 X138.609 Y104.247 E.04085
G1 X139.564 Y104.872 E.03579
G1 X140.285 Y105.475 E.02947
G1 X141.078 Y106.297 E.03581
G1 X141.647 Y107.045 E.02947
G1 X142.236 Y108.022 E.03577
G1 X142.625 Y108.878 E.02948
G1 X142.981 Y109.962 E.03577
G1 X143.17 Y110.883 E.02948
G1 X143.272 Y111.975 E.03439
G1 X143.277 Y115.671 E.11589
G1 X142.883 Y117.254 E.05115
G1 X142.288 Y118.059 E.03139
G1 X139.359 Y120.988 E.12988
G1 X137.961 Y121.829 E.05115
G1 X136.971 Y121.977 E.03139
G1 X83.029 Y121.977 E1.69131
G1 X81.446 Y121.583 E.05115
G1 X80.641 Y120.988 E.03139
G1 X77.712 Y118.059 E.12988
G1 X76.871 Y116.661 E.05115
G1 X76.723 Y115.671 E.03139
G1 X76.744 Y111.695 E.12467
G1 X77.019 Y109.962 E.05502
G1 X77.52 Y108.528 E.04763
G1 X78.353 Y107.045 E.05333
G1 X79.175 Y106.015 E.04132
G1 X80.392 Y104.912 E.0515
G1 E-3.5 F3600
;WIPE_START
G1 F7200
G1 X80.436 Y104.872 E-.02825
G1 X81.391 Y104.247 E-.54214
G1 X82.228 Y103.82 E-.44632
G1 X83.186 Y103.478 E-.48329
;WIPE_END
G1 X82.506 Y107.925 F9000
G1 E5 F2400
G1 F1200
G1 X83.225 Y107.42 E.02755
G1 X84.434 Y106.91 E.04114
G1 X85.788 Y106.691 E.04301
G1 X92.782 Y106.686 E.21929
G1 X94.547 Y104.48 E.08858
G1 X95.292 Y103.693 E.03398
G1 X96.023 Y103.101 E.02949
G1 X96.796 Y102.617 E.0286
G1 X97.62 Y102.229 E.02856
G1 X98.484 Y101.943 E.02854
G1 X99.375 Y101.762 E.02851
G1 X100.368 Y101.687 E.03122
G1 X119.652 Y101.687 E.60464
G1 X120.725 Y101.776 E.03376
G1 X122.232 Y102.171 E.04885
G1 X123.194 Y102.611 E.03317
G1 X124.084 Y103.179 E.0331
G1 X124.788 Y103.768 E.02878
G1 X125.386 Y104.403 E.02735
G1 X127.217 Y106.686 E.09176
G1 X134.214 Y106.691 E.21939
G1 X135.614 Y106.924 E.0445
G1 X136.78 Y107.423 E.03977
G1 X137.679 Y108.061 E.03456
G1 X138.444 Y108.872 E.03496
G1 X139.038 Y109.827 E.03526
G1 X139.449 Y110.955 E.03764
G1 X139.613 Y112.148 E.03776
G1 X139.613 Y114.147 E.06268
G1 X138.965 Y116.07 E.06363
G1 X138.461 Y116.708 E.02549
G1 X137.449 Y117.606 E.04242
G1 X136.636 Y118.014 E.02852
G1 X135.552 Y118.295 E.03511
G1 X125.214 Y118.313 E.32414
G1 X124.314 Y118.25 E.02829
G1 X123.334 Y118.058 E.03131
G1 X122.374 Y117.733 E.03178
G1 X121.492 Y117.299 E.03082
G1 X120.668 Y116.751 E.03103
G1 X119.451 Y115.585 E.05285
G1 X117.619 Y113.314 E.09149
G1 X102.371 Y113.314 E.47809
G1 X100.552 Y115.582 E.09116
G1 X99.389 Y116.708 E.05076
G1 X98.474 Y117.318 E.03448
G1 X97.558 Y117.761 E.0319
G1 X96.615 Y118.071 E.03112
G1 X95.612 Y118.26 E.032
G1 X94.776 Y118.314 E.02627
G1 X84.354 Y118.281 E.32678
G1 X83.124 Y117.917 E.04022
G1 X82.033 Y117.203 E.04088
G1 X81.125 Y116.187 E.04272
G1 X80.562 Y115.001 E.04116
G1 X80.387 Y114.004 E.03174
G1 X80.387 Y112.14 E.05844
G1 X80.618 Y110.704 E.0456
G1 X81.021 Y109.71 E.03363
G1 X81.577 Y108.844 E.03227
G1 X82.361 Y108.027 E.0355
G1 X82.457 Y107.959 E.00369
G1 X82.675 Y108.266 F9000
G1 F1200
G1 X83.391 Y107.759 E.02751
G1 X84.559 Y107.267 E.03974
G1 X85.832 Y107.066 E.04041
G1 X92.964 Y107.063 E.22362
G1 X94.837 Y104.722 E.094
G1 X95.539 Y103.977 E.0321
G1 X96.233 Y103.414 E.02802
G1 X96.967 Y102.953 E.02718
G1 X97.75 Y102.583 E.02715
G1 X98.571 Y102.31 E.02713
G1 X99.439 Y102.134 E.02777
G1 X100.375 Y102.064 E.02943
G1 X119.644 Y102.064 E.60417
G1 X120.66 Y102.148 E.03196
G1 X121.392 Y102.3 E.02344
G1 X122.107 Y102.527 E.02352
G1 X123.025 Y102.949 E.03168
G1 X123.871 Y103.49 E.03149
G1 X124.537 Y104.049 E.02726
G1 X125.105 Y104.656 E.02607
G1 X127.036 Y107.063 E.09675
G1 X134.169 Y107.066 E.22365
G1 X135.487 Y107.28 E.04187
G1 X136.613 Y107.762 E.0384
G1 X137.444 Y108.357 E.03205
G1 X138.156 Y109.116 E.03263
G1 X138.707 Y110.008 E.03287
G1 X139.078 Y111.027 E.034
G1 X139.236 Y112.161 E.0359
G1 X139.236 Y114.116 E.0613
G1 X138.648 Y115.863 E.0578
G1 X138.196 Y116.439 E.02296
G1 X137.256 Y117.282 E.03959
G1 X136.521 Y117.655 E.02584
G1 X135.481 Y117.924 E.03368
G1 X125.221 Y117.936 E.3217
G1 X124.352 Y117.875 E.02731
G1 X123.42 Y117.69 E.02979
G1 X122.507 Y117.38 E.03023
G1 X121.67 Y116.966 E.02928
G1 X120.887 Y116.444 E.02951
G1 X119.732 Y115.334 E.05023
G1 X117.8 Y112.936 E.09655
G1 X102.19 Y112.937 E.48944
G1 X100.27 Y115.331 E.09622
G1 X99.15 Y116.415 E.04887
G1 X98.297 Y116.985 E.03217
G1 X97.428 Y117.407 E.03029
G1 X96.51 Y117.709 E.0303
G1 X95.554 Y117.887 E.03049
G1 X84.383 Y117.904 E.35026
G1 X83.26 Y117.564 E.03679
G1 X82.296 Y116.933 E.03612
G1 X81.454 Y116 E.0394
G1 X80.914 Y114.863 E.03947
G1 X80.764 Y113.989 E.0278
G1 X80.764 Y112.155 E.0575
G1 X80.986 Y110.786 E.04348
G1 X81.362 Y109.871 E.03102
G1 X81.884 Y109.064 E.03013
G1 X82.593 Y108.324 E.03213
G1 X82.626 Y108.301 E.00126
G1 X82.845 Y108.608 F9000
G1 F1200
G1 X83.557 Y108.098 E.02746
G1 X84.684 Y107.624 E.03833
G1 X85.874 Y107.441 E.03775
G1 X93.145 Y107.44 E.22798
G1 X95.127 Y104.964 E.09944
G1 X95.805 Y104.245 E.03099
G1 X97.139 Y103.289 E.05146
G1 X98.657 Y102.677 E.05132
G1 X99.502 Y102.506 E.02703
G1 X100.381 Y102.441 E.02764
G1 X119.636 Y102.441 E.60373
G1 X120.594 Y102.519 E.03014
G1 X121.981 Y102.883 E.04496
G1 X122.855 Y103.285 E.03016
G1 X123.656 Y103.8 E.02986
G1 X124.825 Y104.908 E.0505
G1 X126.855 Y107.44 E.10175
G1 X134.125 Y107.441 E.22795
G1 X135.361 Y107.636 E.03923
G1 X136.445 Y108.1 E.03697
G1 X137.208 Y108.651 E.02951
G1 X137.867 Y109.359 E.03033
G1 X138.376 Y110.189 E.03053
G1 X138.708 Y111.099 E.03037
G1 X138.859 Y112.174 E.03404
G1 X138.859 Y114.086 E.05995
G1 X138.331 Y115.657 E.05197
G1 X137.93 Y116.171 E.02044
G1 X137.06 Y116.958 E.03678
G1 X136.405 Y117.295 E.0231
G1 X135.409 Y117.553 E.03226
G1 X125.227 Y117.559 E.31925
G1 X124.39 Y117.5 E.02631
G1 X123.529 Y117.329 E.02752
G1 X122.641 Y117.027 E.02941
G1 X121.849 Y116.634 E.02772
G1 X121.107 Y116.137 E.028
G1 X120.013 Y115.082 E.04765
G1 X117.98 Y112.559 E.10159
G1 X102.009 Y112.56 E.50076
G1 X99.989 Y115.08 E.10126
G1 X98.913 Y116.122 E.04696
G1 X98.121 Y116.652 E.02988
G1 X97.298 Y117.052 E.02869
G1 X96.404 Y117.347 E.02952
G1 X94.766 Y117.559 E.05179
G1 X84.412 Y117.527 E.32464
G1 X83.442 Y117.233 E.03178
G1 X82.559 Y116.661 E.03299
G1 X81.753 Y115.768 E.03772
G1 X81.267 Y114.728 E.03599
G1 X81.141 Y113.974 E.02397
G1 X81.141 Y112.171 E.05653
G1 X81.355 Y110.869 E.04137
G1 X81.703 Y110.032 E.02842
G1 X82.19 Y109.285 E.02796
G1 X82.801 Y108.648 E.02768
G1 X83.072 Y108.91 F9000
G1 F1200
G1 X83.086 Y108.895 E.00064
G1 X83.759 Y108.418 E.02586
G1 X84.765 Y107.992 E.03425
G1 X85.889 Y107.818 E.03566
G1 X93.326 Y107.817 E.23318
G1 X95.416 Y105.205 E.10489
G1 X96.053 Y104.53 E.0291
G1 X96.655 Y104.04 E.02434
G1 X97.33 Y103.614 E.02503
G1 X98.765 Y103.039 E.04847
G1 X99.564 Y102.878 E.02556
G1 X100.388 Y102.818 E.0259
G1 X119.629 Y102.818 E.60329
G1 X121.201 Y103.03 E.04974
G1 X122.684 Y103.622 E.05007
G1 X123.441 Y104.11 E.02824
G1 X124.033 Y104.611 E.02432
G1 X126.674 Y107.817 E.13024
G1 X134.111 Y107.818 E.23318
G1 X135.236 Y107.993 E.0357
G1 X136.243 Y108.419 E.03428
G1 X136.946 Y108.923 E.02712
G1 X137.557 Y109.574 E.02799
G1 X138.029 Y110.338 E.02816
G1 X138.337 Y111.173 E.02791
G1 X138.482 Y112.188 E.03215
G1 X138.482 Y114.055 E.05854
G1 X138.013 Y115.451 E.04617
G1 X137.663 Y115.904 E.01795
G1 X136.863 Y116.636 E.034
G1 X136.289 Y116.935 E.02029
G1 X135.338 Y117.182 E.03081
G1 X125.234 Y117.182 E.3168
G1 X123.638 Y116.968 E.05049
G1 X122.796 Y116.684 E.02786
G1 X122.048 Y116.314 E.02617
G1 X120.797 Y115.373 E.04908
G1 X118.161 Y112.182 E.12977
G1 X101.828 Y112.183 E.51211
G1 X99.707 Y114.829 E.10633
G1 X98.675 Y115.83 E.04508
G1 X97.944 Y116.318 E.02756
G1 X97.145 Y116.708 E.02788
G1 X96.299 Y116.984 E.0279
G1 X95.441 Y117.141 E.02735
G1 X84.442 Y117.15 E.34487
G1 X83.58 Y116.881 E.02831
G1 X82.821 Y116.389 E.02836
G1 X82.082 Y115.582 E.03431
G1 X81.62 Y114.593 E.03423
G1 X81.518 Y113.959 E.02013
G1 X81.518 Y112.186 E.05559
G1 X81.712 Y110.993 E.0379
G1 X82.029 Y110.223 E.02611
G1 X82.496 Y109.506 E.02683
G1 X83.03 Y108.953 E.0241
G1 X83.3 Y109.212 F9000
G1 F1200
G1 X83.319 Y109.192 E.00086
G1 X83.96 Y108.738 E.02463
G1 X84.888 Y108.349 E.03155
G1 X85.903 Y108.195 E.03219
G1 X93.507 Y108.194 E.23842
G1 X95.706 Y105.447 E.11033
G1 X96.301 Y104.814 E.02724
G1 X97.502 Y103.95 E.04639
G1 X98.873 Y103.4 E.04632
G1 X100.395 Y103.195 E.04815
G1 X119.621 Y103.195 E.60282
G1 X120.465 Y103.263 E.02655
G1 X121.729 Y103.594 E.04097
G1 X122.513 Y103.958 E.0271
G1 X123.226 Y104.42 E.02664
G1 X124.263 Y105.411 E.04497
G1 X126.493 Y108.194 E.11182
G1 X134.097 Y108.195 E.23842
G1 X135.112 Y108.349 E.03219
G1 X136.042 Y108.739 E.03162
G1 X136.685 Y109.196 E.02473
G1 X137.247 Y109.79 E.02564
G1 X137.683 Y110.489 E.02583
G1 X137.967 Y111.247 E.02538
G1 X138.105 Y112.202 E.03025
G1 X138.105 Y114.024 E.05713
G1 X137.694 Y115.247 E.04045
G1 X137.395 Y115.639 E.01546
G1 X136.664 Y116.315 E.03122
G1 X136.171 Y116.577 E.0175
G1 X135.313 Y116.805 E.02784
G1 X124.49 Y116.752 E.33935
G1 X123.747 Y116.607 E.02374
G1 X122.929 Y116.33 E.02708
G1 X121.581 Y115.55 E.04883
G1 X120.575 Y114.58 E.04382
G1 X118.341 Y111.805 E.1117
G1 X101.646 Y111.806 E.52346
G1 X99.426 Y114.578 E.11135
G1 X98.437 Y115.536 E.04317
G1 X97.745 Y115.997 E.02607
G1 X97.015 Y116.354 E.02548
G1 X96.218 Y116.616 E.0263
G1 X95.406 Y116.765 E.02588
G1 X84.525 Y116.782 E.34117
G1 X83.76 Y116.549 E.02507
G1 X83.082 Y116.115 E.02524
G1 X82.381 Y115.35 E.03253
G1 X81.974 Y114.461 E.03066
G1 X81.895 Y113.945 E.01637
G1 X81.895 Y112.201 E.05468
G1 X82.069 Y111.115 E.03449
G1 X82.356 Y110.412 E.02381
G1 X82.781 Y109.754 E.02456
G1 X83.259 Y109.255 E.02167
G1 X83.53 Y109.517 F9000
G1 F1200
G1 X83.577 Y109.468 E.00213
G1 X84.159 Y109.059 E.0223
G1 X85.01 Y108.707 E.02887
G1 X85.916 Y108.572 E.02872
G1 X93.687 Y108.533 E.24366
G1 X95.996 Y105.688 E.11488
G1 X97.079 Y104.664 E.04673
G1 X97.675 Y104.285 E.02215
G1 X98.98 Y103.762 E.04408
G1 X100.402 Y103.572 E.04498
G1 X119.614 Y103.572 E.60238
G1 X121.009 Y103.759 E.04413
G1 X122.341 Y104.294 E.04501
G1 X123.527 Y105.17 E.04623
G1 X126.313 Y108.533 E.13693
G1 X134.084 Y108.572 E.24366
G1 X134.99 Y108.707 E.02872
G1 X135.843 Y109.059 E.02893
G1 X136.426 Y109.47 E.02237
G1 X136.939 Y110.007 E.02329
G1 X137.338 Y110.641 E.02349
G1 X137.597 Y111.323 E.02287
G1 X137.728 Y112.215 E.02827
G1 X137.728 Y113.994 E.05578
G1 X137.375 Y115.045 E.03476
G1 X137.125 Y115.375 E.01298
G1 X136.462 Y115.996 E.02848
G1 X136.049 Y116.22 E.01473
G1 X135.287 Y116.428 E.02477
G1 X124.55 Y116.38 E.33665
G1 X123.855 Y116.245 E.0222
G1 X123.085 Y115.987 E.02546
G1 X121.818 Y115.257 E.04585
G1 X120.857 Y114.329 E.04189
G1 X118.499 Y111.461 E.11642
G1 X101.708 Y111.428 E.52647
G1 X101.494 Y111.453 E.00676
G1 X101.322 Y111.606 E.00722
G1 X98.695 Y114.815 E.13003
G1 X97.548 Y115.676 E.04497
G1 X96.862 Y116.009 E.02391
G1 X96.137 Y116.247 E.02393
G1 X94.751 Y116.428 E.04383
G1 X84.608 Y116.413 E.31803
G1 X83.895 Y116.196 E.02337
G1 X83.341 Y115.84 E.02065
G1 X82.711 Y115.164 E.02897
G1 X82.329 Y114.329 E.02879
G1 X82.272 Y113.933 E.01254
G1 X82.272 Y112.215 E.05387
G1 X82.426 Y111.237 E.03104
G1 X82.698 Y110.572 E.02253
G1 X83.087 Y109.975 E.02234
G1 X83.488 Y109.56 E.01809
G1 X83.759 Y109.822 F9000
G1 F1200
G1 X83.835 Y109.743 E.00344
G1 X84.357 Y109.38 E.01994
G1 X85.089 Y109.076 E.02485
G1 X85.931 Y108.949 E.0267
G1 X93.791 Y108.898 E.24645
G1 X94.121 Y108.635 E.01323
G1 X96.799 Y105.381 E.13214
G1 X97.866 Y104.61 E.04128
G1 X99.086 Y104.124 E.04118
G1 X100.408 Y103.949 E.04181
G1 X119.607 Y103.949 E.60197
G1 X120.336 Y104.006 E.02293
G1 X121.475 Y104.304 E.03691
G1 X122.168 Y104.63 E.02401
G1 X122.793 Y105.038 E.0234
G1 X123.7 Y105.912 E.03949
G1 X125.879 Y108.635 E.10935
G1 X126.209 Y108.898 E.01323
G1 X134.069 Y108.949 E.24645
G1 X134.911 Y109.076 E.0267
G1 X135.644 Y109.38 E.02488
G1 X136.168 Y109.746 E.02004
G1 X136.631 Y110.227 E.02093
G1 X136.993 Y110.795 E.02112
G1 X137.227 Y111.4 E.02034
G1 X137.351 Y112.23 E.02631
G1 X137.351 Y113.963 E.05434
G1 X137.055 Y114.843 E.02911
G1 X136.257 Y115.678 E.03621
G1 X135.924 Y115.863 E.01194
G1 X135.26 Y116.051 E.02164
G1 X125.253 Y116.051 E.31376
G1 X123.962 Y115.884 E.04082
G1 X122.623 Y115.339 E.04533
G1 X121.575 Y114.552 E.04109
G1 X118.863 Y111.25 E.13398
G1 X118.642 Y111.102 E.00834
G1 X118.339 Y111.051 E.00963
G1 X101.431 Y111.081 E.53014
G1 X101.048 Y111.346 E.0146
G1 X98.861 Y114.078 E.10973
G1 X97.962 Y114.95 E.03927
G1 X96.731 Y115.655 E.04448
G1 X95.336 Y116.014 E.04516
G1 X84.688 Y116.043 E.33386
G1 X84.072 Y115.862 E.02013
G1 X83.597 Y115.562 E.01762
G1 X83.038 Y114.976 E.02539
G1 X82.697 Y114.246 E.02526
G1 X82.649 Y112.23 E.06323
G1 X82.784 Y111.357 E.0277
G1 X83.025 Y110.76 E.02019
G1 X83.371 Y110.224 E.02
G1 X83.718 Y109.865 E.01565
G1 X83.987 Y110.128 F9000
G1 F1200
G1 X84.091 Y110.02 E.0047
G1 X84.553 Y109.702 E.01759
G1 X85.21 Y109.434 E.02225
G1 X85.944 Y109.326 E.02326
G1 X93.497 Y109.326 E.23682
G1 X93.941 Y109.246 E.01415
G1 X94.402 Y108.888 E.0183
G1 X96.576 Y106.17 E.10913
G1 X97.52 Y105.275 E.04079
G1 X98.611 Y104.676 E.03902
G1 X99.787 Y104.37 E.0381
G1 X100.415 Y104.326 E.01974
G1 X119.6 Y104.326 E.60153
G1 X120.818 Y104.489 E.03853
G1 X121.995 Y104.965 E.03981
G1 X123.018 Y105.727 E.04
G1 X125.598 Y108.888 E.12793
G1 X126.059 Y109.247 E.01832
G1 X126.503 Y109.326 E.01414
G1 X134.056 Y109.326 E.23682
G1 X134.79 Y109.434 E.02326
G1 X135.446 Y109.702 E.02222
G1 X135.936 Y110.044 E.01874
G1 X136.345 Y110.472 E.01856
G1 X136.664 Y110.98 E.01881
G1 X136.868 Y111.515 E.01795
G1 X136.974 Y112.243 E.02307
G1 X136.974 Y113.932 E.05296
G1 X136.734 Y114.644 E.02356
G1 X136.579 Y114.854 E.00818
G1 X136.049 Y115.363 E.02304
G1 X135.232 Y115.674 E.02741
G1 X124.647 Y115.632 E.33189
G1 X123.372 Y115.289 E.0414
G1 X122.273 Y114.655 E.03978
G1 X121.429 Y113.837 E.03685
G1 X119.12 Y110.969 E.11545
G1 X118.806 Y110.759 E.01184
G1 X118.529 Y110.686 E.00898
G1 X101.664 Y110.674 E.52879
G1 X101.336 Y110.713 E.01036
G1 X100.881 Y110.969 E.01637
G1 X98.579 Y113.828 E.11509
G1 X97.725 Y114.656 E.0373
G1 X96.578 Y115.31 E.0414
G1 X95.948 Y115.517 E.02079
G1 X94.739 Y115.674 E.03823
G1 X84.768 Y115.674 E.31263
G1 X84.204 Y115.508 E.01843
G1 X83.851 Y115.283 E.01313
G1 X83.364 Y114.783 E.02188
G1 X83.065 Y114.16 E.02167
G1 X83.026 Y113.904 E.00812
