; generated by PrusaSlicer 2.7.0+linux-x64-GTK3 on 2023-12-09 at 20:56:14 UTC


;
;

;
;
; 

; external perimeters extrusion width = 0.42mm
; perimeters extrusion width = 0.44mm
; infill extrusion width = 0.44mm
; solid infill extrusion width = 0.44mm
; top infill extrusion width = 0.40mm
; support material extrusion width = 0.36mm
; first layer extrusion width = 0.42mm

M201 X500 Y500 Z100 E5000 ; sets maximum accelerations, mm/sec^2
M203 X500 Y500 Z10 E60 ; sets maximum feedrates, mm / sec
M204 P500 R1000 T500 ; sets acceleration (P, T) and retract acceleration (R), mm/sec^2
M205 X8.00 Y8.00 Z0.40 E5.00 ; sets the jerk limits, mm/sec
M205 S0 T0 ; sets the minimum extruding and travel feed rate, mm/sec

; printing object Three_quarter_zip_cable_tie_anchor.stl id:0 copy 0
; stop printing object Three_quarter_zip_cable_tie_anchor.stl id:0 copy 0

;TYPE:Custom
G90 ; use absolute coordinates
M83 ; extruder relative mode
M104 S150 ; set temporary nozzle temp to prevent oozing during homing
M140 S60 ; set final bed temp
G4 S30 ; allow partial nozzle warmup
G28 ; home all axis
G1 Z50 F240
G1 X2.0 Y10 F3000
M104 S210 ; set final nozzle temp
M190 S60 ; wait for bed temp to stabilize
M109 S210 ; wait for nozzle temp to stabilize
G1 Z0.28 F240
G92 E0
G1 X2.0 Y140 E10 F1500 ; prime the nozzle
G1 X2.3 Y140 F5000
G92 E0
G1 X2.3 Y10 E10 F1200 ; prime the nozzle
G92 E0
G21 ; set units to millimeters
G90 ; use absolute coordinates
M83 ; use relative distances for extrusion
; Filament gcode
M107
;LAYER_CHANGE
;Z:0.2
;HEIGHT:0.2
;BEFORE_LAYER_CHANGE
G92 E0
;0.2


G1 E-5 F3600
G1 Z.2 F9000
;AFTER_LAYER_CHANGE
;0.2
G1 X95.473 Y94.764
G1 Z.2
G1 E5 F2400
;TYPE:Skirt/Brim
;WIDTH:0.42
G1 F1200
G1 X96.266 Y94.102 E.03239
G1 X97.253 Y93.434 E.03737
G1 X98.143 Y92.95 E.03176
G1 X99.242 Y92.487 E.03739
G1 X100.329 Y92.156 E.03563
G1 X101.659 Y91.907 E.04243
G1 X102.864 Y91.823 E.03787
G1 X116.995 Y91.821 E.44307
G1 X118.605 Y91.944 E.05063
G1 X120.466 Y92.386 E.05997
G1 X122.085 Y93.065 E.05505
G1 X123.615 Y94.014 E.05645
G1 X124.942 Y95.163 E.05504
G1 X126.155 Y96.62 E.05944
G1 X126.978 Y97.997 E.0503
G1 X127.644 Y99.626 E.05518
G1 X128.051 Y101.36 E.05585
G1 X128.176 Y102.801 E.04535
G1 X128.167 Y117.473 E.46003
G1 X128.005 Y118.918 E.04559
G1 X127.745 Y120.04 E.03611
G1 X127.295 Y121.316 E.04242
G1 X126.724 Y122.477 E.04057
G1 X125.998 Y123.599 E.0419
G1 X125.268 Y124.493 E.03619
G1 X124.3 Y125.439 E.04244
G1 X123.264 Y126.235 E.04096
G1 X122.112 Y126.921 E.04204
G1 X121.061 Y127.399 E.0362
G1 X119.793 Y127.813 E.04182
G1 X118.515 Y128.07 E.04087
G1 X116.989 Y128.179 E.04797
G1 X102.405 Y128.161 E.45727
G1 X101.082 Y128.005 E.04177
G1 X99.96 Y127.745 E.03611
G1 X98.684 Y127.296 E.04241
G1 X97.523 Y126.724 E.04058
G1 X96.401 Y125.998 E.0419
G1 X95.511 Y125.271 E.03603
G1 X94.567 Y124.307 E.0423
G1 X93.764 Y123.264 E.04127
G1 X93.079 Y122.112 E.04202
G1 X92.601 Y121.062 E.03617
G1 X92.187 Y119.793 E.04185
G1 X91.93 Y118.515 E.04087
G1 X91.821 Y116.989 E.04797
G1 X91.839 Y102.405 E.45727
G1 X91.995 Y101.082 E.04177
G1 X92.255 Y99.96 E.03611
G1 X92.704 Y98.684 E.04241
G1 X93.276 Y97.523 E.04058
G1 X94.002 Y96.401 E.0419
G1 X94.648 Y95.601 E.03224
G1 X95.43 Y94.807 E.03494
G1 X95.699 Y95.071 F9000
G1 F1200
G1 X95.731 Y95.038 E.00144
G1 X96.496 Y94.401 E.03121
G1 X97.453 Y93.754 E.03622
G1 X98.31 Y93.288 E.03059
G1 X99.375 Y92.84 E.03623
G1 X100.415 Y92.523 E.03409
G1 X101.708 Y92.281 E.04125
G1 X102.87 Y92.2 E.03652
G1 X116.995 Y92.198 E.44288
G1 X118.544 Y92.316 E.04871
G1 X120.345 Y92.743 E.05803
G1 X121.908 Y93.397 E.05312
G1 X123.396 Y94.32 E.0549
G1 X124.676 Y95.43 E.05312
G1 X125.849 Y96.84 E.05751
G1 X126.64 Y98.164 E.04836
G1 X127.283 Y99.736 E.05325
G1 X127.679 Y101.423 E.05433
G1 X127.799 Y102.813 E.04374
G1 X127.79 Y117.461 E.45928
G1 X127.633 Y118.857 E.04405
G1 X127.384 Y119.931 E.03457
G1 X126.947 Y121.172 E.04125
G1 X126.397 Y122.289 E.03904
G1 X125.691 Y123.38 E.04075
G1 X124.992 Y124.235 E.03463
G1 X124.051 Y125.155 E.04126
G1 X123.054 Y125.922 E.03944
G1 X121.934 Y126.589 E.04087
G1 X120.928 Y127.046 E.03464
G1 X119.695 Y127.449 E.04067
G1 X118.465 Y127.696 E.03934
G1 X116.989 Y127.802 E.0464
G1 X102.43 Y127.785 E.45649
G1 X101.143 Y127.633 E.04063
G1 X100.069 Y127.384 E.03457
G1 X98.828 Y126.947 E.04125
G1 X97.711 Y126.397 E.03904
G1 X96.62 Y125.691 E.04075
G1 X95.768 Y124.995 E.03449
G1 X94.85 Y124.058 E.04113
G1 X94.078 Y123.054 E.03971
G1 X93.411 Y121.934 E.04087
G1 X92.954 Y120.929 E.03462
G1 X92.551 Y119.695 E.0407
G1 X92.304 Y118.465 E.03934
G1 X92.198 Y116.989 E.0464
G1 X92.215 Y102.43 E.45649
G1 X92.367 Y101.143 E.04063
G1 X92.616 Y100.069 E.03457
G1 X93.053 Y98.828 E.04125
G1 X93.603 Y97.711 E.03904
G1 X94.309 Y96.62 E.04075
G1 X94.932 Y95.849 E.03108
G1 X95.657 Y95.114 E.03237
G1 E-3.5 F3600
;WIPE_START
G1 F7200
G1 X95.699 Y95.071 E-.02855
G1 X95.731 Y95.038 E-.02183
G1 X96.496 Y94.401 E-.47286
G1 X97.453 Y93.754 E-.54871
G1 X98.245 Y93.324 E-.42805
;WIPE_END
G1 X98.277 Y97.7 F9000
G1 E5 F2400
G1 F1200
G1 X98.437 Y97.538 E.00714
G1 X99.654 Y96.716 E.04605
G1 X100.976 Y96.168 E.04487
G1 X102.361 Y95.897 E.04425
G1 X117.394 Y95.881 E.47135
G1 X118.582 Y96.05 E.03762
G1 X119.75 Y96.43 E.03851
G1 X120.81 Y96.988 E.03756
G1 X121.785 Y97.732 E.03845
G1 X122.619 Y98.632 E.03847
G1 X123.276 Y99.64 E.03773
G1 X123.767 Y100.774 E.03875
G1 X124.051 Y101.941 E.03766
G1 X124.139 Y102.975 E.03254
G1 X124.125 Y117.387 E.45188
G1 X123.972 Y118.483 E.0347
G1 X123.663 Y119.518 E.03387
G1 X123.177 Y120.539 E.03545
G1 X122.557 Y121.446 E.03445
G1 X121.712 Y122.335 E.03846
G1 X121.025 Y122.871 E.02732
G1 X120.3 Y123.31 E.02657
G1 X119.117 Y123.802 E.04017
G1 X117.612 Y124.109 E.04816
G1 X115.908 Y124.132 E.05343
G1 X115.176 Y123.948 E.02367
G1 X114.148 Y124.139 E.03278
G1 X102.613 Y124.125 E.36167
G1 X101.516 Y123.972 E.03473
G1 X100.45 Y123.65 E.03492
G1 X99.425 Y123.156 E.03568
G1 X98.508 Y122.523 E.03494
G1 X97.402 Y121.394 E.04955
G1 X96.548 Y120.018 E.05078
G1 X96.035 Y118.527 E.04944
G1 X95.863 Y117.091 E.04535
G1 X95.877 Y102.582 E.45492
G1 X96.03 Y101.508 E.03401
G1 X96.351 Y100.445 E.03482
G1 X96.845 Y99.423 E.03559
G1 X97.47 Y98.518 E.03448
G1 X98.235 Y97.743 E.03414
G1 X98.503 Y98.008 F9000
G1 F1200
G1 X98.692 Y97.816 E.00845
G1 X99.848 Y97.04 E.04365
G1 X101.101 Y96.524 E.04249
G1 X102.415 Y96.27 E.04196
G1 X117.355 Y96.256 E.46843
G1 X118.482 Y96.414 E.03568
G1 X119.589 Y96.772 E.03648
G1 X120.62 Y97.314 E.03652
G1 X121.542 Y98.021 E.03643
G1 X122.331 Y98.876 E.03648
G1 X122.951 Y99.831 E.0357
G1 X123.414 Y100.908 E.03676
G1 X123.681 Y102.015 E.0357
G1 X123.761 Y102.983 E.03045
G1 X123.748 Y117.373 E.45119
G1 X123.6 Y118.416 E.03303
G1 X123.306 Y119.396 E.03208
G1 X122.857 Y120.339 E.03275
G1 X122.273 Y121.197 E.03254
G1 X121.448 Y122.065 E.03755
G1 X120.141 Y122.967 E.04979
G1 X118.989 Y123.446 E.03912
G1 X117.555 Y123.736 E.04587
G1 X115.929 Y123.755 E.05099
G1 X115.145 Y123.55 E.02541
G1 X114.131 Y123.762 E.03248
G1 X102.626 Y123.748 E.36073
G1 X101.584 Y123.6 E.033
G1 X100.573 Y123.294 E.03312
G1 X99.626 Y122.837 E.03297
G1 X98.765 Y122.246 E.03274
G1 X97.686 Y121.145 E.04833
G1 X96.877 Y119.835 E.04828
G1 X96.401 Y118.439 E.04625
G1 X96.239 Y117.058 E.0436
G1 X96.254 Y102.596 E.45345
G1 X96.401 Y101.577 E.03228
G1 X96.708 Y100.569 E.03304
G1 X97.165 Y99.624 E.03291
G1 X97.75 Y98.77 E.03246
G1 X98.461 Y98.05 E.03173
G1 X98.728 Y98.315 F9000
G1 F1200
G1 X98.946 Y98.096 E.00969
G1 X100.041 Y97.364 E.0413
G1 X101.226 Y96.881 E.04012
G1 X102.468 Y96.644 E.03964
G1 X117.317 Y96.631 E.46558
G1 X118.383 Y96.778 E.03374
G1 X119.429 Y97.114 E.03445
G1 X120.404 Y97.624 E.0345
G1 X121.277 Y98.289 E.03441
G1 X122.024 Y99.095 E.03446
G1 X122.626 Y100.023 E.03468
G1 X123.061 Y101.041 E.03471
G1 X123.31 Y102.088 E.03374
G1 X123.384 Y102.99 E.02838
G1 X123.372 Y117.334 E.44975
G1 X123.235 Y118.322 E.03127
G1 X122.949 Y119.273 E.03114
G1 X122.523 Y120.163 E.03094
G1 X121.97 Y120.971 E.0307
G1 X121.205 Y121.776 E.03482
G1 X119.957 Y122.638 E.04756
G1 X118.896 Y123.081 E.03605
G1 X117.533 Y123.359 E.04362
G1 X115.952 Y123.377 E.04957
G1 X115.119 Y123.152 E.02705
G1 X114.113 Y123.385 E.03238
G1 X102.665 Y123.372 E.35894
G1 X101.678 Y123.235 E.03124
G1 X100.723 Y122.948 E.03127
G1 X99.827 Y122.517 E.03117
G1 X98.993 Y121.945 E.03171
G1 X97.995 Y120.929 E.04465
G1 X97.221 Y119.679 E.0461
G1 X96.768 Y118.35 E.04402
G1 X96.616 Y117.048 E.0411
G1 X96.63 Y102.636 E.45188
G1 X96.766 Y101.671 E.03056
G1 X97.054 Y100.719 E.03119
G1 X97.484 Y99.825 E.0311
G1 X98.052 Y98.998 E.03146
G1 X98.686 Y98.358 E.02825
G1 X98.953 Y98.623 F9000
G1 F1200
G1 X99.2 Y98.375 E.01097
G1 X100.234 Y97.689 E.03891
G1 X101.35 Y97.237 E.03775
G1 X102.52 Y97.018 E.03732
G1 X117.279 Y97.006 E.46276
G1 X118.315 Y97.149 E.03279
G1 X119.297 Y97.467 E.03236
G1 X120.214 Y97.95 E.0325
G1 X121.035 Y98.578 E.03241
G1 X121.735 Y99.338 E.0324
G1 X122.3 Y100.213 E.03266
G1 X122.708 Y101.173 E.03271
G1 X122.94 Y102.16 E.03179
G1 X123.007 Y102.997 E.02633
G1 X122.997 Y117.296 E.44834
G1 X122.87 Y118.227 E.02946
G1 X122.592 Y119.15 E.03022
G1 X122.19 Y119.986 E.02909
G1 X121.668 Y120.745 E.02888
G1 X120.962 Y121.488 E.03214
G1 X119.774 Y122.308 E.04526
G1 X118.801 Y122.715 E.03307
G1 X117.51 Y122.982 E.04134
G1 X115.975 Y123 E.04813
G1 X115.091 Y122.752 E.02879
G1 X114.095 Y123.007 E.03224
G1 X102.704 Y122.997 E.35716
G1 X101.772 Y122.87 E.02949
G1 X100.846 Y122.591 E.03032
G1 X100.005 Y122.184 E.02929
G1 X99.222 Y121.645 E.0298
G1 X98.28 Y120.68 E.04228
G1 X97.565 Y119.524 E.04262
G1 X97.135 Y118.262 E.0418
G1 X96.993 Y117.037 E.03867
G1 X97.005 Y102.676 E.45028
G1 X97.138 Y101.739 E.02967
G1 X97.41 Y100.843 E.02936
G1 X97.817 Y100.003 E.02927
G1 X98.352 Y99.226 E.02958
G1 X98.91 Y98.666 E.02479
G1 X99.176 Y98.932 F9000
G1 F1200
G1 X99.452 Y98.656 E.01224
G1 X100.425 Y98.014 E.03655
G1 X101.472 Y97.594 E.03537
G1 X102.571 Y97.392 E.03504
G1 X117.241 Y97.382 E.45997
G1 X118.216 Y97.513 E.03085
G1 X119.137 Y97.809 E.03033
G1 X119.999 Y98.26 E.0305
G1 X120.77 Y98.847 E.03038
G1 X121.428 Y99.557 E.03035
G1 X121.96 Y100.377 E.03065
G1 X122.344 Y101.275 E.03062
G1 X122.57 Y102.232 E.03083
G1 X122.63 Y103.004 E.02428
G1 X122.622 Y117.259 E.44696
G1 X122.504 Y118.134 E.02768
G1 X122.246 Y119.001 E.02836
G1 X121.871 Y119.785 E.02725
G1 X121.366 Y120.519 E.02793
G1 X120.718 Y121.199 E.02945
G1 X119.59 Y121.979 E.043
G1 X118.706 Y122.35 E.03006
G1 X117.487 Y122.605 E.03905
G1 X116 Y122.623 E.04663
G1 X115.061 Y122.35 E.03066
G1 X114.733 Y122.499 E.0113
G1 X114.076 Y122.63 E.02101
G1 X102.741 Y122.622 E.3554
G1 X101.866 Y122.504 E.02768
G1 X100.996 Y122.245 E.02846
G1 X100.182 Y121.851 E.02835
G1 X99.452 Y121.346 E.02783
G1 X98.565 Y120.433 E.03991
G1 X97.909 Y119.369 E.03919
G1 X97.502 Y118.174 E.03958
G1 X97.37 Y117.026 E.03623
G1 X97.38 Y102.715 E.44871
G1 X97.503 Y101.833 E.02792
G1 X97.756 Y100.994 E.02748
G1 X98.15 Y100.181 E.02833
G1 X98.652 Y99.455 E.02768
G1 X99.134 Y98.974 E.02135
G1 X99.399 Y99.241 F9000
G1 F1200
G1 X99.704 Y98.937 E.0135
G1 X100.615 Y98.341 E.03413
G1 X101.593 Y97.952 E.033
G1 X102.621 Y97.766 E.03276
G1 X117.204 Y97.757 E.45724
G1 X118.118 Y97.878 E.02891
G1 X118.978 Y98.151 E.02829
G1 X119.783 Y98.57 E.02845
G1 X120.528 Y99.137 E.02935
G1 X121.14 Y99.801 E.02831
G1 X121.634 Y100.567 E.02858
G1 X121.991 Y101.407 E.02862
G1 X122.199 Y102.303 E.02884
G1 X122.253 Y103.011 E.02226
G1 X122.246 Y117.222 E.44558
G1 X122.138 Y118.041 E.0259
G1 X121.889 Y118.879 E.02741
G1 X121.538 Y119.608 E.02537
G1 X121.064 Y120.293 E.02612
G1 X120.475 Y120.911 E.02677
G1 X119.407 Y121.649 E.0407
G1 X118.61 Y121.985 E.02712
G1 X117.463 Y122.229 E.03677
G1 X116.025 Y122.245 E.04509
G1 X115.083 Y121.921 E.03123
G1 X114.633 Y122.135 E.01562
G1 X114.056 Y122.253 E.01847
G1 X102.778 Y122.246 E.35361
G1 X101.959 Y122.138 E.0259
G1 X101.119 Y121.888 E.02748
G1 X100.361 Y121.519 E.02643
G1 X99.683 Y121.047 E.0259
G1 X98.874 Y120.216 E.03636
G1 X98.253 Y119.213 E.03699
G1 X97.869 Y118.087 E.0373
G1 X97.747 Y117.016 E.0338
G1 X97.755 Y102.753 E.44721
G1 X97.868 Y101.928 E.02611
G1 X98.113 Y101.117 E.02656
G1 X98.482 Y100.359 E.02643
G1 X98.952 Y99.685 E.02576
G1 X99.356 Y99.283 E.01787
G1 X99.62 Y99.55 F9000
G1 F1200
G1 X99.955 Y99.219 E.01477
G1 X100.804 Y98.667 E.03175
G1 X101.713 Y98.31 E.03062
G1 X102.67 Y98.14 E.03048
G1 X117.168 Y98.133 E.45457
G1 X118.021 Y98.243 E.02697
G1 X118.82 Y98.494 E.02626
G1 X119.569 Y98.881 E.02643
G1 X120.262 Y99.405 E.02724
G1 X120.851 Y100.044 E.02725
G1 X121.308 Y100.756 E.02653
G1 X121.637 Y101.538 E.0266
G1 X121.828 Y102.373 E.02686
G1 X121.871 Y117.186 E.46445
G1 X121.772 Y117.949 E.02412
G1 X121.542 Y118.73 E.02553
G1 X121.219 Y119.406 E.02349
G1 X120.763 Y120.066 E.02515
G1 X120.231 Y120.623 E.02415
G1 X119.223 Y121.319 E.03841
G1 X118.512 Y121.62 E.02421
G1 X117.44 Y121.852 E.03439
G1 X116.051 Y121.868 E.04355
G1 X115.395 Y121.663 E.02155
G1 X115.103 Y121.489 E.01066
G1 X114.53 Y121.771 E.02002
G1 X114.036 Y121.876 E.01584
G1 X102.814 Y121.871 E.35186
G1 X102.051 Y121.772 E.02412
G1 X101.269 Y121.541 E.02557
G1 X100.564 Y121.201 E.02454
G1 X99.914 Y120.748 E.02484
G1 X99.16 Y119.969 E.03399
G1 X98.597 Y119.057 E.0336
G1 X98.236 Y117.999 E.03505
G1 X98.124 Y117.006 E.03133
G1 X98.131 Y102.79 E.44573
G1 X98.234 Y102.022 E.0243
G1 X98.469 Y101.241 E.02557
G1 X98.814 Y100.539 E.02453
G1 X99.25 Y99.916 E.02384
G1 X99.578 Y99.592 E.01446
G1 X99.84 Y99.858 F9000
G1 F1200
G1 X100.178 Y99.524 E.0149
G1 X100.962 Y99.01 E.02939
G1 X101.798 Y98.678 E.0282
G1 X102.72 Y98.514 E.02936
G1 X117.134 Y98.508 E.45194
G1 X117.925 Y98.607 E.02499
G1 X118.691 Y98.849 E.02519
G1 X119.355 Y99.191 E.02342
G1 X120.02 Y99.695 E.02616
G1 X120.561 Y100.286 E.02512
G1 X120.981 Y100.945 E.0245
G1 X121.282 Y101.667 E.02453
G1 X121.457 Y102.442 E.02491
G1 X121.494 Y117.173 E.46188
G1 X121.401 Y117.885 E.02251
G1 X121.185 Y118.607 E.02363
G1 X120.886 Y119.228 E.02161
G1 X120.462 Y119.838 E.02329
G1 X119.987 Y120.336 E.02158
G1 X119.04 Y120.989 E.03607
G1 X118.414 Y121.256 E.02134
G1 X117.416 Y121.475 E.03204
G1 X116.079 Y121.49 E.04192
G1 X115.537 Y121.313 E.01788
G1 X115.098 Y120.976 E.01735
G1 X114.424 Y121.409 E.02512
G1 X114.015 Y121.499 E.01313
G1 X102.827 Y121.494 E.35079
G1 X102.115 Y121.401 E.02251
G1 X101.392 Y121.185 E.02366
G1 X100.743 Y120.869 E.02263
G1 X100.145 Y120.45 E.02289
G1 X99.469 Y119.753 E.03044
G1 X98.94 Y118.901 E.03144
G1 X98.604 Y117.913 E.03272
G1 X98.501 Y116.995 E.02896
G1 X98.506 Y102.827 E.44423
G1 X98.6 Y102.115 E.02252
G1 X98.815 Y101.392 E.02365
G1 X99.131 Y100.743 E.02263
G1 X99.549 Y100.146 E.02285
G1 X99.798 Y99.9 E.01097
G1 X100.061 Y100.168 F9000
G1 F1200
G1 X100.428 Y99.807 E.01614
G1 X101.15 Y99.337 E.02701
G1 X101.917 Y99.036 E.02583
G1 X102.768 Y98.889 E.02708
G1 X117.099 Y98.884 E.44934
G1 X117.86 Y98.979 E.02405
G1 X118.561 Y99.203 E.02307
G1 X119.14 Y99.502 E.02043
G1 X119.779 Y99.985 E.02511
G1 X120.271 Y100.527 E.02295
G1 X120.653 Y101.132 E.02243
G1 X120.927 Y101.796 E.02252
G1 X121.086 Y102.509 E.0229
G1 X121.117 Y117.16 E.45937
G1 X121.029 Y117.82 E.02088
G1 X120.828 Y118.484 E.02175
G1 X120.553 Y119.05 E.01973
G1 X120.161 Y119.61 E.02143
G1 X119.742 Y120.048 E.01901
G1 X118.857 Y120.659 E.03372
G1 X118.314 Y120.892 E.01853
G1 X117.389 Y121.098 E.02971
G1 X116.162 Y121.121 E.03848
G1 X115.539 Y120.87 E.02106
G1 X115.096 Y120.444 E.01927
G1 X114.65 Y120.872 E.01938
G1 X113.995 Y121.122 E.02198
G1 X102.839 Y121.117 E.34979
G1 X102.18 Y121.029 E.02085
G1 X101.516 Y120.828 E.02175
G1 X100.923 Y120.537 E.02071
G1 X100.377 Y120.152 E.02095
G1 X99.755 Y119.506 E.02812
G1 X99.284 Y118.744 E.02809
G1 X98.971 Y117.826 E.03041
G1 X98.878 Y116.985 E.02653
G1 X98.883 Y102.84 E.44351
G1 X98.971 Y102.18 E.02088
G1 X99.172 Y101.516 E.02175
G1 X99.463 Y100.923 E.02071
G1 X99.847 Y100.378 E.0209
G1 X100.018 Y100.21 E.00752
G1 X100.28 Y100.478 F9000
G1 F1200
G1 X100.677 Y100.09 E.01741
G1 X101.338 Y99.665 E.02464
G1 X102.035 Y99.395 E.02344
G1 X102.815 Y99.263 E.0248
G1 X117.065 Y99.26 E.4468
G1 X117.764 Y99.344 E.02207
