; generated by PrusaSlicer 2.7.1+linux-x64-GTK3 on 2024-01-23 at 21:09:16 UTC


;
;

;
;
; 

; external perimeters extrusion width = 0.42mm
; perimeters extrusion width = 0.44mm
; infill extrusion width = 0.44mm
; solid infill extrusion width = 0.44mm
; top infill extrusion width = 0.40mm
; support material extrusion width = 0.36mm
; first layer extrusion width = 0.42mm

M201 X500 Y500 Z100 E5000 ; sets maximum accelerations, mm/sec^2
M203 X500 Y500 Z10 E60 ; sets maximum feedrates, mm / sec
M204 P500 R1000 T500 ; sets acceleration (P, T) and retract acceleration (R), mm/sec^2
M205 X8.00 Y8.00 Z0.40 E5.00 ; sets the jerk limits, mm/sec
M205 S0 T0 ; sets the minimum extruding and travel feed rate, mm/sec

; printing object V3_probe_mount_less_fillets-cut.stl id:0 copy 0
; stop printing object V3_probe_mount_less_fillets-cut.stl id:0 copy 0

;TYPE:Custom
BED_MESH_PROFILE LOAD=default
G90 ; use absolute coordinates
M83 ; extruder relative mode
M104 S150 ; set temporary nozzle temp to prevent oozing during homing
M140 S60 ; set final bed temp
G4 S30 ; allow partial nozzle warmup
G28 ; home all axis
G1 Z50 F240
G1 X2.0 Y10 F3000
M104 S210 ; set final nozzle temp
M190 S60 ; wait for bed temp to stabilize
M109 S210 ; wait for nozzle temp to stabilize
G1 Z0.28 F240
G92 E0
G1 X2.0 Y140 E10 F1500 ; prime the nozzle
G1 X2.3 Y140 F5000
G92 E0
G1 X2.3 Y10 E10 F1200 ; prime the nozzle
G92 E0
G21 ; set units to millimeters
G90 ; use absolute coordinates
M83 ; use relative distances for extrusion
; Filament gcode
M107
;LAYER_CHANGE
;Z:0.2
;HEIGHT:0.2
;BEFORE_LAYER_CHANGE
G92 E0
;0.2


G1 E-5 F3600
G1 Z.2 F9000
;AFTER_LAYER_CHANGE
;0.2
G1 X86.359 Y104.509
G1 Z.2
G1 E5 F2400
;TYPE:Skirt/Brim
;WIDTH:0.42
G1 F1200
G1 X114.695 Y81.094 E1.15254
G1 X115.702 Y80.379 E.03872
G1 X116.854 Y79.737 E.04135
G1 X117.853 Y79.307 E.0341
G1 X118.888 Y78.972 E.03411
G1 X120.104 Y78.708 E.03902
G1 X121.867 Y78.555 E.05549
G1 X128.056 Y78.554 E.19405
G1 X129.202 Y78.615 E.03598
G1 X130.278 Y78.776 E.03411
G1 X131.334 Y79.035 E.03409
G1 X132.362 Y79.391 E.03411
G1 X133.353 Y79.84 E.03411
G1 X134.298 Y80.379 E.03411
G1 X135.189 Y81.002 E.03409
G1 X136.019 Y81.705 E.0341
G1 X136.781 Y82.482 E.03412
G1 X137.468 Y83.326 E.03412
G1 X138.074 Y84.229 E.0341
G1 X138.594 Y85.185 E.03412
G1 X139.023 Y86.184 E.03409
G1 X139.359 Y87.219 E.03412
G1 X139.598 Y88.28 E.0341
G1 X139.748 Y89.515 E.03901
G1 X139.777 Y93.802 E.13442
G1 X139.715 Y94.445 E.02025
G1 X131.715 Y135.701 E1.31765
G1 X130.793 Y137.441 E.06174
G1 X127.88 Y140.367 E.12946
G1 X126.483 Y141.211 E.05118
G1 X125.501 Y141.362 E.03115
G1 X105.241 Y141.45 E.63524
G1 X104.023 Y141.229 E.03881
G1 X102.281 Y140.565 E.05845
G1 X101.306 Y139.989 E.03551
G1 X85.039 Y126.254 E.66753
G1 X84.719 Y125.951 E.01382
G1 X83.878 Y124.553 E.05115
G1 X83.73 Y123.563 E.03139
G1 X83.73 Y108.291 E.47884
G1 X84.124 Y106.707 E.05118
G1 X84.719 Y105.903 E.03136
G1 X85.066 Y105.577 E.01493
G1 X86.312 Y104.547 E.05069
G1 E-3.5 F3600
;WIPE_START
G1 F7200
G1 X86.359 Y104.509 E-.02871
G1 X88.747 Y102.536 E-1.47129
;WIPE_END
G1 X89.935 Y108.369 F9000
G1 E5 F2400
G1 F1200
G1 X90.791 Y107.558 E.03697
G1 X91.786 Y107.018 E.0355
G1 X93.018 Y106.717 E.03976
G1 X113.887 Y106.717 E.65433
G1 X113.889 Y90.174 E.51869
G1 X113.937 Y89.424 E.02356
G1 X114.223 Y88.019 E.04496
G1 X114.712 Y86.765 E.0422
G1 X115.093 Y86.074 E.02474
G1 X116.039 Y84.827 E.04908
G1 X117.184 Y83.801 E.04821
G1 X118.306 Y83.107 E.04137
G1 X119.772 Y82.529 E.04941
G1 X121.107 Y82.267 E.04266
G1 X121.855 Y82.22 E.0235
G1 X128.887 Y82.266 E.22049
G1 X130.089 Y82.491 E.03834
G1 X131.658 Y83.089 E.05265
G1 X132.388 Y83.506 E.02636
G1 X133.363 Y84.242 E.0383
G1 X134.45 Y85.409 E.05
G1 X135.323 Y86.838 E.0525
G1 X135.764 Y87.974 E.03821
G1 X135.944 Y88.683 E.02294
G1 X136.109 Y90.129 E.04563
G1 X136.114 Y92.181 E.06434
G1 X135.858 Y93.361 E.03786
G1 X135.281 Y94.455 E.03878
G1 X134.236 Y95.527 E.04694
G1 X133.338 Y96.064 E.03281
G1 X132.116 Y96.415 E.03986
G1 X128.113 Y96.433 E.12551
G1 X128.113 Y133.506 E1.1624
G1 X127.733 Y134.933 E.0463
G1 X127.084 Y135.965 E.03822
G1 X126.148 Y136.857 E.04054
G1 X125.157 Y137.4 E.03543
G1 X123.929 Y137.705 E.03967
G1 X105.777 Y137.784 E.56915
G1 X104.126 Y137.337 E.05363
G1 X103.182 Y136.751 E.03484
G1 X90.147 Y125.02 E.54984
G1 X89.469 Y124.148 E.03463
G1 X88.8 Y122.145 E.06621
G1 X88.814 Y110.911 E.35223
G1 X89.176 Y109.533 E.04467
G1 X89.851 Y108.449 E.04004
G1 X89.892 Y108.411 E.00175
G1 X90.152 Y108.683 F9000
G1 F1200
G1 X90.995 Y107.876 E.03659
G1 X91.902 Y107.377 E.03246
G1 X93.041 Y107.094 E.0368
G1 X114.264 Y107.094 E.66543
G1 X114.266 Y90.192 E.52995
G1 X114.311 Y89.474 E.02256
G1 X114.587 Y88.119 E.04336
G1 X115.054 Y86.925 E.0402
G1 X115.419 Y86.265 E.02365
G1 X116.322 Y85.077 E.04679
G1 X117.415 Y84.099 E.04599
G1 X118.469 Y83.447 E.03886
G1 X119.885 Y82.889 E.04772
G1 X121.156 Y82.641 E.0406
G1 X121.873 Y82.596 E.02253
G1 X128.117 Y82.596 E.19578
G1 X128.84 Y82.64 E.02271
G1 X129.997 Y82.856 E.0369
G1 X131.497 Y83.43 E.05036
G1 X132.179 Y83.82 E.02463
G1 X133.118 Y84.529 E.03689
G1 X134.156 Y85.645 E.04779
G1 X134.981 Y86.995 E.04961
G1 X135.405 Y88.089 E.03679
G1 X135.577 Y88.768 E.02196
G1 X135.733 Y90.147 E.04351
G1 X135.737 Y92.161 E.06315
G1 X135.496 Y93.254 E.03509
G1 X134.962 Y94.253 E.03552
G1 X133.985 Y95.244 E.04363
G1 X133.167 Y95.727 E.02979
G1 X132.088 Y96.038 E.03521
G1 X127.736 Y96.058 E.13646
G1 X127.736 Y133.481 E1.17337
G1 X127.398 Y134.758 E.04142
G1 X126.805 Y135.711 E.03519
G1 X125.943 Y136.54 E.0375
G1 X125.04 Y137.041 E.03238
G1 X123.904 Y137.328 E.03674
G1 X105.801 Y137.407 E.56761
G1 X104.3 Y137.001 E.04875
G1 X103.421 Y136.459 E.03238
G1 X90.412 Y124.751 E.54876
G1 X89.787 Y123.942 E.03205
G1 X89.177 Y122.115 E.06039
G1 X89.191 Y110.937 E.35048
G1 X89.533 Y109.658 E.04151
G1 X90.114 Y108.729 E.03436
G1 X90.432 Y108.931 F9000
G1 F1200
G1 X90.434 Y108.928 E.00011
G1 X91.236 Y108.167 E.03466
G1 X92.018 Y107.737 E.02798
G1 X93.065 Y107.471 E.03387
G1 X114.641 Y107.471 E.6765
G1 X114.643 Y90.209 E.54124
G1 X114.685 Y89.523 E.02155
G1 X114.95 Y88.219 E.04172
G1 X115.395 Y87.085 E.0382
G1 X115.744 Y86.455 E.02258
G1 X116.604 Y85.327 E.04447
G1 X117.645 Y84.398 E.04375
G1 X118.633 Y83.787 E.03642
G1 X119.998 Y83.249 E.046
G1 X121.203 Y83.015 E.03849
G1 X121.89 Y82.973 E.02158
G1 X128.793 Y83.014 E.21644
G1 X129.905 Y83.222 E.03547
G1 X131.318 Y83.762 E.04743
G1 X131.971 Y84.134 E.02356
G1 X132.873 Y84.816 E.03546
G1 X133.861 Y85.88 E.04553
G1 X134.638 Y87.153 E.04676
G1 X135.045 Y88.205 E.03537
G1 X135.209 Y88.852 E.02093
G1 X135.356 Y90.166 E.04146
G1 X135.359 Y92.14 E.06189
G1 X135.134 Y93.145 E.03229
G1 X134.644 Y94.048 E.03221
G1 X133.736 Y94.96 E.04035
G1 X132.998 Y95.389 E.02676
G1 X132.06 Y95.661 E.03062
G1 X127.359 Y95.682 E.1474
G1 X127.359 Y133.456 E1.18438
G1 X127.041 Y134.631 E.03817
G1 X126.499 Y135.489 E.03182
G1 X125.701 Y136.25 E.03457
G1 X124.922 Y136.682 E.02793
G1 X123.878 Y136.951 E.0338
G1 X105.826 Y137.03 E.56601
G1 X104.427 Y136.645 E.0455
G1 X103.661 Y136.168 E.02829
G1 X90.676 Y124.481 E.54776
G1 X90.133 Y123.79 E.02755
G1 X89.554 Y122.084 E.05649
G1 X89.568 Y110.963 E.34869
G1 X89.889 Y109.785 E.03828
G1 X90.4 Y108.981 E.02987
G1 X90.712 Y109.183 F9000
G1 F1200
G1 X91.442 Y108.484 E.03169
G1 X92.137 Y108.095 E.02497
G1 X93.09 Y107.849 E.03086
G1 X115.018 Y107.849 E.68754
G1 X115.019 Y90.226 E.55256
G1 X115.159 Y88.935 E.04072
G1 X115.314 Y88.319 E.01992
G1 X115.737 Y87.245 E.03619
G1 X116.451 Y86.093 E.0425
G1 X117.38 Y85.096 E.04273
G1 X118.797 Y84.127 E.05382
G1 X120.094 Y83.614 E.04373
G1 X121.251 Y83.389 E.03696
G1 X121.906 Y83.35 E.02057
G1 X128.084 Y83.35 E.19371
G1 X128.746 Y83.388 E.02079
G1 X129.813 Y83.588 E.03404
G1 X131.157 Y84.103 E.04513
G1 X131.762 Y84.449 E.02185
G1 X132.628 Y85.102 E.03401
G1 X133.566 Y86.116 E.04331
G1 X134.295 Y87.311 E.04389
G1 X134.841 Y88.935 E.05372
G1 X134.979 Y90.184 E.0394
G1 X134.982 Y92.119 E.06067
G1 X134.773 Y93.035 E.02946
G1 X134.328 Y93.842 E.02889
G1 X133.489 Y94.674 E.03705
G1 X132.831 Y95.051 E.02378
G1 X132.032 Y95.284 E.0261
G1 X126.982 Y95.307 E.15834
G1 X126.982 Y133.431 E1.19535
G1 X126.707 Y134.456 E.03327
G1 X126.22 Y135.234 E.02878
G1 X125.494 Y135.934 E.03162
G1 X124.802 Y136.324 E.02491
G1 X123.852 Y136.574 E.0308
G1 X105.851 Y136.653 E.56441
G1 X104.556 Y136.29 E.04217
G1 X103.902 Y135.878 E.02424
G1 X90.94 Y124.212 E.54678
G1 X90.45 Y123.583 E.025
G1 X89.931 Y122.053 E.05066
G1 X89.945 Y110.988 E.34694
G1 X90.223 Y109.962 E.03333
G1 X90.68 Y109.234 E.02695
G1 X90.997 Y109.437 F9000
G1 F1200
G1 X91.017 Y109.407 E.00113
G1 X91.684 Y108.774 E.02883
G1 X92.257 Y108.454 E.02058
G1 X93.115 Y108.226 E.02784
G1 X115.395 Y108.226 E.69857
G1 X115.396 Y90.243 E.56384
G1 X115.527 Y89.018 E.03863
G1 X116.071 Y87.42 E.05293
G1 X116.746 Y86.328 E.04025
G1 X117.624 Y85.384 E.04042
G1 X118.975 Y84.459 E.05134
G1 X120.206 Y83.974 E.04148
G1 X121.299 Y83.763 E.0349
G1 X121.923 Y83.727 E.0196
G1 X128.699 Y83.763 E.21246
G1 X129.721 Y83.954 E.0326
G1 X130.978 Y84.436 E.04221
G1 X131.554 Y84.763 E.02077
G1 X132.382 Y85.389 E.03255
G1 X133.271 Y86.35 E.04105
G1 X133.953 Y87.468 E.04106
G1 X134.473 Y89.018 E.05126
G1 X134.603 Y90.201 E.03732
G1 X134.605 Y92.098 E.05948
G1 X134.429 Y92.876 E.02501
G1 X134.011 Y93.635 E.02717
G1 X133.243 Y94.388 E.03372
G1 X132.701 Y94.696 E.01955
G1 X132.002 Y94.907 E.02289
G1 X126.605 Y94.932 E.16922
G1 X126.605 Y133.405 E1.20629
G1 X126.351 Y134.327 E.02999
G1 X125.916 Y135.011 E.02542
G1 X125.251 Y135.645 E.02881
G1 X124.68 Y135.966 E.02054
G1 X123.826 Y136.197 E.02774
G1 X105.875 Y136.275 E.56285
G1 X104.733 Y135.956 E.03718
G1 X104.142 Y135.586 E.02186
G1 X91.206 Y123.943 E.54569
G1 X90.768 Y123.378 E.02241
G1 X90.308 Y122.023 E.04487
G1 X90.322 Y111.014 E.34518
G1 X90.579 Y110.091 E.03004
G1 X90.965 Y109.487 E.02247
G1 X91.277 Y109.688 F9000
G1 F1200
G1 X91.292 Y109.665 E.00086
G1 X91.926 Y109.064 E.02739
G1 X92.379 Y108.811 E.01627
G1 X93.141 Y108.603 E.02477
G1 X115.772 Y108.603 E.70958
G1 X115.773 Y90.259 E.57516
G1 X115.895 Y89.101 E.03651
G1 X116.405 Y87.595 E.04985
G1 X117.041 Y86.563 E.03801
G1 X117.868 Y85.671 E.03814
G1 X119.153 Y84.791 E.04883
G1 X120.318 Y84.334 E.03924
G1 X121.345 Y84.137 E.03279
G1 X121.938 Y84.104 E.01862
G1 X128.052 Y84.103 E.1917
G1 X129.629 Y84.319 E.04991
G1 X130.801 Y84.768 E.03935
G1 X132.137 Y85.675 E.05063
G1 X132.975 Y86.584 E.03876
G1 X133.61 Y87.626 E.03826
G1 X134.105 Y89.101 E.04878
G1 X134.226 Y90.218 E.03523
G1 X134.228 Y92.076 E.05826
G1 X134.069 Y92.763 E.02211
G1 X133.697 Y93.425 E.02381
G1 X132.999 Y94.099 E.03042
G1 X132.569 Y94.343 E.0155
G1 X131.971 Y94.53 E.01965
G1 X126.228 Y94.556 E.18007
G1 X126.228 Y133.378 E1.21724
G1 X125.996 Y134.197 E.02669
G1 X125.639 Y134.754 E.02074
G1 X125.008 Y135.356 E.02734
G1 X124.557 Y135.609 E.01621
G1 X123.798 Y135.82 E.0247
G1 X105.901 Y135.898 E.56115
G1 X104.864 Y135.601 E.03382
G1 X104.383 Y135.296 E.01786
G1 X91.469 Y123.673 E.54476
G1 X91.113 Y123.223 E.01799
G1 X90.686 Y121.991 E.04088
G1 X90.699 Y111.042 E.3433
G1 X90.933 Y110.222 E.02674
G1 X91.245 Y109.739 E.01803
G1 X91.559 Y109.938 F9000
G1 F1200
G1 X91.571 Y109.92 E.00068
G1 X92.135 Y109.379 E.0245
G1 X92.505 Y109.167 E.01337
G1 X93.167 Y108.98 E.02157
G1 X116.149 Y108.98 E.72058
G1 X116.15 Y90.275 E.58648
G1 X116.263 Y89.183 E.03442
G1 X116.74 Y87.769 E.04679
G1 X117.336 Y86.798 E.03572
G1 X118.113 Y85.958 E.03588
G1 X119.331 Y85.124 E.04628
G1 X120.429 Y84.695 E.03696
G1 X121.954 Y84.48 E.04829
G1 X128.608 Y84.512 E.20863
G1 X129.536 Y84.685 E.0296
G1 X130.639 Y85.109 E.03705
G1 X131.891 Y85.961 E.04748
G1 X132.679 Y86.818 E.0365
G1 X133.268 Y87.784 E.03547
G1 X133.737 Y89.183 E.04626
G1 X133.849 Y90.235 E.03317
G1 X133.851 Y92.056 E.0571
G1 X133.726 Y92.603 E.01759
G1 X133.382 Y93.215 E.02201
G1 X132.757 Y93.809 E.02703
G1 X131.938 Y94.153 E.02785
G1 X125.851 Y94.181 E.19086
G1 X125.851 Y133.353 E1.22821
G1 X125.663 Y134.019 E.0217
G1 X125.36 Y134.499 E.0178
G1 X124.799 Y135.041 E.02446
G1 X124.43 Y135.254 E.01336
G1 X123.77 Y135.443 E.02153
G1 X105.926 Y135.521 E.55949
G1 X105.042 Y135.268 E.02883
G1 X104.623 Y135.004 E.01553
G1 X91.734 Y123.404 E.54369
G1 X91.429 Y123.015 E.0155
G1 X91.063 Y121.96 E.03501
G1 X91.076 Y111.068 E.34151
G1 X91.266 Y110.4 E.02178
G1 X91.527 Y109.989 E.01527
G1 X91.84 Y110.189 F9000
G1 F1200
G1 X91.848 Y110.177 E.00045
G1 X92.379 Y109.667 E.02308
G1 X93.195 Y109.357 E.02737
G1 X116.526 Y109.357 E.73153
G1 X116.527 Y90.29 E.59783
G1 X116.631 Y89.264 E.03233
G1 X117.075 Y87.942 E.04373
G1 X117.632 Y87.032 E.03345
G1 X118.358 Y86.245 E.03357
G1 X119.509 Y85.457 E.04374
G1 X120.54 Y85.055 E.0347
G1 X121.969 Y84.857 E.04523
G1 X128.022 Y84.857 E.18979
G1 X129.443 Y85.051 E.04497
G1 X130.461 Y85.442 E.03419
G1 X131.645 Y86.247 E.04489
G1 X132.383 Y87.052 E.03424
G1 X132.925 Y87.943 E.0327
G1 X133.369 Y89.264 E.0437
G1 X133.472 Y90.251 E.03111
G1 X133.474 Y92.036 E.05597
G1 X133.382 Y92.447 E.01321
G1 X133.099 Y92.965 E.01851
G1 X132.549 Y93.494 E.02393
G1 X131.849 Y93.786 E.02378
G1 X125.474 Y93.805 E.19988
G1 X125.474 Y133.325 E1.23912
G1 X125.309 Y133.887 E.01836
G1 X125.082 Y134.243 E.01324
G1 X124.554 Y134.754 E.02304
G1 X123.74 Y135.066 E.02733
G1 X105.953 Y135.144 E.5577
G1 X105.176 Y134.914 E.02541
G1 X104.864 Y134.714 E.01162
G1 X91.999 Y123.135 E.54269
G1 X91.746 Y122.809 E.01294
G1 X91.44 Y121.928 E.02924
G1 X91.454 Y111.097 E.3396
G1 X91.62 Y110.534 E.0184
G1 X91.808 Y110.24 E.01094
G1 X92.113 Y110.513 F9000
G1 F1200
G1 X92.591 Y109.979 E.02247
G1 X93.225 Y109.734 E.02131
G1 X116.425 Y109.734 E.72742
G1 X116.755 Y109.639 E.01077
G1 X116.903 Y109.256 E.01287
G1 X116.904 Y90.295 E.59451
G1 X117 Y89.346 E.02991
G1 X117.417 Y88.101 E.04117
G1 X117.938 Y87.253 E.03121
G1 X118.603 Y86.532 E.03075
G1 X119.686 Y85.79 E.04116
G1 X120.65 Y85.416 E.03242
G1 X121.984 Y85.234 E.04221
G1 X128.017 Y85.234 E.18916
G1 X129.35 Y85.416 E.04218
G1 X130.3 Y85.783 E.03193
G1 X131.399 Y86.533 E.04172
G1 X132.086 Y87.285 E.03194
G1 X132.583 Y88.101 E.02996
G1 X133 Y89.346 E.04117
G1 X133.096 Y90.267 E.02903
G1 X133.097 Y92.017 E.05487
G1 X132.813 Y92.717 E.02369
G1 X132.336 Y93.182 E.02089
G1 X131.76 Y93.418 E.01952
G1 X125.097 Y93.428 E.20891
G1 X125.097 Y133.295 E1.25
G1 X124.957 Y133.75 E.01493
G1 X124.34 Y134.442 E.02907
G1 X123.709 Y134.689 E.02125
G1 X105.979 Y134.767 E.55592
G1 X105.355 Y134.582 E.02041
G1 X92.089 Y122.649 E.55946
G1 X91.817 Y121.895 E.02513
G1 X91.831 Y111.127 E.33762
G1 X91.972 Y110.671 E.01497
G1 X92.073 Y110.558 E.00475
G1 X92.335 Y110.8 F9000
G1 F1200
G1 X92.81 Y110.287 E.02192
G1 X93.257 Y110.111 E.01506
G1 X116.447 Y110.111 E.72711
G1 X116.937 Y109.972 E.01597
G1 X117.186 Y109.691 E.01177
G1 X117.28 Y109.278 E.01328
G1 X117.28 Y90.31 E.59473
G1 X117.368 Y89.426 E.02785
G1 X117.599 Y88.626 E.02611
G1 X117.977 Y87.863 E.0267
G1 X118.848 Y86.818 E.04265
G1 X119.514 Y86.319 E.02609
G1 X120.295 Y85.93 E.02736
G1 X121.133 Y85.692 E.02731
G1 X121.989 Y85.611 E.02696
G1 X128.012 Y85.611 E.18885
G1 X128.867 Y85.692 E.02693
G1 X129.705 Y85.93 E.02731
G1 X130.844 Y86.565 E.04089
G1 X131.789 Y87.517 E.04206
G1 X132.401 Y88.626 E.03972
G1 X132.696 Y89.857 E.03969
G1 X132.688 Y92.149 E.07186
G1 X132.525 Y92.472 E.01134
G1 X132.017 Y92.937 E.02159
G1 X131.671 Y93.051 E.01142
G1 X124.72 Y93.051 E.21794
G1 X124.72 Y133.264 E1.26085
G1 X124.607 Y133.607 E.01132
G1 X124.121 Y134.135 E.0225
G1 X123.676 Y134.312 E.01502
G1 X106.005 Y134.389 E.55407
G1 X105.532 Y134.248 E.01548
G1 X92.404 Y122.44 E.55363
G1 X92.194 Y121.862 E.01928
G1 X92.208 Y111.159 E.33559
G1 X92.308 Y110.852 E.01012
G1 X92.662 Y110.979 F9000
G1 F1200
G1 X92.666 Y110.967 E.0004
G1 X93.037 Y110.587 E.01665
G1 X93.292 Y110.488 E.00858
G1 X116.469 Y110.488 E.7267
G1 X116.781 Y110.451 E.00985
G1 X117.142 Y110.293 E.01236
G1 X117.522 Y109.867 E.0179
G1 X117.657 Y109.3 E.01827
G1 X117.657 Y90.324 E.59498
G1 X117.737 Y89.506 E.02577
G1 X118.101 Y88.419 E.03594
G1 X118.539 Y87.708 E.02618
G1 X119.095 Y87.103 E.02576
G1 X120.04 Y86.456 E.03591
